chehuimin88/test_robot_retargeter/dataset/bones_g1_origin/body_check_001__A548_M.csv
Frame,root_translateX,root_translateY,root_translateZ,root_rotateX,root_rotateY,root_rotateZ,left_hip_pitch_joint_dof,left_hip_roll_joint_dof,left_hip_yaw_joint_dof,left_knee_joint_dof,left_ankle_pitch_joint_dof,left_ankle_roll_joint_dof,right_hip_pitch_joint_dof,right_hip_roll_joint_dof,right_hip_yaw_joint_dof,right_knee_joint_dof,right_ankle_pitch_joint_dof,right_ankle_roll_joint_dof,waist_yaw_joint_dof,waist_roll_joint_dof,waist_pitch_joint_dof,left_shoulder_pitch_joint_dof,left_shoulder_roll_joint_dof,left_shoulder_yaw_joint_dof,left_elbow_joint_dof,left_wrist_roll_joint_dof,left_wrist_pitch_joint_dof,left_wrist_yaw_joint_dof,right_shoulder_pitch_joint_dof,right_shoulder_roll_joint_dof,right_shoulder_yaw_joint_dof,right_elbow_joint_dof,right_wrist_roll_joint_dof,right_wrist_pitch_joint_dof,right_wrist_yaw_joint_dof
0,-0.05719495192170143,1.8115570545196533,77.94121551513672,-0.29407506657019356,-0.4499141336815894,-86.55551973261001,-0.2765703,6.1081715,-1.4521792,9.826149,-8.585054,-6.2296267,4.330511,-4.9060574,-6.797665,7.048658,-11.941288,6.9785933,-2.623,1.2969342,6.295635,-2.8128047,12.076252,-42.00369,66.256874,0.25274152,-0.16317132,4.830178,3.943559,-9.053267,22.708843,61.2145,-9.546636,-0.0058342083,-7.961255
1,-0.05609941855072975,1.8092803955078125,77.94540405273438,-0.3054757221087602,-0.44221471613427665,-86.56116328569192,-0.2670248,6.1249785,-1.4599226,9.790396,-8.569504,-6.2899,4.3225417,-4.891469,-6.7976675,7.04875,-11.935929,6.946501,-2.6151059,1.3058369,6.276458,-2.8177445,12.06901,-42.007473,66.270096,0.2744924,-0.16314535,4.8597155,3.9318464,-9.054789,22.713108,61.229527,-9.588026,0.027970558,-7.954714
2,-0.0541863851249218,1.7928998470306396,77.94258880615234,-0.31834198199455094,-0.4333594181088339,-86.56666588073396,-0.2592629,6.1439204,-1.469447,9.75371,-8.552854,-6.356771,4.312651,-4.874817,-6.7980123,7.049448,-11.92997,6.911358,-2.6074018,1.3148845,6.256687,-2.820861,12.065541,-42.010567,66.27882,0.29571915,-0.1628661,4.890136,3.920372,-9.05543,22.71746,61.244324,-9.627405,0.06188403,-7.947602
3,-0.052913058549165726,1.7817234992980957,77.94231414794922,-0.3269079312075081,-0.42678968806345147,-86.57258596794888,-0.24574104,6.1580596,-1.4750159,9.713501,-8.535242,-6.410457,4.3061957,-4.862831,-6.7975965,7.0498233,-11.925887,6.8824873,-2.6038775,1.3241323,6.234731,-2.821712,12.05404,-42.0137,66.29431,0.3170297,-0.16134718,4.9214087,3.9016988,-9.056289,22.728863,61.27025,-9.668136,0.095671535,-7.94442
4,-0.052729953080415726,1.793729543685913,77.9372787475586,-0.3317894074369857,-0.4265219953697861,-86.57703270015806,-0.2367163,6.1647086,-1.4764272,9.704494,-8.535847,-6.4320884,4.3093905,-4.857351,-6.798646,7.0501933,-11.927308,6.8684645,-2.5986905,1.329981,6.2266417,-2.8244915,12.050387,-42.01237,66.29786,0.3483955,-0.1515732,4.940098,3.8963618,-9.056396,22.730785,61.2762,-9.726602,0.123904735,-7.9504447
5,-0.043718524277210236,1.7848196029663086,77.92632293701172,-0.3265901203567892,-0.43730726626839034,-86.58016622778426,-0.22489664,6.1586156,-1.4687968,9.72588,-8.555394,-6.4048915,4.3287926,-4.8629866,-6.800974,7.050535,-11.9377985,6.8769007,-2.5971541,1.3341097,6.233844,-2.8288512,12.042945,-41.99988,66.29928,0.39846712,-0.12929833,4.946448,3.899104,-9.056173,22.726637,61.27055,-9.812075,0.14835888,-7.970258
6,-0.04407257214188576,1.770933747291565,77.9217758178711,-0.31644639820281095,-0.45589890501830904,-86.5821285095904,-0.20791464,6.143659,-1.4547211,9.762457,-8.585049,-6.342983,4.362782,-4.8760653,-6.804803,7.0441685,-11.95081,6.9012904,-2.5962262,1.334801,6.2532277,-2.8366883,12.037721,-41.981976,66.299,0.46139824,-0.099450625,4.9422345,3.9094195,-9.055792,22.71684,61.25308,-9.916285,0.16962007,-7.9989424
7,-0.04719632863998413,1.7664711475372314,77.92301177978516,-0.30401026931991554,-0.47433529680573705,-86.58390591362607,-0.19649817,6.1259313,-1.4404912,9.810873,-8.620965,-6.273098,4.390509,-4.892404,-6.8077326,7.051496,-11.972052,6.9298816,-2.5981529,1.3356365,6.276675,-2.8483918,12.027256,-41.948177,66.301254,0.5359548,-0.0701208,4.932076,3.9175162,-9.055166,22.700138,61.234787,-10.029167,0.18572553,-8.029341
8,-0.04538216441869736,1.7657991647720337,77.92550659179688,-0.2955631155785587,-0.4840531739585593,-86.58612360472804,-0.19225508,6.112744,-1.4317532,9.849591,-8.649957,-6.222116,4.410266,-4.904726,-6.809504,7.0523663,-11.985203,6.950865,-2.5974717,1.3368838,6.283339,-2.8535697,12.020309,-41.93207,66.300545,0.5846512,-0.04898405,4.927429,3.925527,-9.054934,22.696745,61.22506,-10.113045,0.1958433,-8.06097
9,-0.04350624233484268,1.7578574419021606,77.92839813232422,-0.2895106745244327,-0.4813378439967507,-86.58879505935859,-0.19126041,6.1051917,-1.4304421,9.857645,-8.659268,-6.1994543,4.414572,-4.912829,-6.808318,7.0521555,-11.991158,6.961816,-2.5912921,1.3371307,6.272544,-2.8571584,12.0185,-41.930218,66.29953,0.60832906,-0.04143929,4.926661,3.9260855,-9.055107,22.699696,61.22875,-10.166357,0.1967121,-8.090951
10,-0.036811426281929016,1.749741792678833,77.92948150634766,-0.2856581657485783,-0.47066056476018964,-86.59215389721938,-0.20099926,6.100449,-1.4338573,9.865595,-8.666499,-6.190144,4.4085965,-4.9190288,-6.804938,7.0520325,-11.993038,6.9687986,-2.595645,1.3418943,6.2450824,-2.8517761,12.008283,-41.918053,66.30142,0.62814605,-0.039254453,4.9274645,3.9308002,-9.056978,22.728155,61.238846,-10.207411,0.19040942,-8.135502
11,-0.03800990432500839,1.7453302145004272,77.9290771484375,-0.28201336272112676,-0.45839083136103276,-86.59527400685117,-0.20804179,6.0963593,-1.4381157,9.863038,-8.668392,-6.1839247,4.400661,-4.9246364,-6.8021674,7.0517783,-11.994085,6.972971,-2.5934255,1.3433424,6.217703,-2.8503056,12.004959,-41.918415,66.30197,0.63426757,-0.042045366,4.9288263,3.9297597,-9.058147,22.745083,61.252743,-10.236089,0.18097998,-8.168516
12,-0.04107682779431343,1.7285993099212646,77.92571258544922,-0.2788876238082291,-0.45076470746057706,-86.59880923643969,-0.21053118,6.0916934,-1.439412,9.86395,-8.674586,-6.1707225,4.397847,-4.9300995,-6.8017025,7.0520673,-11.997112,6.975548,-2.5932896,1.343134,6.197639,-2.8508575,12.003266,-41.920425,66.30182,0.63602805,-0.042166386,4.9334755,3.9289923,-9.0589905,22.75709,61.259773,-10.258013,0.1759207,-8.187309
13,-0.046850062906742096,1.7219480276107788,77.92973327636719,-0.27367574300849307,-0.4478349598374431,-86.60353403216216,-0.21276572,6.0854936,-1.4366313,9.879448,-8.692987,-6.1413016,4.4017205,-4.9357777,-6.805968,7.050524,-12.002201,6.976917,-2.6086268,1.3419056,6.1742296,-2.8458047,11.999196,-41.93035,66.3073,0.6251016,-0.038366392,4.948383,3.9258316,-9.061156,22.788166,61.27247,-10.266208,0.17702483,-8.1959
14,-0.04215133190155029,1.7124831676483154,77.9252700805664,-0.2688354661467327,-0.4486182376788983,-86.60943159842431,-0.21491614,6.0784793,-1.4316114,9.905614,-8.720238,-6.1032367,4.4076266,-4.941886,-6.8126917,7.0528765,-12.010655,6.9764767,-2.6220162,1.3387063,6.161593,-2.848748,11.998091,-41.941906,66.311195,0.61607724,-0.03263947,4.9649854,3.919188,-9.061935,22.799114,61.279827,-10.280758,0.18106283,-8.187716
15,-0.04892480745911598,1.7040200233459473,77.92223358154297,-0.2629043730257107,-0.45012575283707235,-86.61382448931987,-0.21342383,6.072836,-1.426732,9.9245615,-8.742484,-6.0716095,4.415119,-4.9461775,-6.8189964,7.0534883,-12.018066,6.9737196,-2.6334872,1.3352239,6.1502547,-2.8529084,11.997908,-41.953487,66.316986,0.59527683,-0.029856369,4.9796944,3.9130702,-9.062262,22.805758,61.28585,-10.2807455,0.18275028,-8.171388
16,-0.041440222412347794,1.6996190547943115,77.92333984375,-0.26142342855312833,-0.4501228520069717,-86.61411060029033,-0.2107265,6.0704618,-1.4251685,9.932481,-8.752986,-6.0615597,4.4203205,-4.9470162,-6.8219986,7.0543857,-12.023531,6.9680033,-2.6392696,1.3342229,6.136929,-2.8600433,11.9981985,-41.97188,66.328384,0.5448575,-0.035193313,4.9867115,3.9105709,-9.062629,22.812695,61.290775,-10.253606,0.17660767,-8.150478
17,-0.03418220579624176,1.6910357475280762,77.9286880493164,-0.262016084090549,-0.4476181845766271,-86.60768316542516,-0.20707764,6.072394,-1.4293287,9.923571,-8.745079,-6.085181,4.422299,-4.9429297,-6.8192215,7.0547466,-12.0254965,6.9577703,-2.6380482,1.3362446,6.1236286,-2.8712745,11.998661,-41.981445,66.34621,0.44930258,-0.05514585,4.977625,3.913195,-9.062897,22.813057,61.291336,-10.182583,0.15542299,-8.116755
18,-0.03855195641517639,1.6913092136383057,77.9351577758789,-0.2655991621653369,-0.443900655413493,-86.59608620861601,-0.19951609,6.0775385,-1.4371879,9.897775,-8.721859,-6.131734,4.4221463,-4.9353147,-6.8132105,7.055187,-12.025335,6.9439,-2.6347008,1.3420643,6.1125283,-2.8817554,11.999417,-41.983574,66.36204,0.3256349,-0.083407834,4.9590235,3.917909,-9.063415,22.808475,61.287823,-10.082286,0.12530631,-8.072384
19,-0.04093429446220398,1.6918461322784424,77.93406677246094,-0.2685480944302411,-0.4407808119612254,-86.58536034722607,-0.18882217,6.083814,-1.4436251,9.867269,-8.696019,-6.181956,4.4230266,-4.926773,-6.806115,7.054888,-12.02477,6.929294,-2.6290052,1.3452373,6.1021023,-2.9012752,12.000086,-41.98473,66.39123,0.20893268,-0.11454575,4.9365544,3.9211798,-9.064168,22.803045,61.285892,-9.983018,0.09478631,-8.028295
20,-0.054687634110450745,1.6797751188278198,77.92889404296875,-0.2733511169600596,-0.4388329139294214,-86.5797027270975,-0.17657083,6.0917845,-1.4456004,9.843093,-8.679615,-6.2170787,4.4260325,-4.9183216,-6.8021812,7.0551353,-12.026991,6.916761,-2.6236494,1.3504505,6.093482,-2.912789,12.001059,-41.984993,66.40816,0.1554705,-0.12936412,4.9275503,3.9240015,-9.065306,22.798517,61.28154,-9.927214,0.081056215,-8.007177
21,-0.06341465562582016,1.662137746810913,77.92581176757812,-0.2780604662724738,-0.4396336195446965,-86.58086154157407,-0.16565874,6.1025577,-1.4414507,9.836917,-8.681158,-6.2327166,4.4327135,-4.9096518,-6.8047104,7.0558295,-12.032745,6.9058356,-2.6199126,1.3539929,6.0861096,-2.9228637,12.001762,-41.986637,66.427444,0.19590232,-0.12661536,4.938103,3.9234867,-9.065922,22.799635,61.277885,-9.935299,0.09081825,-8.016621
22,-0.0574173741042614,1.6447482109069824,77.91910552978516,-0.28512415681354186,-0.44310178877843404,-86.5864441713638,-0.15247194,6.1170325,-1.4331362,9.83852,-8.692139,-6.2389464,4.44386,-4.898935,-6.8108892,7.0554395,-12.040326,6.8951535,-2.612514,1.3559403,6.0827966,-2.9341066,12.002526,-41.989037,66.44975,0.30609742,-0.11311478,4.963295,3.928834,-9.066348,22.80527,61.262608,-9.980827,0.11917758,-8.050294
23,-0.06158452481031418,1.6423640251159668,77.91915130615234,-0.2916089687090371,-0.4457196391401129,-86.59504637210996,-0.14268605,6.129954,-1.4228745,9.847563,-8.708792,-6.237797,4.4533067,-4.890024,-6.814166,7.056595,-12.048871,6.886988,-2.6091359,1.3581603,6.0755625,-2.9362583,12.004224,-41.98421,66.46148,0.4207503,-0.093900904,4.984663,3.9376385,-9.06686,22.816511,61.246677,-10.02946,0.14868616,-8.08794
24,-0.06420736014842987,1.644106149673462,77.9188003540039,-0.2923229524172552,-0.44659548790236203,-86.60645389370741,-0.13396284,6.1357136,-1.4107232,9.85552,-8.723927,-6.2311997,4.4600744,-4.8863106,-6.80677,7.056953,-12.055102,6.883572,-2.600863,1.3613969,6.063443,-2.9335973,12.004836,-41.97625,66.46038,0.48164272,-0.07744695,4.9847665,3.9418373,-9.067095,22.817162,61.2459,-10.047304,0.16058044,-8.108581
25,-0.04946759343147278,1.6484068632125854,77.92619323730469,-0.2867991351509313,-0.44361502846603273,-86.62341923026393,-0.12591042,6.1313505,-1.3949804,9.85734,-8.734693,-6.2175426,4.4611797,-4.890449,-6.780409,7.0571623,-12.058149,6.885866,-2.590837,1.3659935,6.0441375,-2.9187884,12.005397,-41.94754,66.43484,0.469668,-0.06524423,4.9477935,3.9477446,-9.06819,22.80683,61.254192,-10.030429,0.1537376,-8.104653
26,-0.04737195745110512,1.640532374382019,77.92752075195312,-0.2757793180310321,-0.43825055558880743,-86.64520498140455,-0.122475624,6.1204677,-1.376311,9.865443,-8.749002,-6.1965685,4.4581428,-4.899574,-6.7412167,7.058242,-12.059798,6.89249,-2.574737,1.3719375,6.018298,-2.897305,12.005237,-41.91462,66.39429,0.41147307,-0.05342147,4.8879642,3.9561033,-9.069538,22.78836,61.26958,-9.992205,0.1359706,-8.088063
27,-0.053405966609716415,1.6167583465576172,77.92622375488281,-0.2639426219131359,-0.43414546494459166,-86.6664869439681,-0.11680258,6.107344,-1.3575584,9.871025,-8.761401,-6.1720686,4.457182,-4.9104753,-6.7030973,7.057631,-12.060744,6.902265,-2.5586302,1.3753866,5.9933653,-2.8788946,12.0047,-41.885185,66.356735,0.33880234,-0.042494036,4.8281007,3.9648192,-9.071578,22.770496,61.286587,-9.933226,0.10767545,-8.068194
28,-0.0540776289999485,1.605568289756775,77.92675018310547,-0.2549985016604695,-0.43488301952431213,-86.68160439889832,-0.1097031,6.0970407,-1.3430936,9.880877,-8.774608,-6.148051,4.462142,-4.91922,-6.680388,7.058804,-12.065383,6.913853,-2.5491922,1.375771,5.978276,-2.8673651,12.004276,-41.8652,66.33159,0.29291663,-0.031712648,4.790803,3.9697773,-9.073576,22.759726,61.300014,-9.860396,0.06932665,-8.05253
29,-0.05322650447487831,1.6009174585342407,77.92570495605469,-0.24953500852126906,-0.4427938946734281,-86.68876317734235,-0.10050949,6.0895505,-1.3329107,9.897417,-8.789231,-6.120853,4.477348,-4.9255247,-6.679871,7.0585647,-12.073167,6.9305067,-2.5519729,1.3715916,5.9763823,-2.866433,12.004271,-41.861385,66.325966,0.2763265,-0.020934759,4.7851377,3.9692194,-9.074281,22.758896,61.307796,-9.750124,0.008830407,-8.04168
30,-0.0497857928276062,1.5873914957046509,77.91753387451172,-0.2455781114132204,-0.4597115231743876,-86.69126752070152,-0.08436345,6.083145,-1.3249762,9.917371,-8.804956,-6.0900145,4.503879,-4.9308753,-6.6929126,7.0582294,-12.084092,6.9517207,-2.56036,1.3610404,5.983253,-2.8716042,12.004928,-41.867123,66.33337,0.26955444,-0.006047313,4.796868,3.9553764,-9.078006,22.77883,61.337418,-9.566821,-0.092967086,-8.029591
31,-0.04911256954073906,1.5799460411071777,77.91548156738281,-0.24301697980454637,-0.4740195186026183,-86.69067582990671,-0.07178347,6.078444,-1.3204153,9.93624,-8.818786,-6.0639596,4.527338,-4.9349504,-6.7104564,7.058344,-12.095252,6.9706373,-2.5755696,1.351438,5.9867377,-2.8752072,12.007056,-41.883,66.34454,0.26300582,0.00418136,4.8200445,3.9507208,-9.085326,22.81322,61.349136,-9.415122,-0.16917552,-8.026553
32,-0.052742380648851395,1.5752556324005127,77.9144058227539,-0.24198028316668782,-0.48092691684379685,-86.68876587039217,-0.06615197,6.0767236,-1.320034,9.951135,-8.82944,-6.051401,4.54171,-4.9370885,-6.7234135,7.0580053,-12.10363,6.9802628,-2.5814204,1.3458887,5.9865375,-2.8790386,12.007737,-41.88571,66.35203,0.27799922,0.0086890375,4.8377,3.949205,-9.0872,22.81926,61.3536,-9.378299,-0.19281168,-8.029844
33,-0.05583534389734268,1.5858182907104492,77.91693115234375,-0.24189806447086393,-0.47599526792694835,-86.68575252652792,-0.06623334,6.079308,-1.325325,9.948654,-8.829179,-6.0596423,4.5405593,-4.936624,-6.7292924,7.0589514,-12.108872,6.9755816,-2.582281,1.3465941,5.974495,-2.8794394,12.008519,-41.879665,66.35603,0.309623,0.0044591273,4.853857,3.9497476,-9.089642,22.816593,61.352383,-9.517947,-0.12686633,-8.05425
34,-0.06112216040492058,1.5785223245620728,77.91463470458984,-0.24324006399233786,-0.4631197519711405,-86.68050432525486,-0.071466185,6.084956,-1.3356766,9.9364,-8.822039,-6.0823555,4.529836,-4.934123,-6.733168,7.059069,-12.111107,6.9613957,-2.5816162,1.3532351,5.959433,-2.8734543,12.009044,-41.857044,66.35073,0.3696098,-0.0057044104,4.8721166,3.9612725,-9.091449,22.795597,61.32804,-9.797005,0.00658462,-8.091111
35,-0.06087625026702881,1.5706475973129272,77.91482543945312,-0.24574367246498446,-0.4501714094865294,-86.67389886843068,-0.075409554,6.0914526,-1.3468926,9.920499,-8.812981,-6.1077113,4.5188727,-4.9311194,-6.7362666,7.0596137,-12.113623,6.9456196,-2.5775628,1.3622735,5.954457,-2.8736813,12.009474,-41.813435,66.34161,0.44794098,-0.018325886,4.879673,3.9665246,-9.094122,22.747755,61.303562,-10.07787,0.13220952,-8.11273
36,-0.06015462428331375,1.5652848482131958,77.9147720336914,-0.24695027730852787,-0.44450423490626106,-86.66617118841087,-0.07398256,6.0970764,-1.355421,9.9118185,-8.809657,-6.123771,4.5184946,-4.9280543,-6.7403913,7.0573306,-12.116894,6.936052,-2.5763726,1.3648045,5.9435134,-2.8769977,12.009585,-41.80979,66.34543,0.47259703,-0.027235165,4.8847976,3.9657245,-9.094603,22.743244,61.30461,-10.165216,0.18318318,-8.117066
37,-0.058755796402692795,1.5618177652359009,77.92086791992188,-0.25010539117576397,-0.44934831891139565,-86.65348365357718,-0.06566331,6.1012225,-1.3609588,9.913807,-8.813662,-6.1250386,4.528683,-4.9255624,-6.7473946,7.060048,-12.124892,6.9359508,-2.583014,1.3683331,5.9448853,-2.8840933,12.0101385,-41.813488,66.34807,0.45964497,-0.03642012,4.871642,3.9680912,-9.095727,22.742111,61.30055,-10.018043,0.1329691,-8.073887
38,-0.06763151288032532,1.5571069717407227,77.91671752929688,-0.25433825375372987,-0.46215892619955107,-86.63745347667516,-0.05156601,6.1059055,-1.3648677,9.9234,-8.822814,-6.118807,4.5531206,-4.921248,-6.755903,7.0533404,-12.129441,6.940632,-2.5863361,1.3662459,5.947249,-2.9031525,12.012324,-41.85189,66.36511,0.39649335,-0.044896565,4.8485107,3.9657633,-9.100784,22.77191,61.316017,-9.670123,0.002905785,-8.003763
39,-0.07095032930374146,1.5497616529464722,77.9143295288086,-0.2575025784997474,-0.47332814587726035,-86.62452270031433,-0.042377662,6.108938,-1.3682411,9.940309,-8.837395,-6.111692,4.5692487,-4.9192986,-6.7627716,7.0604687,-12.142341,6.946532,-2.59064,1.3648762,5.9442725,-2.9130206,12.016325,-41.897858,66.37539,0.33216065,-0.052416567,4.828774,3.9726853,-9.109551,22.807955,61.322624,-9.317508,-0.12583365,-7.93449
40,-0.07904711365699768,1.5338466167449951,77.91581726074219,-0.25597811114996294,-0.4757579425700887,-86.62136813904809,-0.034292288,6.109115,-1.3704566,9.94104,-8.845341,-6.1105723,4.5783596,-4.920174,-6.766373,7.060297,-12.15172,6.9500794,-2.5953498,1.3621536,5.939,-2.9163556,12.017633,-41.908703,66.38101,0.33256894,-0.06022734,4.818602,3.9728727,-9.112258,22.81339,61.325546,-9.151382,-0.1869686,-7.8908086
41,-0.07287336885929108,1.5209693908691406,77.90859985351562,-0.2479120956474067,-0.4615907513905213,-86.634905646925,-0.033123698,6.1034384,-1.3711746,9.922326,-8.847411,-6.118549,4.5679502,-4.9278603,-6.7638516,7.0610814,-12.163629,6.9508986,-2.5944755,1.355989,5.912453,-2.9056864,12.01894,-41.91263,66.38616,0.41106504,-0.07081499,4.834078,3.977426,-9.115339,22.804207,61.31827,-9.234219,-0.14197975,-7.893231
42,-0.07043062895536423,1.5187550783157349,77.91033935546875,-0.23625655612115282,-0.4363701892906694,-86.66033161840814,-0.03998715,6.09358,-1.3704174,9.89813,-8.849832,-6.131593,4.5452323,-4.94028,-6.756774,7.0604944,-12.176129,6.9506903,-2.5846972,1.3492452,5.8753977,-2.8824959,12.0197315,-41.900482,66.38203,0.5583295,-0.08155168,4.862673,3.994829,-9.117603,22.758663,61.291,-9.491898,-0.031833112,-7.917332
43,-0.06895074248313904,1.5088118314743042,77.9134292602539,-0.22456207112803275,-0.4136087275959575,-86.68515266057597,-0.044996757,6.0849557,-1.3700932,9.874243,-8.851216,-6.1456375,4.5242505,-4.9507923,-6.750211,7.0615377,-12.188501,6.948965,-2.5746732,1.342744,5.844871,-2.8641362,12.019461,-41.884438,66.37915,0.6889649,-0.091561586,4.8880982,4.0045323,-9.117847,22.711992,61.269917,-9.770539,0.082900405,-7.9470253
44,-0.06910528987646103,1.5176020860671997,77.91202545166016,-0.22015857786823767,-0.4061112986462644,-86.69775137924546,-0.038761314,6.082805,-1.3711687,9.856044,-8.849613,-6.1565576,4.519454,-4.9528995,-6.748632,7.062723,-12.1963215,6.9451966,-2.5553377,1.3414088,5.841626,-2.8655496,12.018206,-41.8734,66.37405,0.7399526,-0.09812738,4.889651,4.0087996,-9.116801,22.64945,61.255177,-9.957965,0.14331254,-7.956669
45,-0.077461838722229,1.5082790851593018,77.90618896484375,-0.22720318181951363,-0.42230364687239025,-86.69193768680674,-0.025002638,6.0923586,-1.3769307,9.868187,-8.855342,-6.1644917,4.5409765,-4.939446,-6.7559156,7.0626087,-12.196924,6.935898,-2.5478878,1.3445114,5.862267,-2.8808405,12.016886,-41.885223,66.37413,0.62295306,-0.10215431,4.8659077,4.0008583,-9.115888,22.644289,61.26471,-9.951015,0.123443805,-7.9543166
46,-0.07870584726333618,1.5040357112884521,77.90587615966797,-0.24164938800350308,-0.4531724151171251,-86.67499583503802,-0.0011749082,6.1087856,-1.3849187,9.886894,-8.858362,-6.171133,4.5784054,-4.916565,-6.7685537,7.062665,-12.19335,6.922594,-2.548447,1.3516878,5.901272,-2.8981123,12.016659,-41.89239,66.36729,0.4155104,-0.103776895,4.822987,3.9892423,-9.115941,22.65749,61.282032,-9.855076,0.058782734,-7.9429555
47,-0.08478961139917374,1.5062414407730103,77.90338134765625,-0.25686203261930385,-0.486447993861945,-86.65482828725013,0.02397921,6.1255426,-1.3922551,9.907262,-8.861312,-6.1752024,4.618695,-4.893369,-6.781436,7.0624595,-12.188904,6.911618,-2.5643244,1.3570956,5.9365377,-2.9161468,12.016552,-41.913322,66.36743,0.17274757,-0.10243589,4.782344,3.9627492,-9.117692,22.725077,61.31846,-9.700087,-0.012792276,-7.9402704
48,-0.08831771463155746,1.5057660341262817,77.90287780761719,-0.2648460617778835,-0.5074463575272425,-86.64017008676761,0.04114624,6.1348715,-1.3947635,9.919562,-8.863525,-6.1752443,4.645439,-4.880581,-6.7885065,7.062361,-12.187037,6.909484,-2.568636,1.3594856,5.9608426,-2.9286087,12.016786,-41.915405,66.36001,0.034757815,-0.0951101,4.748838,3.9505231,-9.1192,22.750397,61.333546,-9.618862,-0.052269533,-7.936474
49,-0.09109309315681458,1.5018450021743774,77.90264892578125,-0.2613488391080728,-0.5126881893381011,-86.63153880672215,0.04714553,6.133382,-1.3897629,9.92334,-8.867559,-6.171157,4.6567693,-4.883047,-6.7882786,7.0621057,-12.1906395,6.922246,-2.5651586,1.3566101,5.962025,-2.9312465,12.01679,-41.91185,66.34881,0.021421837,-0.07856079,4.733839,3.9519181,-9.119803,22.755875,61.33295,-9.608976,-0.046766024,-7.9394526
50,-0.09589818120002747,1.4981911182403564,77.90205383300781,-0.25270004600611184,-0.5109295588771483,-86.62509785299055,0.05179811,6.125167,-1.3794574,9.916407,-8.86963,-6.1635294,4.661172,-4.8949957,-6.783845,7.0615797,-12.196555,6.9451375,-2.5606186,1.3502367,5.9534216,-2.9290237,12.016703,-41.89894,66.33096,0.081268586,-0.04969441,4.725514,3.960763,-9.120625,22.757687,61.321426,-9.628989,-0.016335698,-7.9478245
51,-0.10112860798835754,1.4900527000427246,77.90418243408203,-0.24171860425345448,-0.502498950532149,-86.62172121560972,0.04828132,6.115605,-1.3696468,9.912108,-8.872151,-6.1523714,4.6576133,-4.9084525,-6.777088,7.0614376,-12.202732,6.9677486,-2.5616386,1.3436508,5.940368,-2.923244,12.016351,-41.86809,66.31455,0.1707387,-0.025621498,4.71802,3.9653475,-9.123236,22.753904,61.308117,-9.6689825,0.023908814,-7.9561095
52,-0.10236480832099915,1.4808354377746582,77.90985870361328,-0.23327395154240368,-0.4892905586338194,-86.62186962490608,0.0353277,6.110084,-1.3665619,9.916426,-8.87395,-6.137675,4.6468124,-4.916079,-6.7708545,7.0611897,-12.205492,6.9798956,-2.5605288,1.3386334,5.9232154,-2.9225764,12.016027,-41.854847,66.31026,0.21772863,-0.015459481,4.7086115,3.9630258,-9.124981,22.749767,61.300858,-9.699021,0.061439242,-7.9668336
53,-0.09902041405439377,1.47429358959198,77.91368103027344,-0.23010375700761587,-0.466582784249385,-86.62788905002553,0.005452978,6.10938,-1.3744919,9.9356575,-8.874171,-6.1139665,4.6224737,-4.915454,-6.7642756,7.061301,-12.203307,6.976813,-2.561101,1.3341438,5.8969836,-2.9243402,12.015839,-41.85263,66.32389,0.19884112,-0.029986927,4.690642,3.9514742,-9.125727,22.746258,61.299488,-9.709527,0.097882725,-7.9728103
54,-0.10149878263473511,1.4700944423675537,77.91309356689453,-0.22966669636580136,-0.4351092931921021,-86.6386310681134,-0.035205726,6.110962,-1.3891122,9.958601,-8.87015,-6.083065,4.586458,-4.910972,-6.7563796,7.0612593,-12.197843,6.9647694,-2.5634084,1.3301164,5.862876,-2.9271612,12.015707,-41.854366,66.348816,0.15002099,-0.060674742,4.667813,3.9333897,-9.125954,22.74116,61.30033,-9.714277,0.13848056,-7.9757705
55,-0.10488654673099518,1.4665549993515015,77.91378021240234,-0.23013937405345983,-0.40516026516756054,-86.65000380598639,-0.07522663,6.1142273,-1.4035712,9.982539,-8.86784,-6.055869,4.5519447,-4.9042864,-6.7497597,7.061729,-12.192763,6.9495325,-2.5660827,1.3270363,5.8319573,-2.9343054,12.015657,-41.862263,66.37615,0.106165916,-0.089449555,4.6510267,3.9103198,-9.125997,22.737314,61.306694,-9.729138,0.17593908,-7.9912133
56,-0.10591480135917664,1.467914342880249,77.91444396972656,-0.23087800873431527,-0.3873126736675325,-86.65779882452209,-0.096820325,6.117958,-1.4100757,9.9932,-8.867559,-6.0431232,4.532609,-4.8985624,-6.7465696,7.061269,-12.190147,6.9371448,-2.5689273,1.3254671,5.816117,-2.947007,12.01585,-41.873642,66.39511,0.106168486,-0.09810767,4.650394,3.8864832,-9.126165,22.739336,61.31819,-9.7694025,0.20289706,-8.032853
57,-0.10359922796487808,1.4683419466018677,77.91219329833984,-0.233854628816699,-0.38594227412119264,-86.6610868387932,-0.097469725,6.1230106,-1.4056846,9.993268,-8.8748,-6.0505085,4.5338655,-4.893043,-6.7480683,7.061819,-12.192322,6.928973,-2.570919,1.3289089,5.821509,-2.9687607,12.016593,-41.907875,66.40074,0.15817371,-0.0762072,4.6791806,3.8516874,-9.1266365,22.753645,61.34972,-9.832597,0.21238568,-8.119877
58,-0.10134625434875488,1.4681310653686523,77.90856170654297,-0.23677223563251415,-0.3961499686542912,-86.66234007888721,-0.07756824,6.1286473,-1.3933989,9.974584,-8.880939,-6.07123,4.5495057,-4.8879733,-6.752262,7.0617433,-12.1965,6.922135,-2.5740385,1.3333677,5.8396187,-2.9910898,12.018192,-41.951004,66.395836,0.24958973,-0.03299864,4.728978,3.820385,-9.127912,22.778671,61.384396,-9.913221,0.21049204,-8.239291
59,-0.10056373476982117,1.4655308723449707,77.90980529785156,-0.24067163242111592,-0.4094088540909512,-86.66158200629893,-0.054749936,6.135463,-1.3797942,9.955808,-8.888852,-6.097917,4.5687447,-4.8823247,-6.7586565,7.061378,-12.201834,6.9152746,-2.5795076,1.3377606,5.863551,-3.0220578,12.02036,-41.986454,66.39474,0.35497996,0.011283693,4.776449,3.7837772,-9.130126,22.806114,61.420788,-10.01516,0.2092894,-8.361794
60,-0.11139345914125443,1.4546078443527222,77.90673065185547,-0.24416446282959064,-0.4175735373420376,-86.6592993426907,-0.032225918,6.142378,-1.3687803,9.9289665,-8.888435,-6.122871,4.581494,-4.8769207,-6.765783,7.0623107,-12.209239,6.907393,-2.5819092,1.3398875,5.8776975,-3.0642703,12.023425,-42.024246,66.41093,0.42466646,0.038246166,4.8053365,3.7423232,-9.133244,22.841526,61.45741,-10.12018,0.21998924,-8.463469
61,-0.11704529076814651,1.4536184072494507,77.90562438964844,-0.24826882031677427,-0.4227091388475712,-86.65649411435335,-0.015814,6.152578,-1.3594639,9.915236,-8.892204,-6.150759,4.590518,-4.869178,-6.774015,7.0622067,-12.219602,6.8975844,-2.5797884,1.3387253,5.8796163,-3.1146336,12.029646,-42.072987,66.449,0.46163443,0.0424069,4.8233128,3.7001426,-9.13949,22.895683,61.494213,-10.213174,0.24860379,-8.545443
62,-0.12627644836902618,1.4487838745117188,77.8974380493164,-0.2537067523262617,-0.4277952344808673,-86.65298790009412,0.0082436,6.1644473,-1.3488477,9.889932,-8.889497,-6.1831675,4.5991125,-4.860908,-6.783487,7.0631094,-12.233825,6.886696,-2.5772176,1.33597,5.878312,-3.1684704,12.041343,-42.121346,66.49399,0.48997122,0.034019742,4.8340397,3.659497,-9.1509695,22.961622,61.526115,-10.309789,0.2878188,-8.616275
63,-0.13521121442317963,1.4483931064605713,77.8914794921875,-0.25871117712044167,-0.4257524840640826,-86.64604972932685,0.01811057,6.174444,-1.3448681,9.873465,-8.885669,-6.209085,4.599789,-4.853537,-6.7942095,7.0626445,-12.244542,6.8757677,-2.57193,1.3322358,5.8755302,-3.2456017,12.04962,-42.151592,66.55613,0.49536425,0.016834699,4.814798,3.6045046,-9.159349,23.007122,61.560253,-10.443872,0.32993725,-8.665098
64,-0.13299451768398285,1.4512697458267212,77.89619445800781,-0.25838479569879763,-0.4085755687410264,-86.63311825278359,0.0001269487,6.1779785,-1.3541838,9.866773,-8.876021,-6.217088,4.58192,-4.8504505,-6.805861,7.0632505,-12.247252,6.8659863,-2.5858092,1.3307432,5.866259,-3.317296,12.088001,-42.173912,66.58028,0.41466504,-0.002614119,4.7498736,3.5559142,-9.197966,23.088438,61.55156,-10.583853,0.37323734,-8.6888685
65,-0.12913508713245392,1.4559143781661987,77.9032211303711,-0.2559875577734802,-0.3650828974130918,-86.60999713100935,-0.066720776,6.170829,-1.3856034,9.880178,-8.85697,-6.1953697,4.53332,-4.8545556,-6.8188024,7.0632687,-12.235444,6.8565607,-2.5961723,1.3249899,5.8400536,-3.4375446,12.106502,-42.180573,66.65136,0.2526877,-0.035857532,4.6210575,3.4816682,-9.21692,23.119654,61.561523,-10.807148,0.417486,-8.671211
66,-0.13131581246852875,1.4572821855545044,77.91573333740234,-0.24758541594197098,-0.3022648229997336,-86.57915005239143,-0.16297719,6.1558924,-1.4324071,9.895519,-8.82433,-6.1527295,4.4634438,-4.8637533,-6.833158,7.060537,-12.21265,6.8473406,-2.6203434,1.3245046,5.814324,-3.5498433,12.159159,-42.166714,66.672966,0.018575834,-0.076486796,4.43975,3.4180162,-9.271216,23.153305,61.52106,-11.065373,0.467449,-8.613946
67,-0.1345171183347702,1.4559123516082764,77.92284393310547,-0.24133129645751714,-0.24112001053968288,-86.54850647116137,-0.26325676,6.140862,-1.4806515,9.921778,-8.798696,-6.1094933,4.3932104,-4.8725,-6.8478813,7.0616693,-12.191335,6.8398857,-2.640817,1.3221699,5.789131,-3.6910956,12.210883,-42.146164,66.71034,-0.24454977,-0.111103944,4.234358,3.3408377,-9.32489,23.188833,61.47338,-11.333424,0.5084934,-8.550933
68,-0.14003685116767883,1.4744579792022705,77.92829132080078,-0.23772606419089065,-0.20272925098862785,-86.5264420128623,-0.32396847,6.132174,-1.5140519,9.929886,-8.780305,-6.0856514,4.3500414,-4.87651,-6.8621254,7.060863,-12.177677,6.8363585,-2.6596217,1.3215806,5.7842236,-3.8452652,12.280271,-42.107395,66.72639,-0.4892739,-0.120993115,4.027255,3.258165,-9.3987665,23.256447,61.387627,-11.565227,0.5296241,-8.505097
69,-0.14639365673065186,1.479761004447937,77.928466796875,-0.24134297097283594,-0.19722987540889633,-86.51727616415613,-0.33012772,6.1343465,-1.526963,9.917789,-8.7767515,-6.091243,4.3443832,-4.8717937,-6.875696,7.060514,-12.176552,6.8378167,-2.6755254,1.3238589,5.803661,-4.0130296,12.361537,-42.062828,66.72666,-0.6891466,-0.09359182,3.8363113,3.1675844,-9.486343,23.36725,61.28066,-11.683595,0.5080905,-8.477304
70,-0.14527492225170135,1.4716182947158813,77.91621398925781,-0.24974653427946483,-0.21181450087884973,-86.51588055682755,-0.3059648,6.1429367,-1.5285399,9.899227,-8.785897,-6.114002,4.362361,-4.8614674,-6.889209,7.0593233,-12.182489,6.842975,-2.6906896,1.3282557,5.8388157,-4.1957097,12.4534025,-42.0097,66.716225,-0.87257314,-0.040778436,3.6449623,3.0685475,-9.586216,23.508108,61.154404,-11.732425,0.45683083,-8.456095
71,-0.1431759148836136,1.476517915725708,77.91289520263672,-0.25660679885054805,-0.23332614755102793,-86.51611753907957,-0.2711529,6.151896,-1.5253063,9.87665,-8.79605,-6.1405754,4.3874145,-4.8517523,-6.9025908,7.0592403,-12.191275,6.850123,-2.7045867,1.3309389,5.8819637,-4.4028535,12.557076,-41.931377,66.70296,-1.0831903,0.016500797,3.4287434,2.959806,-9.70086,23.662989,60.985657,-11.854045,0.4177366,-8.452131
72,-0.1444244682788849,1.4742854833602905,77.91160583496094,-0.2606313365460788,-0.2484686671754856,-86.51165263509327,-0.24840418,6.155098,-1.5242529,9.8595,-8.799946,-6.1576867,4.4052424,-4.8483644,-6.916177,7.0588818,-12.197791,6.8572516,-2.7164094,1.3283917,5.9256034,-4.641034,12.672314,-41.803223,66.69277,-1.3559089,0.058114402,3.1627333,2.8414001,-9.832021,23.814854,60.74979,-12.1918125,0.43275174,-8.475939
73,-0.1443110555410385,1.4768996238708496,77.91116333007812,-0.2563618805313633,-0.2576387484156813,-86.50203995452684,-0.2376257,6.1507964,-1.5224341,9.848181,-8.79531,-6.163875,4.4157186,-4.8546567,-6.9288263,7.058255,-12.2017,6.8663855,-2.7237692,1.3190409,5.9700923,-4.9101133,12.798513,-41.629917,66.691055,-1.6838636,0.07758936,2.832793,2.71424,-9.981023,23.970394,60.44932,-12.869423,0.5444113,-8.539729
74,-0.1469235122203827,1.4827157258987427,77.9107894897461,-0.2501336583746297,-0.2663373488549195,-86.49016726098972,-0.23241279,6.142594,-1.5182734,9.846454,-8.790881,-6.1656394,4.4253445,-4.866146,-6.9408083,7.057977,-12.205587,6.877576,-2.727885,1.3063552,6.018719,-5.2067866,12.935642,-41.420025,66.692604,-2.0531013,0.08733822,2.4543695,2.5802374,-10.147542,24.135544,60.090862,-13.781193,0.72120744,-8.631954
75,-0.15052485466003418,1.4879956245422363,77.90857696533203,-0.2414605500200586,-0.27003441267197326,-86.47501724469562,-0.23303838,6.1316686,-1.5190092,9.839859,-8.778612,-6.161223,4.428881,-4.8796654,-6.95453,7.057741,-12.207612,6.886534,-2.7337446,1.2916257,6.068,-5.537425,13.084924,-41.16386,66.692955,-2.4971087,0.09577859,2.0475917,2.43576,-10.332907,24.29247,59.663708,-14.726956,0.89355016,-8.730385
76,-0.15414533019065857,1.4943734407424927,77.91102600097656,-0.23479839790106158,-0.26359311549013137,-86.45538573033389,-0.25080913,6.120082,-1.5334512,9.837403,-8.763421,-6.14908,4.4208264,-4.890144,-6.9723773,7.057054,-12.205682,6.8887415,-2.7463737,1.2780286,6.114671,-5.9080563,13.248479,-40.85246,66.68623,-3.050678,0.11169244,1.6325446,2.2799342,-10.538308,24.42271,59.153526,-15.507353,0.9904522,-8.815114
77,-0.15641236305236816,1.504297137260437,77.91399383544922,-0.23048338469048674,-0.23813128296693944,-86.42892093588557,-0.29868612,6.1077623,-1.5709527,9.840644,-8.742383,-6.122287,4.390454,-4.8954015,-6.9971967,7.056914,-12.198223,6.877698,-2.7673156,1.2665629,6.152037,-6.323837,13.429189,-40.485836,66.677505,-3.767162,0.13680723,1.1980578,2.1155937,-10.765224,24.519648,58.55719,-16.033443,0.9739477,-8.864315
78,-0.1496998518705368,1.520107626914978,77.92235565185547,-0.22726847221614294,-0.19863724098517557,-86.39701067550997,-0.3730285,6.093708,-1.6251423,9.856451,-8.720153,-6.083847,4.343506,-4.8979278,-7.0270295,7.0569115,-12.186385,6.857536,-2.7935255,1.2558448,6.183944,-6.778597,13.628249,-40.068283,66.66476,-4.613058,0.17001039,0.7386148,1.9439036,-11.01453,24.593344,57.879257,-16.424017,0.8875167,-8.895345
79,-0.1483035534620285,1.529046893119812,77.92449951171875,-0.22346218870102935,-0.1617257370950148,-86.363435986574,-0.44623128,6.079564,-1.6797571,9.874497,-8.698968,-6.047219,4.2995195,-4.9007516,-7.0573354,7.0563636,-12.17368,6.8397384,-2.8235161,1.2451649,6.223442,-7.2629366,13.844767,-39.600063,66.633,-5.496119,0.21393417,0.2828337,1.7610567,-11.285442,24.651728,57.116932,-16.789766,0.7819998,-8.948266
80,-0.15585893392562866,1.5443153381347656,77.92350769042969,-0.21880432097705843,-0.14403697523581951,-86.33262880504239,-0.48762143,6.0658417,-1.7180043,9.877638,-8.677342,-6.025629,4.277432,-4.9078803,-7.083483,7.0560145,-12.164637,6.835776,-2.8559456,1.2332855,6.2829576,-7.7711377,14.076974,-39.087193,66.57158,-6.330597,0.2687668,-0.1404102,1.5630722,-11.575841,24.702744,56.268154,-17.24162,0.7089372,-9.062896
81,-0.1552283763885498,1.5510716438293457,77.9224853515625,-0.21215223862091528,-0.1560879098307708,-86.30369914464399,-0.4824203,6.052498,-1.7325118,9.863938,-8.657793,-6.02262,4.2900066,-4.9216537,-7.1055303,7.055369,-12.161033,6.8534827,-2.8920834,1.2181714,6.369718,-8.301025,14.323685,-38.52341,66.48906,-7.100093,0.33182952,-0.53157794,1.3516744,-11.884911,24.739683,55.332047,-17.789276,0.67484045,-9.255025
82,-0.15252509713172913,1.5614187717437744,77.92112731933594,-0.20551983067552054,-0.18684647518467598,-86.27512720410604,-0.45366913,6.0396323,-1.7338264,9.850144,-8.644313,-6.031268,4.324564,-4.939346,-7.1257668,7.054207,-12.160359,6.885026,-2.9320617,1.201007,6.4742203,-8.857931,14.584889,-37.910954,66.39166,-7.8500776,0.40296662,-0.9032244,1.129162,-12.212403,24.761583,54.309956,-18.380589,0.65629894,-9.501319
83,-0.155852809548378,1.5691546201705933,77.92291259765625,-0.1969464591742921,-0.22110568829282568,-86.24951319146788,-0.41452068,6.026917,-1.7302159,9.823884,-8.626629,-6.048502,4.361827,-4.9578457,-7.1421914,7.0528626,-12.159108,6.91886,-2.971972,1.1828,6.583795,-9.445229,14.860214,-37.262146,66.26505,-8.580173,0.4838513,-1.2444406,0.88848686,-12.5582,24.78557,53.20838,-19.032322,0.66073847,-9.783246
84,-0.15869802236557007,1.5814300775527954,77.92591857910156,-0.1896884487385964,-0.24331258610434955,-86.22957565669934,-0.38672903,6.0144835,-1.7310598,9.788405,-8.601793,-6.071461,4.383443,-4.9739003,-7.1530247,7.0512085,-12.154623,6.943367,-3.0081778,1.165141,6.6856027,-10.063785,15.148628,-36.5841,66.09252,-9.284537,0.57641506,-1.544512,0.62318355,-12.92147,24.829193,52.032085,-19.760992,0.6955673,-10.082175
85,-0.15145696699619293,1.5973676443099976,77.92866516113281,-0.18088346072948408,-0.24679926235913296,-86.21796717859947,-0.3724682,6.0012035,-1.7378135,9.731264,-8.563767,-6.107957,4.379683,-4.987982,-7.1536813,7.050055,-12.144484,6.957938,-3.0373402,1.1479976,6.772416,-10.719599,15.449269,-35.870888,65.88994,-9.960327,0.68431395,-1.7944816,0.33223376,-13.302801,24.902658,50.779556,-20.58552,0.7787255,-10.41529
86,-0.14901413023471832,1.605343222618103,77.93091583251953,-0.1725491373397656,-0.24045679440909629,-86.21243846123079,-0.3683931,5.9876337,-1.7467365,9.668739,-8.522523,-6.1567736,4.363538,-5.0006857,-7.146771,7.047723,-12.130989,6.967801,-3.0625646,1.1310658,6.8510613,-11.40769,15.76166,-35.1155,65.65988,-10.60403,0.8042053,-2.0021033,0.020208912,-13.702014,24.996456,49.447693,-21.491045,0.90355724,-10.783216
87,-0.14889700710773468,1.616115689277649,77.93204498291016,-0.16558225226649703,-0.23298423571396443,-86.20881642289902,-0.3637417,5.9758925,-1.7563127,9.602023,-8.477443,-6.2010617,4.3435273,-5.0112634,-7.140019,7.0471206,-12.117384,6.9705243,-3.0895913,1.1132699,6.9279532,-12.126952,16.088566,-34.35293,65.37965,-11.240238,0.9261419,-2.1813233,-0.31345007,-14.1180725,25.09769,48.044666,-22.445522,1.0391766,-11.1438
88,-0.14518778026103973,1.633929967880249,77.93839263916016,-0.16116904714584596,-0.23282956928906146,-86.202500141991,-0.3628196,5.9688807,-1.7669824,9.562635,-8.443743,-6.2242603,4.3332677,-5.016482,-7.1418715,7.0455165,-12.106492,6.963168,-3.1228175,1.0948497,7.0104313,-12.869786,16.432884,-33.607376,65.018456,-11.880848,1.0413789,-2.3467014,-0.6669333,-14.547968,25.190699,46.575455,-23.418617,1.1526611,-11.455539
89,-0.15054355561733246,1.649958848953247,77.93859100341797,-0.16325429776498654,-0.24184233843161934,-86.19044499397285,-0.3694377,5.968713,-1.7812798,9.562955,-8.425932,-6.2170105,4.3338933,-5.0141706,-7.158425,7.04526,-12.100588,6.9385214,-3.1635425,1.074099,7.099482,-13.639461,16.798874,-32.88285,64.571075,-12.526312,1.1477692,-2.4911005,-1.0414313,-14.991694,25.272854,45.045815,-24.419903,1.2239747,-11.721
90,-0.15765947103500366,1.6678982973098755,77.93840789794922,-0.16807802394870935,-0.25572974697338485,-86.17566970347204,-0.3793432,5.97361,-1.798012,9.583026,-8.41473,-6.1898136,4.340085,-5.006248,-7.1839466,7.0459294,-12.097759,6.900241,-3.2083933,1.0508881,7.191356,-14.435449,17.18775,-32.168503,64.04827,-13.170787,1.2500653,-2.611211,-1.4348257,-15.448659,25.351173,43.448727,-25.459976,1.2735002,-11.95775
91,-0.1608775407075882,1.6884019374847412,77.93563842773438,-0.1742941547349486,-0.27343233508306797,-86.162845528378,-0.3840912,5.979236,-1.8118677,9.603503,-8.403595,-6.1558104,4.3499885,-4.9976726,-7.2086625,7.0461636,-12.094757,6.8620667,-3.2554572,1.024032,7.282695,-15.25097,17.597134,-31.477123,63.45247,-13.827918,1.3499484,-2.7265186,-1.8477536,-15.917244,25.426878,41.780468,-26.512693,1.3272337,-12.147931
92,-0.16148799657821655,1.6983243227005005,77.93659210205078,-0.1767652992896637,-0.2938837050894755,-86.15646634584446,-0.38256684,5.982457,-1.8186567,9.619921,-8.393357,-6.1282487,4.3614864,-4.992489,-7.223171,7.046083,-12.089335,6.837415,-3.3014414,0.9940235,7.3698883,-16.083475,18.022118,-30.826548,62.79091,-14.514631,1.449915,-2.8557744,-2.2809334,-16.39497,25.500105,40.037704,-27.550652,1.4103911,-12.273363
93,-0.156956285238266,1.7110711336135864,77.94087982177734,-0.17601153054053226,-0.316715210066012,-86.15803544360602,-0.37018824,5.9809155,-1.8156463,9.621621,-8.377884,-6.1084824,4.373841,-4.9933214,-7.2237372,7.0448737,-12.079328,6.832351,-3.3450477,0.95951027,7.4496384,-16.93464,18.458069,-30.216219,62.064724,-15.244285,1.5450165,-3.0092158,-2.733162,-16.880133,25.566113,38.215508,-28.565237,1.5232217,-12.340416
94,-0.15892769396305084,1.723610758781433,77.94215393066406,-0.17170610280216683,-0.3425028321711019,-86.16500867100052,-0.35342973,5.9771757,-1.8062319,9.623458,-8.363911,-6.0902,4.388058,-4.997065,-7.215893,7.043225,-12.066573,6.838805,-3.386542,0.9217912,7.5210276,-17.81351,18.904657,-29.650488,61.279335,-16.013592,1.6379495,-3.1736276,-3.203519,-17.37285,25.626106,36.31937,-29.5716,1.6522188,-12.354058
95,-0.16681891679763794,1.7422579526901245,77.9441909790039,-0.16613853439883158,-0.371898060952329,-86.17609448726971,-0.3256932,5.973555,-1.7923771,9.614282,-8.34784,-6.0749407,4.4053326,-5.001377,-7.203644,7.042215,-12.054593,6.849487,-3.4260743,0.8811649,7.58741,-18.714468,19.35839,-29.119478,60.44622,-16.779436,1.734757,-3.3359518,-3.6905606,-17.8731,25.687773,34.355347,-30.581553,1.8006215,-12.292927
96,-0.1711963266134262,1.7565226554870605,77.94866943359375,-0.1640693826203,-0.40503211846265935,-86.1896432862187,-0.291855,5.973002,-1.7774216,9.6062355,-8.3380575,-6.0643477,4.4287834,-5.002631,-7.191219,7.0405693,-12.0465975,6.857033,-3.4638293,0.8399433,7.650596,-19.641975,19.81664,-28.62999,59.584927,-17.516966,1.8407066,-3.4822466,-4.196116,-18.38095,25.760654,32.333267,-31.604141,1.9710493,-12.135785
97,-0.17861385643482208,1.7606418132781982,77.94654083251953,-0.1636089084640291,-0.446389166857363,-86.2034883773548,-0.24449898,5.9746685,-1.7638112,9.59447,-8.336569,-6.059296,4.4640007,-5.001388,-7.1823053,7.0388927,-12.046466,6.861715,-3.5011442,0.79764336,7.7135425,-20.594688,20.275532,-28.176626,58.691853,-18.177237,1.9620765,-3.6036985,-4.719905,-18.899025,25.852825,30.246124,-32.686867,2.1699378,-11.86861
98,-0.17927414178848267,1.7841368913650513,77.95101165771484,-0.16359060525109526,-0.49435829255385766,-86.2189254293285,-0.1856059,5.9779296,-1.7494425,9.57857,-8.340564,-6.058799,4.5079846,-4.998776,-7.1737447,7.03807,-12.052277,6.8667564,-3.53791,0.7549086,7.7733536,-21.572554,20.7325,-27.757582,57.762257,-18.78555,2.093589,-3.7090375,-5.259893,-19.428179,25.958883,28.08904,-33.810127,2.389073,-11.503408
99,-0.17582924664020538,1.7931677103042603,77.94732666015625,-0.1657106867242525,-0.5404611708156412,-86.24019200566266,-0.12573008,5.984649,-1.7299186,9.561089,-8.343965,-6.061595,4.5486803,-4.9933066,-7.1596885,7.0372434,-12.05605,6.869109,-3.571009,0.7135644,7.8233595,-22.576822,21.186596,-27.374369,56.80858,-19.415916,2.2241757,-3.8106315,-5.813512,-19.963854,26.065557,25.872551,-34.885826,2.6100454,-11.058853
100,-0.17808564007282257,1.800855040550232,77.94403839111328,-0.16854314549124044,-0.576538998941416,-86.2711430725416,-0.07324052,5.99702,-1.7005318,9.53842,-8.336357,-6.066462,4.5783267,-4.9829,-7.1345615,7.0282636,-12.046711,6.865776,-3.5975087,0.67340124,7.857259,-23.60265,21.636675,-27.018623,55.83914,-20.131708,2.343811,-3.9207947,-6.379913,-20.49807,26.15852,23.610008,-35.827045,2.8166847,-10.555709
101,-0.17781363427639008,1.8109689950942993,77.94852447509766,-0.1761241965629481,-0.5975877007368064,-86.316888284174,-0.042332176,6.0193005,-1.6570659,9.529425,-8.323423,-6.0768147,4.576966,-4.965689,-7.092599,7.0344033,-12.031029,6.8536253,-3.6167963,0.6315494,7.869746,-24.637987,22.078175,-26.66038,54.843132,-20.919548,2.4545178,-4.0531397,-6.9671736,-21.0247,26.238428,21.293978,-36.56996,3.0132399,-10.002834
102,-0.17807622253894806,1.8232650756835938,77.95344543457031,-0.18737605320272901,-0.6091038363078749,-86.3741957284266,-0.015103792,6.0489545,-1.6019042,9.511031,-8.298185,-6.0920124,4.564386,-4.9422774,-7.0390654,7.0323067,-12.001586,6.835131,-3.630244,0.5888372,7.861835,-25.69957,22.513186,-26.327915,53.833107,-21.768805,2.559493,-4.1965775,-7.57586,-21.542488,26.31288,18.927229,-37.176064,3.208002,-9.390144
103,-0.17153942584991455,1.8166415691375732,77.95354461669922,-0.19649289771111042,-0.6179883513382891,-86.43378245221083,0.010257762,6.0783443,-1.5446768,9.492248,-8.271919,-6.1049504,4.5492744,-4.918797,-6.9810114,7.029719,-11.970845,6.8155046,-3.641665,0.54441315,7.842631,-26.779266,22.940392,-26.028511,52.81065,-22.674427,2.6559455,-4.327578,-8.200252,-22.051064,26.377096,16.544294,-37.74791,3.3852544,-8.712516
104,-0.18712565302848816,1.8326563835144043,77.95428466796875,-0.20268722938219685,-0.6311292961506421,-86.48666832982354,0.04065409,6.099903,-1.4944888,9.472783,-8.251473,-6.10861,4.542191,-4.9013386,-6.9256597,7.0288014,-11.947431,6.799985,-3.6539593,0.49907005,7.821427,-27.872883,23.35758,-25.774136,51.78041,-23.63667,2.739772,-4.4223323,-8.835519,-22.550388,26.426306,14.178867,-38.3858,3.5275586,-7.9641967
105,-0.19445709884166718,1.8400824069976807,77.95651245117188,-0.20545763786632298,-0.6528072192010326,-86.53064427444487,0.075156294,6.1104164,-1.4561961,9.464286,-8.2456665,-6.0987864,4.5505295,-4.8910913,-6.8708243,7.027376,-11.931627,6.789702,-3.6736102,0.45225763,7.8071365,-28.953669,23.752401,-25.523338,50.71831,-24.644564,2.8024538,-4.456963,-9.480978,-23.03943,26.449757,11.816206,-39.13417,3.6208825,-7.116842
106,-0.18648415803909302,1.8457759618759155,77.96220397949219,-0.2036786228608298,-0.6786407287013231,-86.57049165998812,0.11249562,6.114594,-1.4239453,9.460033,-8.246897,-6.07995,4.5664806,-4.8851066,-6.813804,7.0263996,-11.920001,6.782055,-3.6829576,0.41328067,7.782341,-30.10359,24.145456,-25.38921,49.691097,-25.805136,2.8380766,-4.4483185,-10.134885,-23.52052,26.446247,9.456992,-39.931797,3.6745741,-6.1853123
107,-0.1832277774810791,1.8417326211929321,77.96047973632812,-0.20050367974575922,-0.7018094602061461,-86.6075944577824,0.14706945,6.1160274,-1.3923773,9.457568,-8.251521,-6.0583067,4.5815835,-4.881979,-6.762003,7.0261593,-11.913154,6.776158,-3.7029378,0.3622927,7.762606,-31.191109,24.498957,-25.176727,48.589428,-26.860407,2.8829138,-4.43942,-10.80935,-23.988134,26.447163,7.1100187,-40.72444,3.698805,-5.222277
108,-0.1893259733915329,1.8483003377914429,77.96700286865234,-0.19495637979758987,-0.7156206887321219,-86.64346000388836,0.17660902,6.1188197,-1.3555237,9.447511,-8.252123,-6.039732,4.588246,-4.8796663,-6.7226295,7.024829,-11.910617,6.7715864,-3.7016408,0.3175627,7.7133884,-32.362457,24.847956,-25.102165,47.55059,-27.959162,2.9383903,-4.467646,-11.501336,-24.444809,26.467102,4.8417907,-41.457485,3.7163393,-4.2881374
109,-0.19304810464382172,1.8486464023590088,77.968994140625,-0.18809959368624574,-0.7093692250016543,-86.67559290290073,0.19222437,6.1217456,-1.3100127,9.424967,-8.2458,-6.0231133,4.5746226,-4.8810377,-6.7060685,7.024438,-11.917401,6.768327,-3.701007,0.25506592,7.6464324,-33.512207,25.166492,-24.998241,46.481926,-28.926939,3.0238028,-4.5486565,-12.21705,-24.884027,26.514048,2.6044228,-42.119675,3.745925,-3.3592536
110,-0.20875446498394012,1.8494395017623901,77.9652328491211,-0.1775373103938698,-0.6897101399926422,-86.7042050834228,0.19906233,6.123627,-1.2594525,9.393093,-8.235233,-6.006151,4.5489497,-4.885462,-6.705658,7.023142,-11.931219,6.766733,-3.6983223,0.18583596,7.5592003,-34.675056,25.45566,-24.912771,45.416218,-29.84345,3.1237211,-4.6588516,-12.963221,-25.304611,26.582441,0.40969133,-42.738064,3.7762794,-2.4208229
111,-0.20771531760692596,1.8590288162231445,77.96694946289062,-0.16997835769777234,-0.6754917591312203,-86.73483988982055,0.21286714,6.127386,-1.2089443,9.363334,-8.227144,-5.993191,4.5298524,-4.8882976,-6.702996,7.022374,-11.944638,6.7661324,-3.6900039,0.1208412,7.468984,-35.84793,25.71907,-24.870455,44.342243,-30.73022,3.2386522,-4.7819934,-13.738368,-25.706936,26.674147,-1.6858062,-43.3203,3.772253,-1.5328524
112,-0.21100227534770966,1.8429063558578491,77.96905517578125,-0.16625115851782116,-0.6857856194326372,-86.7728902275408,0.25058722,6.136041,-1.1633561,9.343459,-8.225628,-5.988747,4.5370073,-4.884703,-6.6794195,7.0211544,-11.949404,6.7659464,-3.6854029,0.06814797,7.4012184,-36.99386,25.947977,-24.84108,43.222332,-31.558092,3.373238,-4.9021807,-14.551876,-26.090385,26.801071,-3.628142,-43.870514,3.6994214,-0.755973
113,-0.20980697870254517,1.8179655075073242,77.96369934082031,-0.17187130912959978,-0.7329419014975828,-86.8220991441739,0.32411742,6.1529393,-1.1266892,9.339495,-8.232856,-5.995619,4.5833187,-4.870236,-6.6234097,7.019898,-11.939795,6.7655945,-3.6493144,0.045026094,7.347671,-38.19098,26.180754,-24.974787,42.0986,-32.480247,3.5277593,-5.012175,-15.399473,-26.459667,26.951387,-5.3595037,-44.40122,3.5154426,-0.15922996
114,-0.19809594750404358,1.823541522026062,77.96539306640625,-0.18256706422297422,-0.8045998468415693,-86.87879516803245,0.4265053,6.1749167,-1.0947717,9.336244,-8.241177,-6.0108466,4.6555147,-4.849013,-6.5468807,7.0191174,-11.921599,6.7655716,-3.6117551,0.029964218,7.3187156,-39.360836,26.401215,-25.138672,40.90728,-33.37316,3.7105594,-5.120998,-16.29116,-26.810963,27.13598,-6.940435,-44.901886,3.2510128,0.30709898
115,-0.2042670100927353,1.8166015148162842,77.97048950195312,-0.19468425010608947,-0.8817294947246076,-86.93752744235483,0.53538805,6.197745,-1.0618688,9.334548,-8.253515,-6.030186,4.734583,-4.8270497,-6.4671435,7.017561,-11.903155,6.766862,-3.5774732,0.019065453,7.2944093,-40.50883,26.60557,-25.323332,39.685635,-34.218445,3.8941617,-5.238771,-17.209446,-27.140848,27.350925,-8.423853,-45.34883,2.991571,0.75356406
116,-0.20644064247608185,1.8031216859817505,77.97111511230469,-0.20222889184707368,-0.945532902840327,-86.99291512788184,0.63410693,6.2166157,-1.0216228,9.322859,-8.266244,-6.0494313,4.800491,-4.810757,-6.4009204,7.0166245,-11.8947315,6.7705865,-3.5444431,0.005547517,7.255304,-41.644188,26.797268,-25.532152,38.468513,-35.006668,4.0504994,-5.3764,-18.12349,-27.446068,27.580376,-9.870754,-45.722622,2.8192298,1.2936577
117,-0.2119854986667633,1.7962124347686768,77.96887969970703,-0.2042328542784805,-0.9917474095729664,-87.04221765946862,0.71906775,6.229451,-0.9704199,9.295837,-8.280675,-6.0728054,4.8486004,-4.803486,-6.356327,7.0159674,-11.900659,6.77858,-3.5247073,-0.015324831,7.204782,-42.76115,26.970219,-25.739275,37.25116,-35.713673,4.17192,-5.546653,-19.044233,-27.722015,27.828714,-11.309679,-46.01156,2.7787173,1.9831024
118,-0.2143705189228058,1.8041657209396362,77.9673843383789,-0.20301750325137097,-1.0302054319426541,-87.08884260374549,0.80364794,6.2387514,-0.9116381,9.250275,-8.292653,-6.1007814,4.889876,-4.801474,-6.3229265,7.014924,-11.915343,6.7897987,-3.5053554,-0.037289858,7.144621,-43.87021,27.130833,-25.978489,36.028923,-36.377056,4.2703986,-5.7421875,-19.975313,-27.967258,28.09472,-12.698659,-46.233604,2.8196213,2.7537951
119,-0.2060997039079666,1.792529821395874,77.96619415283203,-0.1998122245595913,-1.0631382874794868,-87.13614479022786,0.884968,6.2469053,-0.8510231,9.203313,-8.303989,-6.1232886,4.9258432,-4.8012724,-6.2907276,7.014038,-11.931684,6.8007774,-3.4912722,-0.061576188,7.077839,-44.947304,27.271585,-26.218697,34.79682,-36.964428,4.3600483,-5.9410324,-20.910192,-28.18365,28.381193,-14.005614,-46.404636,2.8786123,3.5365407
120,-0.1957274079322815,1.7780497074127197,77.9644775390625,-0.19873948878076847,-1.0927067315145451,-87.1873236406368,0.9541476,6.2572894,-0.7951742,9.184905,-8.32405,-6.1304803,4.959005,-4.7977166,-6.249555,7.013976,-11.943871,6.8077803,-3.471098,-0.08329447,6.998663,-45.98482,27.391579,-26.465927,33.56159,-37.478115,4.449788,-6.122345,-21.839779,-28.377312,28.680485,-15.185949,-46.5331,2.8927965,4.2596145
121,-0.197609543800354,1.756321668624878,77.96117401123047,-0.1993724553539687,-1.1159048144322397,-87.24606422322903,1.0130717,6.2703977,-0.7453732,9.190209,-8.345304,-6.11293,4.9857025,-4.790807,-6.19276,7.0140905,-11.947413,6.8088536,-3.439228,-0.103192404,6.9033914,-46.973293,27.48719,-26.713453,32.309216,-37.88908,4.5262694,-6.27262,-22.760279,-28.554722,28.991283,-16.232584,-46.590115,2.8428712,4.9124513
122,-0.19205087423324585,1.7386821508407593,77.96631622314453,-0.2010698160862203,-1.1327122648033565,-87.3096710714973,1.0636355,6.2849326,-0.6984977,9.21011,-8.367542,-6.0782433,5.006352,-4.782569,-6.126921,7.013704,-11.946219,6.8063087,-3.400293,-0.12111621,6.7968388,-47.923416,27.555262,-26.960651,31.04522,-38.20558,4.588339,-6.4063144,-23.678522,-28.718382,29.314003,-17.169804,-46.57451,2.7657814,5.5303273
123,-0.18653824925422668,1.71281898021698,77.96240997314453,-0.20283516905232243,-1.1500192317157145,-87.37234265377074,1.1113417,6.2992525,-0.652306,9.23939,-8.395241,-6.041541,5.0294385,-4.7736926,-6.0620756,7.013279,-11.946173,6.803178,-3.3570762,-0.13523053,6.686893,-48.8527,27.599306,-27.221214,29.798508,-38.483295,4.663375,-6.544397,-24.574183,-28.867968,29.643963,-18.021313,-46.556114,2.681994,6.112957
124,-0.1829245537519455,1.6903367042541504,77.96058654785156,-0.20277007091022395,-1.174749864896558,-87.42831127941018,1.1727786,6.311115,-0.6030669,9.248447,-8.419646,-6.01798,5.0621324,-4.766196,-6.0075397,7.0139294,-11.9526005,6.8028755,-3.3171897,-0.14625925,6.5836816,-49.77514,27.6242,-27.502125,28.59441,-38.77181,4.7807837,-6.706803,-25.43687,-29.001522,29.97942,-18.806067,-46.601192,2.6101327,6.6599383
125,-0.1758214384317398,1.674021601676941,77.96115112304688,-0.20510804554058853,-1.2112125374220364,-87.47723986509327,1.2481691,6.320039,-0.5472488,9.243238,-8.448321,-6.0140486,5.110481,-4.7590957,-5.966416,7.013195,-11.966844,6.807405,-3.2869127,-0.15454504,6.4937115,-50.70144,27.631708,-27.802635,27.436132,-39.105892,4.9719996,-6.904335,-26.276667,-29.112349,30.326612,-19.513527,-46.758526,2.5502074,7.157634
126,-0.17499402165412903,1.649222731590271,77.9601058959961,-0.20684575940864242,-1.2549413987068354,-87.52203742262034,1.3356996,6.326521,-0.4868442,9.222757,-8.476054,-6.020784,5.1684446,-4.752661,-5.933288,7.0132823,-11.987269,6.8146553,-3.2610312,-0.15998375,6.411951,-51.61771,27.622805,-28.117922,26.30386,-39.45225,5.2151704,-7.1232195,-27.094074,-29.206993,30.68329,-20.140455,-46.980858,2.4934099,7.6100726
127,-0.1742735356092453,1.627956748008728,77.95288848876953,-0.2076401135390466,-1.299292425047287,-87.56096794344448,1.4229171,6.3320727,-0.43024203,9.202733,-8.5049,-6.0305,5.2292604,-4.74692,-5.90595,7.013435,-12.009715,6.8211646,-3.2420177,-0.16827966,6.3288336,-52.49601,27.610853,-28.439121,25.19324,-39.7526,5.4598145,-7.3524113,-27.889956,-29.260294,31.034554,-20.688856,-47.200764,2.4327738,8.054277
128,-0.1664140224456787,1.6038835048675537,77.94591522216797,-0.20831425499253003,-1.3370564793082098,-87.59295606197546,1.5034385,6.3373666,-0.3847732,9.185858,-8.530261,-6.035277,5.2858534,-4.7430105,-5.8820686,7.014219,-12.031226,6.8237934,-3.2283914,-0.17026088,6.2372456,-53.338673,27.57521,-28.767317,24.135971,-39.951252,5.6446276,-7.571681,-28.642242,-29.320047,31.396646,-21.208841,-47.327396,2.3963597,8.496895
129,-0.1619051843881607,1.5734440088272095,77.9414291381836,-0.21087106920348425,-1.3655599632360622,-87.61471276032174,1.5687034,6.3436193,-0.3566304,9.185559,-8.555615,-6.0315866,5.3372602,-4.740589,-5.8633637,7.0149455,-12.051184,6.8191533,-3.212364,-0.17028145,6.1366625,-54.140495,27.518553,-29.105244,23.121347,-39.98577,5.746548,-7.7836757,-29.341095,-29.3743,31.729536,-21.704353,-47.333504,2.3743157,8.985927
130,-0.15586717426776886,1.5420327186584473,77.93799591064453,-0.21273336153497854,-1.388732711757861,-87.6279463840835,1.6262856,6.350142,-0.34028104,9.193086,-8.5809765,-6.024131,5.386566,-4.73962,-5.850252,7.0159097,-12.071115,6.80986,-3.1996124,-0.16935042,6.0306635,-54.9004,27.453678,-29.453465,22.136774,-39.9076,5.796498,-7.994537,-30.003681,-29.418484,32.046658,-22.157232,-47.259098,2.3664148,9.496023
131,-0.15448692440986633,1.5113245248794556,77.93582916259766,-0.21416843909410835,-1.410129736948593,-87.63843949283667,1.6820168,6.3552613,-0.32703546,9.200051,-8.605389,-6.0173774,5.435053,-4.7401166,-5.8386602,7.0168824,-12.090828,6.8013535,-3.1864,-0.16708477,5.925711,-55.628296,27.36646,-29.792328,21.197323,-39.8006,5.835688,-8.210619,-30.615843,-29.45734,32.354904,-22.574827,-47.15529,2.359253,9.975851
132,-0.15880218148231506,1.483083963394165,77.94003295898438,-0.2140683951544073,-1.4329507463533615,-87.65214625081381,1.7433372,6.357435,-0.30801353,9.195721,-8.6276865,-6.015924,5.4834867,-4.742367,-5.824326,7.018144,-12.110282,6.799161,-3.1781797,-0.16708066,5.8257713,-56.31526,27.264153,-30.097054,20.300646,-39.752693,5.9073253,-8.438911,-31.208447,-29.490864,32.66268,-22.9297,-47.044468,2.3337855,10.378661
133,-0.1571277678012848,1.4589152336120605,77.93771362304688,-0.21275081895442413,-1.4569487008603672,-87.66956684474734,1.8079362,6.356158,-0.28124368,9.180985,-8.649191,-6.023518,5.5307865,-4.745909,-5.8066673,7.018386,-12.127272,6.8058586,-3.1742597,-0.1690509,5.7323494,-56.9525,27.147425,-30.35171,19.440695,-39.79601,6.0235753,-8.690811,-31.772863,-29.519049,32.96991,-23.221481,-46.91863,2.2789962,10.676252
134,-0.14817239344120026,1.4254326820373535,77.93375396728516,-0.20925534135089935,-1.4807082053572052,-87.68788609610776,1.8749402,6.352597,-0.25121644,9.157057,-8.668393,-6.0369644,5.577032,-4.7506833,-5.787786,7.018192,-12.142836,6.818122,-3.1765354,-0.17085248,5.6446366,-57.54844,27.015928,-30.56826,18.622433,-39.878834,6.1623197,-8.959611,-32.304165,-29.541246,33.27666,-23.458775,-46.76996,2.207111,10.899249
135,-0.13625337183475494,1.3983970880508423,77.931884765625,-0.20493343712197754,-1.5059962913836062,-87.70790520486301,1.9444649,6.3466907,-0.21972461,9.132506,-8.689298,-6.050163,5.625004,-4.757475,-5.767523,7.0184875,-12.160058,6.8325744,-3.1800058,-0.17264101,5.557182,-58.108105,26.875368,-30.774874,17.84486,-39.970207,6.3143444,-9.22478,-32.8149,-29.560879,33.577507,-23.645163,-46.624233,2.1348052,11.0868
136,-0.12919330596923828,1.375701904296875,77.92981719970703,-0.19969801851190533,-1.5342216384509897,-87.73050765629281,2.0148308,6.339433,-0.18891044,9.119709,-8.718041,-6.0572033,5.6775784,-4.766354,-5.7459316,7.01909,-12.181032,6.8457923,-3.1776266,-0.17228046,5.471355,-58.640594,26.732052,-30.99775,17.102438,-40.03909,6.470947,-9.465551,-33.283676,-29.57776,33.868397,-23.811085,-46.536144,2.0800452,11.276011
137,-0.1215708926320076,1.3426655530929565,77.92626953125,-0.19236584932337727,-1.5682770856788357,-87.75734743269426,2.094985,6.3297267,-0.15759607,9.10908,-8.751276,-6.0577292,5.737426,-4.778882,-5.7206964,7.0208983,-12.207915,6.857054,-3.1715283,-0.17079495,5.3882923,-59.15002,26.591187,-31.24077,16.397482,-40.080063,6.636777,-9.676737,-33.722763,-29.593937,34.14967,-23.949827,-46.515446,2.044552,11.484936
138,-0.10951194167137146,1.3102142810821533,77.92027282714844,-0.18321575587294586,-1.6064237512062336,-87.78767787024451,2.1822581,6.317808,-0.125315,9.099354,-8.788029,-6.054566,5.8038106,-4.794083,-5.6929116,7.021896,-12.238792,6.868003,-3.1649988,-0.16864885,5.308737,-59.626556,26.455029,-31.489998,15.723335,-40.110188,6.8146615,-9.869171,-34.13322,-29.61089,34.421947,-24.05811,-46.5366,2.0193768,11.690966
139,-0.09842345863580704,1.2792738676071167,77.91448974609375,-0.17388245416246081,-1.6440351217944695,-87.81789710427961,2.261849,6.304984,-0.0946595,9.105608,-8.832315,-6.046128,5.86931,-4.810447,-5.666285,7.0241904,-12.270689,6.87936,-3.1590028,-0.16523431,5.2305284,-60.06027,26.324352,-31.742147,15.069973,-40.131958,6.9923496,-10.045926,-34.50903,-29.628912,34.685253,-24.140793,-46.57897,2.005266,11.871596
140,-0.08926835656166077,1.2500126361846924,77.91215515136719,-0.16569769146403543,-1.6768319250257155,-87.84478023329095,2.3370628,6.291317,-0.0657048,9.105719,-8.8683605,-6.03076,5.929419,-4.827833,-5.6442585,7.0254235,-12.298786,6.892123,-3.1547937,-0.16159958,5.1516933,-60.44351,26.197987,-31.994905,14.431142,-40.14686,7.1572623,-10.210025,-34.845222,-29.647606,34.940613,-24.20291,-46.622253,2.0029333,12.004607
141,-0.08409412950277328,1.223251461982727,77.91234588623047,-0.1566060212120718,-1.702781053955057,-87.86680400496705,2.3954477,6.277372,-0.0406717,9.119891,-8.904668,-6.0030713,5.9813175,-4.8461227,-5.6296754,7.026467,-12.321951,6.907836,-3.151219,-0.1577118,5.0708365,-60.77312,26.074186,-32.251095,13.805591,-40.17006,7.3031955,-10.356738,-35.1252,-29.664497,35.190605,-24.249224,-46.678627,2.0197585,12.078773
142,-0.07095126807689667,1.1897510290145874,77.90715789794922,-0.14735042710122634,-1.7244422359928846,-87.8861789291894,2.4475844,6.261789,-0.017491356,9.134752,-8.936636,-5.9655294,6.0281906,-4.8665447,-5.6196094,7.0272574,-12.342205,6.925875,-3.1517775,-0.15481055,4.986236,-61.05335,25.953878,-32.510456,13.201829,-40.194885,7.4374175,-10.486464,-35.378006,-29.68276,35.43307,-24.260025,-46.733982,2.0520191,12.108954
143,-0.05803920328617096,1.1540148258209229,77.90408325195312,-0.13874686470749098,-1.7443895118719386,-87.90404263861383,2.4923515,6.2472606,0.003950375,9.159146,-8.972306,-5.9286437,6.073022,-4.885525,-5.610892,7.0286913,-12.362411,6.9424863,-3.1519032,-0.14878644,4.9035263,-61.291737,25.838053,-32.76927,12.616149,-40.192875,7.568846,-10.609556,-35.600266,-29.702433,35.66358,-24.252253,-46.791042,2.087111,12.108557
144,-0.04902349412441254,1.1195833683013916,77.90098571777344,-0.13085575473093294,-1.7651201130118337,-87.92203736064683,2.5423574,6.2342734,0.026041636,9.173827,-9.005291,-5.902759,6.1190476,-4.901687,-5.599645,7.0297103,-12.383857,6.954413,-3.1492658,-0.13700667,4.8288774,-61.50041,25.72629,-33.0227,12.050199,-40.13479,7.7061768,-10.7364235,-35.792667,-29.720901,35.87864,-24.240746,-46.850655,2.1124434,12.090642
145,-0.03355842083692551,1.0880239009857178,77.90164184570312,-0.12403893642649054,-1.7887295043889413,-87.9400866611323,2.60484,6.223782,0.048812192,9.1680565,-9.031281,-5.893955,6.1688867,-4.913348,-5.585553,7.0313115,-12.408784,6.959575,-3.1488264,-0.11894632,4.761044,-61.677883,25.62,-33.266262,11.508393,-39.991936,7.8610315,-10.872855,-35.985962,-29.742361,36.07624,-24.200335,-46.88156,2.1195152,12.045489
146,-0.024693535640835762,1.0636699199676514,77.89757537841797,-0.11924165313114059,-1.813230134898049,-87.95723583978305,2.666482,6.215624,0.07051184,9.164769,-9.060325,-5.8957133,6.2206783,-4.9210386,-5.5704865,7.0321035,-12.435063,6.9600635,-3.151684,-0.09523035,4.6969934,-61.818825,25.520433,-33.502796,10.988862,-39.786774,8.025463,-11.012883,-36.174618,-29.770536,36.25892,-24.130854,-46.887707,2.1166966,11.970733
147,-0.019591448828577995,1.0376033782958984,77.8946304321289,-0.11409283156031821,-1.8356723445171728,-87.97457433452077,2.7270212,6.2074733,0.09313573,9.158617,-9.087737,-5.8990417,6.2694254,-4.9287534,-5.5538516,7.0328097,-12.460046,6.9589806,-3.1503532,-0.067840025,4.638825,-61.92761,25.426352,-33.739925,10.485184,-39.565807,8.178574,-11.149,-36.31835,-29.799335,36.427643,-24.07474,-46.912277,2.115824,11.891436
148,-0.013555671088397503,1.0053640604019165,77.89058685302734,-0.10822256294327287,-1.8529388833351599,-87.99296167399228,2.7822342,6.196774,0.11806366,9.151005,-9.111702,-5.8950443,6.309892,-4.9400706,-5.5347075,7.0351443,-12.482172,6.959591,-3.1463351,-0.04148023,4.578314,-61.999016,25.338724,-33.984394,9.996772,-39.374344,8.299172,-11.273697,-36.42817,-29.826376,36.58248,-24.037931,-46.95097,2.1256976,11.836463
149,-0.004026299342513084,0.9755470752716064,77.89208221435547,-0.09906994273996482,-1.8624666815895774,-88.01122504593035,2.8229337,6.182936,0.14440916,9.154768,-9.138178,-5.879376,6.3400636,-4.956196,-5.5138493,7.036395,-12.498453,6.961862,-3.155203,-0.015321034,4.5105734,-62.014378,25.278036,-34.232113,9.516642,-39.227955,8.368042,-11.38626,-36.533493,-29.84873,36.7331,-24.00613,-46.990158,2.157099,11.81598
150,0.0007632731576450169,0.9483476877212524,77.89012145996094,-0.08974760827010266,-1.8665574878329527,-88.02946462046087,2.858934,6.1668305,0.17241593,9.1549,-9.160581,-5.8574476,6.362475,-4.975317,-5.491021,7.0383673,-12.511596,6.9644723,-3.1727111,0.00943135,4.4331756,-61.99108,25.223593,-34.487747,9.070724,-39.098545,8.3994,-11.489516,-36.64788,-29.876884,36.871212,-23.96094,-47.002934,2.2016337,11.815241
151,0.010231886990368366,0.9188347458839417,77.89067840576172,-0.07864749007381018,-1.8693271239301947,-88.0497640703797,2.8901005,6.151015,0.20208518,9.162311,-9.185943,-5.8351564,6.3824935,-4.9946733,-5.465753,7.0389524,-12.522346,6.9680204,-3.1684558,0.03643515,4.369117,-61.954613,25.161081,-34.750813,8.635276,-38.97676,8.42768,-11.581564,-36.666233,-29.901073,36.988045,-23.972939,-47.07655,2.2426717,11.8203335
152,0.01928161084651947,0.8899703621864319,77.890625,-0.07005873466326885,-1.8751231371621337,-88.07453730369403,2.929822,6.1372814,0.23481932,9.161969,-9.207807,-5.8185124,6.40535,-5.01213,-5.4370866,7.0401773,-12.534801,6.9729686,-3.1781254,0.06951919,4.3091655,-61.860493,25.12571,-34.980373,8.1719,-38.84709,8.490503,-11.665333,-36.72166,-29.916609,37.097942,-23.951109,-47.103115,2.251023,11.832779
153,0.030413642525672913,0.863073468208313,77.89167785644531,-0.061308771665518146,-1.8850359778199945,-88.10629146977287,2.9778345,6.126676,0.27228028,9.160294,-9.230171,-5.808656,6.4327345,-5.0268326,-5.4028788,7.0401535,-12.548329,6.97979,-3.1641345,0.09899812,4.260494,-61.771202,25.062033,-35.218098,7.734322,-38.69476,8.596848,-11.7298355,-36.713978,-29.93223,37.16952,-23.95925,-47.119728,2.2187748,11.845799
154,0.04423033446073532,0.8342359066009521,77.88739776611328,-0.05381650119226152,-1.8969952426560655,-88.1433048811068,3.0339518,6.1173553,0.3139165,9.150693,-9.248768,-5.8025627,6.4606104,-5.0407414,-5.363853,7.0421553,-12.563408,6.9880967,-3.1729987,0.1362487,4.20743,-61.6131,25.023973,-35.41498,7.279536,-38.52394,8.73646,-11.788011,-36.77701,-29.947544,37.232075,-23.911806,-47.042435,2.1518533,11.872981
155,0.05402907356619835,0.8082424998283386,77.88461303710938,-0.04684826327790879,-1.909970976954765,-88.18079350086006,3.0868037,6.1095757,0.35500756,9.1478405,-9.270722,-5.7999396,6.489044,-5.053036,-5.3248844,7.0434856,-12.577874,6.997117,-3.1680548,0.17399295,4.1680627,-61.451538,24.982124,-35.619873,6.834095,-38.374226,8.876389,-11.834819,-36.78363,-29.961115,37.28215,-23.901096,-47.018055,2.0818014,11.897693
156,0.05889926850795746,0.784914493560791,77.88401794433594,-0.0400127660077033,-1.9234488095064475,-88.21435830608453,3.1410747,6.101818,0.39281374,9.135383,-9.287502,-5.800262,6.5176897,-5.064658,-5.290551,7.043599,-12.590312,7.0061607,-3.1609848,0.21151836,4.137459,-61.287952,24.942717,-35.83319,6.4033265,-38.274323,8.992669,-11.876333,-36.78163,-29.970987,37.335476,-23.90043,-47.056168,2.0284748,11.91743
157,0.06704241037368774,0.763458251953125,77.87992095947266,-0.03451852871607916,-1.938315538967634,-88.24150993850044,3.1908946,6.09528,0.4244309,9.123373,-9.304568,-5.8093624,6.5456085,-5.0749726,-5.263612,7.0447326,-12.601684,7.014119,-3.1576064,0.24004957,4.1047964,-61.14898,24.883282,-36.083378,6.0384088,-38.24356,9.076737,-11.957171,-36.828205,-29.993664,37.381023,-23.879324,-47.121746,1.9988562,11.926081
158,0.07547280937433243,0.7429666519165039,77.87789916992188,-0.03184102883225651,-1.954352684700627,-88.26518918663533,3.2401042,6.089874,0.4525894,9.107726,-9.319805,-5.8252964,6.5739202,-5.0839715,-5.2411456,7.0449624,-12.611363,7.0217805,-3.1536117,0.27456686,4.0834575,-60.995388,24.832226,-36.334118,5.675901,-38.2619,9.1485,-12.065447,-36.866066,-30.017752,37.434326,-23.870186,-47.255615,1.9852477,11.923991
159,0.08271963149309158,0.7252377867698669,77.87857818603516,-0.028169558352548266,-1.970142160651121,-88.28832128553567,3.2876415,6.0837727,0.48023617,9.092113,-9.33463,-5.8368373,6.601218,-5.0927825,-5.218799,7.0455546,-12.620339,7.030778,-3.1557646,0.30946139,4.066867,-60.821808,24.794973,-36.572086,5.312194,-38.29921,9.205116,-12.102449,-36.90806,-30.040031,37.488125,-23.86275,-47.38738,1.9709517,11.93141
160,0.08976782858371735,0.7077867388725281,77.88015747070312,-0.023246840431623207,-1.9837934100297328,-88.31384901551657,3.3278558,6.07593,0.5096112,9.088542,-9.354271,-5.8327274,6.626348,-5.101931,-5.1922607,7.0461984,-12.628689,7.0429273,-3.1613336,0.34311706,4.055049,-60.63243,24.767958,-36.782196,4.944558,-38.323463,9.245566,-11.971596,-36.928837,-30.057606,37.535942,-23.870861,-47.482143,1.9414016,11.966331
161,0.10020116716623306,0.6881726980209351,77.87964630126953,-0.012817003514894093,-1.9953621043791097,-88.34514119845177,3.3609443,6.0633297,0.5442152,9.098224,-9.378647,-5.8003964,6.649992,-5.112975,-5.1553707,7.04629,-12.635052,7.0631075,-3.1572824,0.37398863,4.0516763,-60.42773,24.744719,-36.98514,4.5497603,-38.315388,9.263926,-11.564524,-36.891743,-30.068523,37.565533,-23.916445,-47.561176,1.874017,12.045693
162,0.1029282808303833,0.6647222638130188,77.88253784179688,-0.0015241495035141213,-2.005554644508483,-88.37961536192252,3.3851264,6.047981,0.5811937,9.125169,-9.411109,-5.7491884,6.6717024,-5.1247535,-5.1122236,7.0467653,-12.639819,7.0887923,-3.1554654,0.3975269,4.0496655,-60.2166,24.722588,-37.189037,4.159609,-38.295864,9.260582,-10.958304,-36.849228,-30.077133,37.57628,-23.968157,-47.59948,1.7792206,12.159365
163,0.11578688770532608,0.6533083319664001,77.88220977783203,0.009686386086646825,-2.014046839522416,-88.41188731472631,3.4085805,6.0340743,0.61606985,9.14735,-9.440181,-5.700114,6.692219,-5.1353903,-5.073464,7.0457683,-12.644722,7.110975,-3.15357,0.41541132,4.049172,-60.005966,24.70085,-37.360806,3.8067784,-38.293808,9.245548,-10.335968,-36.78873,-30.08384,37.581036,-24.031483,-47.607143,1.7018238,12.273963
164,0.11653521656990051,0.6348596811294556,77.88092041015625,0.015284885314783283,-2.020259743550539,-88.43627466959457,3.4308422,6.026972,0.64296734,9.161398,-9.465239,-5.6744843,6.7085404,-5.1421833,-5.0494576,7.0471816,-12.653635,7.120294,-3.1595163,0.42926803,4.0459704,-59.802456,24.681568,-37.464153,3.532275,-38.339252,9.22789,-9.8805,-36.726536,-30.09006,37.600582,-24.093594,-47.57322,1.6866621,12.356928
165,0.11122293025255203,0.6182202696800232,77.88378143310547,0.016162381258707424,-2.0256257532903104,-88.44768077755555,3.460544,6.029711,0.6578119,9.149692,-9.4783125,-5.684975,6.723833,-5.1431503,-5.050338,7.0482225,-12.667972,7.1078153,-3.177612,0.4323252,4.0414753,-59.616318,24.663664,-37.482098,3.3751493,-38.4138,9.196484,-9.648225,-36.653267,-30.0968,37.63245,-24.16994,-47.44376,1.7885228,12.391735
166,0.1096988096833229,0.6081014275550842,77.86988830566406,0.010224082959299193,-2.029552129953964,-88.4501453066844,3.4889941,6.039451,0.6638197,9.131914,-9.488932,-5.717906,6.737337,-5.1399717,-5.068098,7.049798,-12.686363,7.080671,-3.1953204,0.43234777,4.0399933,-59.44045,24.64003,-37.43169,3.2981575,-38.508564,9.152484,-9.540837,-36.53655,-30.103966,37.676926,-24.277767,-47.27112,1.9749098,12.392792
167,0.11065220832824707,0.5970613360404968,77.86398315429688,0.0034354999372697495,-2.0300541920899544,-88.45244999121599,3.5158534,6.0502586,0.6695632,9.107639,-9.494515,-5.7548304,6.7463007,-5.136042,-5.0862317,7.0507426,-12.703352,7.053758,-3.2196388,0.4322088,4.0308714,-59.266083,24.613857,-37.346016,3.2613373,-38.672287,9.116155,-9.503137,-36.454533,-30.115273,37.72905,-24.352537,-47.096786,2.1437504,12.389015
168,0.11425618082284927,0.5865039229393005,77.86323547363281,0.0008998766997638231,-2.0245422926692953,-88.46317915473927,3.5335429,6.0573196,0.6827462,9.089942,-9.498877,-5.777339,6.7469153,-5.1343203,-5.0884004,7.0514836,-12.714221,7.0420103,-3.2277336,0.44958913,4.0172114,-59.08739,24.572777,-37.251686,3.202357,-38.950024,9.111113,-9.485214,-36.376846,-30.137743,37.796986,-24.396461,-47.063866,2.2073185,12.395926
169,0.11946746706962585,0.5754292011260986,77.865478515625,0.003960274268984926,-2.0108226825621696,-88.48990229058467,3.5391848,6.058215,0.7101443,9.08307,-9.502771,-5.7789984,6.7356687,-5.137013,-5.0628595,7.051048,-12.714962,7.0564156,-3.2144,0.45994455,3.9997,-58.90999,24.54503,-37.183918,3.1098382,-39.465004,9.14665,-9.488218,-36.30353,-30.157982,37.834866,-24.401201,-47.22604,2.0811296,12.43676
170,0.12217317521572113,0.5620977878570557,77.86821746826172,0.010456307855539632,-1.9904895786007348,-88.5264386841949,3.5396044,6.0558314,0.7464775,9.073999,-9.500759,-5.7700567,6.7150908,-5.142175,-5.0206122,7.0502834,-12.70942,7.086799,-3.187023,0.4762316,3.9789987,-58.726456,24.518698,-37.10054,3.0068133,-40.1497,9.214417,-9.54029,-36.23098,-30.18428,37.870827,-24.379564,-47.523083,1.8399864,12.4891815
171,0.12423772364854813,0.5440229773521423,77.87271881103516,0.018330353577167093,-1.9681666473603339,-88.56002992743542,3.5354943,6.0529137,0.7801719,9.065952,-9.497445,-5.757485,6.692247,-5.1468244,-4.9801464,7.0490146,-12.702757,7.115862,-3.157699,0.487478,3.9590302,-58.55604,24.500376,-37.040165,2.8944366,-40.816334,9.279812,-9.581042,-36.159214,-30.20871,37.908806,-24.350483,-47.849514,1.5858483,12.542896
172,0.12390518933534622,0.5333511233329773,77.87409973144531,0.02221928465207499,-1.9480340932729523,-88.5780626574325,3.525105,6.052578,0.799357,9.066643,-9.499657,-5.748237,6.674483,-5.1474047,-4.960222,7.048015,-12.701565,7.1261306,-3.1395664,0.49688593,3.9423969,-58.408688,24.485218,-37.018257,2.7731147,-41.26813,9.312452,-9.55925,-36.094585,-30.23786,37.97016,-24.331556,-48.097492,1.4280748,12.584444
173,0.11813482642173767,0.5238368511199951,77.87188720703125,0.02092862341430602,-1.9311252323552341,-88.57202686943545,3.5102525,6.0557356,0.79735535,9.070411,-9.504758,-5.7443213,6.663748,-5.1426215,-4.972878,7.049181,-12.710069,7.106089,-3.1381066,0.4954975,3.9314413,-58.295933,24.476246,-37.059494,2.6411111,-41.425766,9.285884,-9.4487505,-36.03154,-30.263197,38.053364,-24.33272,-48.244045,1.4123646,12.604024
174,0.11175372451543808,0.5210293531417847,77.86576843261719,0.01613943674649712,-1.9152370546058657,-88.55026699874371,3.4904506,6.0609007,0.7816006,9.076609,-9.511091,-5.742036,6.656476,-5.1339035,-5.005787,7.0505853,-12.723281,7.067298,-3.1435757,0.48907605,3.9253778,-58.2109,24.469994,-37.146606,2.4999938,-41.402157,9.221903,-9.281503,-35.95866,-30.290552,38.15914,-24.35007,-48.355583,1.4810452,12.606723
175,0.10328211635351181,0.5171028971672058,77.86679077148438,0.012108485220697263,-1.899957020052422,-88.52590751434126,3.469719,6.066195,0.76245946,9.082787,-9.516837,-5.739378,6.6508837,-5.1247735,-5.040827,7.049522,-12.73505,7.027155,-3.1510773,0.4788553,3.918595,-58.142147,24.468472,-37.254566,2.359644,-41.29535,9.160487,-9.089809,-35.903126,-30.311342,38.265472,-24.35519,-48.42871,1.5611502,12.624128
176,0.10090381652116776,0.5138947367668152,77.86316680908203,0.011451749082869856,-1.8848157089374873,-88.5120486440395,3.4513094,6.0692496,0.75069374,9.086952,-9.52066,-5.7344213,6.639311,-5.119497,-5.0589404,7.052997,-12.743657,7.003547,-3.1465328,0.47171915,3.911098,-58.083714,24.47043,-37.36538,2.2248588,-41.20795,9.135607,-8.900663,-35.84782,-30.331236,38.369987,-24.3522,-48.497692,1.5967262,12.672329
177,0.1011396273970604,0.5119280219078064,77.86392211914062,0.014780089621975806,-1.8691367869333524,-88.51435574652854,3.4355223,6.0684285,0.7503487,9.088841,-9.521257,-5.723605,6.624731,-5.119788,-5.0508285,7.04939,-12.739201,7.0037804,-3.1343026,0.46771783,3.8979933,-58.034447,24.476547,-37.47988,2.0979772,-41.14335,9.1629505,-8.697788,-35.815838,-30.353123,38.47252,-24.330292,-48.532078,1.5670264,12.768589
178,0.09888404607772827,0.5032881498336792,77.86676788330078,0.019673370962230347,-1.8533546885370287,-88.5250781994438,3.4175174,6.0652843,0.75499445,9.095733,-9.523025,-5.7089834,6.603199,-5.123594,-5.0274367,7.052511,-12.7330885,7.017564,-3.109425,0.4676134,3.8885674,-57.995743,24.49055,-37.60594,1.9593095,-41.05584,9.223809,-8.475733,-35.766254,-30.382202,38.575806,-24.321676,-48.560616,1.5057462,12.896697
179,0.09553565829992294,0.5002152323722839,77.8685302734375,0.024153842975187734,-1.8384775696078872,-88.5371114518944,3.4009736,6.063102,0.7600416,9.101309,-9.524329,-5.6969695,6.584154,-5.126708,-5.003057,7.051141,-12.724019,7.0357084,-3.078301,0.4683078,3.8824356,-57.969627,24.509726,-37.731426,1.82969,-40.97372,9.29512,-8.273018,-35.71462,-30.410019,38.67348,-24.312046,-48.590485,1.4344542,13.03201
180,0.08999522775411606,0.4999731183052063,77.87123107910156,0.026303590360614436,-1.8255928300081354,-88.54340622726316,3.3892474,6.0650334,0.76093006,9.099478,-9.523314,-5.6940236,6.5694346,-5.125335,-4.990977,7.0502677,-12.719998,7.0489526,-3.0501726,0.4671316,3.8797061,-57.96252,24.531883,-37.85065,1.736051,-40.927357,9.3488655,-8.123044,-35.680607,-30.436014,38.771347,-24.289858,-48.626072,1.3809898,13.144114
181,0.08289852738380432,0.4991292953491211,77.87165832519531,0.024074633461522558,-1.8159553545757285,-88.54169437553232,3.3853922,6.0723505,0.7557114,9.086123,-9.51931,-5.7032604,6.564108,-5.1179442,-4.996568,7.044846,-12.721165,7.057237,-3.0250144,0.46353456,3.8855808,-57.97286,24.569185,-37.963512,1.6723597,-40.947544,9.375958,-8.043893,-35.65047,-30.472675,38.872025,-24.279774,-48.67974,1.3606827,13.229094
182,0.07604750245809555,0.49593549966812134,77.87434387207031,0.01970253730373277,-1.808500551865663,-88.53593958302113,3.3792782,6.0833173,0.7462664,9.080685,-9.521457,-5.720789,6.557793,-5.107173,-5.0112376,7.049572,-12.731929,7.064669,-3.005326,0.46089303,3.8960524,-57.994743,24.618418,-38.064163,1.6321902,-41.007572,9.393993,-8.0173025,-35.644707,-30.517912,38.97529,-24.262249,-48.726913,1.353645,13.304453
183,0.06877834349870682,0.4923621118068695,77.87350463867188,0.013111740952601376,-1.8015630666143894,-88.52798150939455,3.3768435,6.0965037,0.7359927,9.067144,-9.5187235,-5.742412,6.5555177,-5.0939918,-5.030656,7.0481796,-12.740195,7.0684223,-2.975046,0.45758942,3.9057505,-58.044872,24.645592,-38.16817,1.6330627,-41.05956,9.407381,-8.014418,-35.629818,-30.539762,39.0733,-24.22564,-48.799503,1.3458126,13.360192
184,0.06101874262094498,0.49485844373703003,77.86978149414062,0.0074803048777589715,-1.792929379102571,-88.51977383379669,3.3694932,6.1109467,0.72657764,9.057609,-9.5145,-5.7639437,6.5500193,-5.0790653,-5.0494356,7.0480294,-12.746304,7.0654473,-2.9469855,0.45275655,3.9108162,-58.09564,24.68281,-38.283413,1.6358491,-41.070942,9.412962,-7.9939384,-35.640347,-30.566225,39.168186,-24.16294,-48.837376,1.3308606,13.380592
185,0.051968108862638474,0.49622273445129395,77.86727142333984,-0.001322804993623768,-1.7820290313899743,-88.51167259457654,3.3587525,6.1274385,0.7199274,9.045858,-9.503937,-5.788943,6.5402102,-5.0616508,-5.0693083,7.0480747,-12.74858,7.0530663,-2.9130046,0.4490596,3.9226696,-58.136906,24.750397,-38.40688,1.6030898,-41.04146,9.412831,-7.9481287,-35.634163,-30.603317,39.24772,-24.103971,-48.873325,1.2898077,13.349299
186,0.03950982540845871,0.49588581919670105,77.8641128540039,-0.009423052168986108,-1.7699575156236242,-88.50265681164825,3.3443427,6.1467185,0.7140689,9.035892,-9.491066,-5.8181343,6.52888,-5.0410757,-5.0919986,7.047525,-12.748756,7.0333924,-2.882489,0.4461148,3.9315472,-58.17792,24.828463,-38.530674,1.5735604,-40.983593,9.407644,-7.899061,-35.661877,-30.640718,39.317688,-24.008799,-48.875534,1.2296904,13.281321
187,0.03153165429830551,0.4942389726638794,77.86445617675781,-0.01939506424222854,-1.7573394866311303,-88.49269634806991,3.3289175,6.1654162,0.7071906,9.027563,-9.47828,-5.8429475,6.5170093,-5.021161,-5.1123867,7.0463657,-12.747193,7.011228,-2.8443744,0.44205165,3.9418044,-58.226395,24.906404,-38.657715,1.5490354,-40.891357,9.40043,-7.8526144,-35.66815,-30.667576,39.38708,-23.919237,-48.89611,1.1840409,13.204479
188,0.020900439471006393,0.49453043937683105,77.86780548095703,-0.025668435418813584,-1.745234953518706,-88.4815623958844,3.3110986,6.1811824,0.696767,9.028936,-9.472278,-5.854906,6.5047607,-5.0046825,-5.1251597,7.0475855,-12.746316,6.9912286,-2.8106349,0.4348041,3.948232,-58.27401,24.986485,-38.779068,1.5348427,-40.757156,9.394943,-7.8164563,-35.684967,-30.686941,39.463295,-23.830477,-48.90079,1.1805195,13.152929
189,0.010468252934515476,0.4892122447490692,77.87091827392578,-0.029199802069193242,-1.7323770804361045,-88.46627856468065,3.2888198,6.191159,0.67909425,9.04267,-9.474394,-5.8442645,6.492756,-4.9947715,-5.1277595,7.0473723,-12.743076,6.973725,-2.789393,0.4201222,3.9435513,-58.314266,25.069689,-38.892323,1.5332612,-40.56454,9.390406,-7.7980123,-35.734867,-30.704967,39.550293,-23.743675,-48.83086,1.2677348,13.137502
190,0.002127063926309347,0.48545336723327637,77.87171936035156,-0.028326383900590793,-1.7186552604779959,-88.4478931687078,3.2588425,6.198257,0.6558064,9.073812,-9.486357,-5.8181148,6.4797144,-4.9882894,-5.1234703,7.0479827,-12.7388735,6.95638,-2.7729998,0.4019025,3.9344168,-58.350346,25.159464,-39.000885,1.5345209,-40.32322,9.385591,-7.791041,-35.791714,-30.721424,39.643322,-23.66696,-48.72355,1.4176906,13.138653
191,-0.01041944045573473,0.4770723581314087,77.87167358398438,-0.030299552340561947,-1.7068212857301248,-88.43231922784125,3.2329383,6.205338,0.6348051,9.102824,-9.498654,-5.793038,6.4690523,-4.981601,-5.115724,7.0480256,-12.734939,6.9404354,-2.7476523,0.38428983,3.9205577,-58.406776,25.220251,-39.110744,1.5778999,-40.055088,9.384134,-7.787373,-35.85909,-30.732397,39.729538,-23.566074,-48.639843,1.5399551,13.149236
192,-0.026281923055648804,0.47784411907196045,77.87659454345703,-0.03152222903300063,-1.6992728203983993,-88.42569149131806,3.2208827,6.2161317,0.6235486,9.113867,-9.503474,-5.785688,6.462675,-4.9706597,-5.1083026,7.0482264,-12.733742,6.927068,-2.7223907,0.37454107,3.9195957,-58.444847,25.319618,-39.209175,1.5902067,-39.803654,9.386078,-7.7678475,-35.93746,-30.744808,39.810154,-23.44338,-48.647007,1.5472987,13.158792
193,-0.032769206911325455,0.4790944457054138,77.87773895263672,-0.03887468709011158,-1.6972364085037852,-88.43344783106976,3.22357,6.2344184,0.6268165,9.108626,-9.503106,-5.8082595,6.461411,-4.951189,-5.0999365,7.048776,-12.736403,6.917322,-2.6806095,0.38035446,3.9301462,-58.483055,25.418392,-39.29786,1.6093954,-39.61408,9.390217,-7.72263,-36.01657,-30.748346,39.87108,-23.276249,-48.820152,1.3668259,13.181811
194,-0.039964377880096436,0.47892504930496216,77.87525939941406,-0.04965886427980668,-1.6992996259372175,-88.45117937797102,3.241004,6.2570505,0.64027447,9.084113,-9.49529,-5.849244,6.4643254,-4.9264984,-5.089368,7.0482073,-12.740379,6.9103208,-2.6281786,0.3946677,3.946238,-58.522766,25.516546,-39.381783,1.639148,-39.456104,9.3953085,-7.660617,-36.103657,-30.742071,39.91757,-23.07306,-49.10125,1.0615342,13.216835
195,-0.04587605223059654,0.48126691579818726,77.87357330322266,-0.05849682454912937,-1.7036832098805967,-88.4695706400632,3.258634,6.2788243,0.6548252,9.065087,-9.490558,-5.8899717,6.4703493,-4.9028234,-5.0805063,7.0477333,-12.7456875,6.904272,-2.5813713,0.40755722,3.9592662,-58.568672,25.614557,-39.459167,1.683771,-39.22932,9.411907,-7.6104083,-36.22632,-30.732635,39.971718,-22.83578,-49.363186,0.7443306,13.235399
196,-0.049896061420440674,0.47847017645835876,77.8680648803711,-0.0638325588705383,-1.7087399913398718,-88.47924541771704,3.2716386,6.2937107,0.66272855,9.055657,-9.488446,-5.9115267,6.477617,-4.886409,-5.076598,7.0475683,-12.749759,6.897501,-2.540757,0.41013068,3.9680583,-58.6297,25.709257,-39.533848,1.7360353,-38.833904,9.450706,-7.6007357,-36.356655,-30.722486,40.0523,-22.59771,-49.530193,0.531273,13.207632
197,-0.05830017477273941,0.4754370152950287,77.86416625976562,-0.0615670972523513,-1.7134832539187197,-88.47687000865942,3.2723856,6.298778,0.6612851,9.069018,-9.494036,-5.90315,6.4855156,-4.8806014,-5.079146,7.0478234,-12.751835,6.889423,-2.5250535,0.39622268,3.9620628,-58.69059,25.81198,-39.599052,1.7979006,-38.31034,9.500648,-7.6361895,-36.547733,-30.72433,40.168705,-22.3431,-49.497654,0.46742013,13.1225815
198,-0.06857042759656906,0.47165989875793457,77.86433410644531,-0.056251848198579625,-1.7186665589716967,-88.46771948210421,3.2661386,6.297752,0.65505046,9.097021,-9.50466,-5.8766446,6.494105,-4.881374,-5.0858636,7.04879,-12.753037,6.8811793,-2.4941125,0.37621874,3.9681392,-58.77148,25.914743,-39.6652,1.8486228,-37.69415,9.560596,-7.702409,-36.656204,-30.717522,40.304123,-22.14221,-49.46815,0.49393076,12.989371
199,-0.07856544852256775,0.46801045536994934,77.86640167236328,-0.04984903323613264,-1.7262578265448951,-88.45545876481165,3.2634597,6.294854,0.6460897,9.122348,-9.514499,-5.8476486,6.5062513,-4.8838696,-5.0957756,7.050013,-12.755729,6.872813,-2.4651287,0.35444573,3.9735973,-58.863968,26.017519,-39.72689,1.8985577,-36.865204,9.65424,-7.801393,-36.77908,-30.704489,40.456047,-21.920328,-49.418247,0.5480771,12.834321
200,-0.08841347694396973,0.4636668562889099,77.86670684814453,-0.04622610068594572,-1.7377258048045088,-88.44343934808823,3.2653778,6.295315,0.6351776,9.146499,-9.527857,-5.8317575,6.524697,-4.88254,-5.1080327,7.050395,-12.76221,6.864549,-2.4282866,0.33969033,3.9846804,-58.971413,26.119627,-39.785057,1.933578,-35.706463,9.805082,-7.936878,-36.900845,-30.681513,40.61804,-21.674063,-49.43133,0.5741101,12.6769285
201,-0.09410872310400009,0.4597731828689575,77.8683090209961,-0.04640998570780861,-1.7555900832429248,-88.43274494041918,3.283917,6.300308,0.62258947,9.149355,-9.536046,-5.836052,6.552371,-4.8751836,-5.122267,7.051409,-12.775861,6.8549824,-2.4173477,0.33220977,3.9805248,-59.077023,26.227964,-39.83302,1.9772732,-34.138103,10.021482,-8.114024,-37.16379,-30.6795,40.794754,-21.332396,-49.378147,0.54090077,12.54372
202,-0.10315745323896408,0.45452600717544556,77.86556243896484,-0.04839600644410581,-1.7777102257534505,-88.42157056542942,3.30749,6.3077,0.6071313,9.15094,-9.547682,-5.8510537,6.586448,-4.864944,-5.1389093,7.0526876,-12.794109,6.8447065,-2.3791184,0.33236873,3.9958508,-59.210464,26.334587,-39.88751,1.9949545,-32.243557,10.286443,-8.334439,-37.348515,-30.675802,40.974064,-21.02597,-49.434505,0.49374625,12.406577
203,-0.11368133127689362,0.4559873044490814,77.8594741821289,-0.051406786321813176,-1.8011639021448151,-88.4087599408131,3.3325992,6.315211,0.5908132,9.151459,-9.559139,-5.8681498,6.6224246,-4.854761,-5.158312,7.0534506,-12.812705,6.8361363,-2.3435314,0.3332185,4.0117936,-59.346718,26.445848,-39.92875,1.997037,-30.125023,10.58267,-8.599231,-37.549343,-30.670057,41.164467,-20.693323,-49.497036,0.4555625,12.241568
204,-0.11750923097133636,0.4537512958049774,77.85834503173828,-0.05334210286892093,-1.8227143603386857,-88.39343029461345,3.3553476,6.3205137,0.5756644,9.151777,-9.567451,-5.878495,6.6555495,-4.848114,-5.1808667,7.053188,-12.82786,6.8319163,-2.3124468,0.3288474,4.0229225,-59.47806,26.553717,-39.94793,1.9858232,-27.883919,10.893356,-8.908599,-37.76725,-30.661148,41.36296,-20.325914,-49.544266,0.45400813,12.019704
205,-0.12503807246685028,0.44985488057136536,77.85791778564453,-0.05174556149903037,-1.8419918050922772,-88.37441901854366,3.370335,6.3227973,0.56272274,9.162882,-9.577899,-5.877757,6.6838474,-4.8469925,-5.2100997,7.0536284,-12.839945,6.836451,-2.2915475,0.31614038,4.0275536,-59.61871,26.65362,-39.94715,1.9837567,-25.467163,11.223887,-9.288132,-38.008396,-30.647102,41.57965,-19.931997,-49.56079,0.5370804,11.732608
206,-0.1359299123287201,0.4462794363498688,77.85417175292969,-0.04999656561163921,-1.8605301201642646,-88.35259960898475,3.3818388,6.3229585,0.550926,9.179169,-9.589015,-5.8712263,6.7101436,-4.8495297,-5.2445273,7.054689,-12.850996,6.8472404,-2.2743974,0.29739484,4.026412,-59.764,26.745092,-39.932026,1.9832883,-22.839403,11.571099,-9.735916,-38.26875,-30.627085,41.81022,-19.509398,-49.561096,0.67623866,11.396089
207,-0.14141225814819336,0.4422929286956787,77.85253143310547,-0.04766918317444532,-1.8779824630825865,-88.32970857202888,3.39369,6.323139,0.53790504,9.190693,-9.595863,-5.864783,6.735348,-4.851987,-5.277426,7.0547895,-12.859254,6.8560233,-2.2573898,0.27869266,4.024166,-59.907047,26.82813,-39.89498,1.9661864,-20.140112,11.910924,-10.205248,-38.543087,-30.601128,42.039692,-19.038874,-49.56861,0.7851335,11.0173855
208,-0.15125128626823425,0.4425710439682007,77.85082244873047,-0.047234207129458326,-1.8934214063475643,-88.30756099542774,3.4036007,6.324881,0.52073365,9.200795,-9.600394,-5.8642,6.758914,-4.851389,-5.302004,7.054736,-12.864451,6.8548255,-2.240783,0.2671699,4.027618,-60.057556,26.900917,-39.828392,1.9295683,-17.515083,12.226191,-10.646012,-38.82851,-30.569513,42.255245,-18.507246,-49.607243,0.7780259,10.60361
209,-0.15966954827308655,0.4404163062572479,77.84991455078125,-0.04886215559990489,-1.9062886575382822,-88.28607162417123,3.4120839,6.330129,0.49645457,9.206163,-9.600012,-5.871985,6.7797055,-4.8450103,-5.3135405,7.056214,-12.865381,6.8365254,-2.2174542,0.26601297,4.0367575,-60.20162,26.961857,-39.731537,1.8710239,-15.030905,12.527622,-11.053464,-39.11902,-30.535793,42.44073,-17.884005,-49.69638,0.56346697,10.08769
210,-0.16398394107818604,0.43672436475753784,77.85324096679688,-0.05251881687624561,-1.9168604709420183,-88.26456373776941,3.4181006,6.3376026,0.4671599,9.209742,-9.596207,-5.8848724,6.798772,-4.8351245,-5.3167195,7.0566845,-12.861729,6.807194,-2.1894507,0.26947007,4.05065,-60.35977,27.006428,-39.613808,1.8105823,-12.604472,12.821911,-11.449642,-39.41261,-30.504951,42.6031,-17.197474,-49.821808,0.21016246,9.488719
211,-0.16898447275161743,0.4335891902446747,77.85406494140625,-0.05573888641278589,-1.9268112411719,-88.24351690448562,3.4208894,6.3445053,0.4376265,9.217231,-9.593909,-5.899556,6.8167644,-4.8253164,-5.318451,7.0583415,-12.858978,6.7778673,-2.168723,0.27509454,4.0601435,-60.504967,27.045603,-39.462482,1.7079985,-10.130139,13.090996,-11.826693,-39.7372,-30.474718,42.77238,-16.4788,-49.931927,-0.12676823,8.9428215
212,-0.1772526353597641,0.429273396730423,77.8570785522461,-0.05565199696265768,-1.9372556513510015,-88.22377149053004,3.4269922,6.347433,0.41376704,9.218718,-9.58951,-5.9127192,6.8353457,-4.8195577,-5.3253694,7.05985,-12.860414,6.759907,-2.1267273,0.26727557,4.0766897,-60.66724,27.069475,-39.30642,1.5376811,-7.5150824,13.315786,-12.168095,-40.00671,-30.444088,42.930447,-15.8322735,-50.059315,-0.29470775,8.586919
213,-0.1787693202495575,0.4274016320705414,77.856201171875,-0.05193763502549906,-1.949253597840369,-88.2071829565209,3.437599,6.34487,0.39928848,9.213997,-9.583912,-5.92517,6.8566747,-4.8192096,-5.339118,7.060056,-12.868593,6.757898,-2.0892718,0.26182434,4.0939307,-60.81512,27.090633,-39.103195,1.2892914,-4.661256,13.486642,-12.476419,-40.281807,-30.377851,43.132786,-15.227343,-50.18588,-0.20668575,8.498949
214,-0.17883381247520447,0.42925170063972473,77.85575103759766,-0.04622984231712605,-1.962091909830303,-88.19264822736226,3.4510815,6.338569,0.3904497,9.204379,-9.576589,-5.9382377,6.879441,-4.8225107,-5.356066,7.0595574,-12.880907,6.765326,-2.062986,0.24040373,4.096532,-60.950542,27.103977,-38.883144,0.9980384,-1.6402563,13.616264,-12.745729,-40.604183,-30.30852,43.340393,-14.627607,-50.24282,0.02657847,8.601921
215,-0.1839229315519333,0.431077778339386,77.85547637939453,-0.0386514900881537,-1.9742062963755425,-88.17688625334115,3.464774,6.3306727,0.381516,9.191363,-9.567058,-5.949047,6.900235,-4.8273597,-5.375549,7.0606,-12.893888,6.776571,-2.0285647,0.20075686,4.1002197,-61.119015,27.105854,-38.670784,0.6672086,1.3838364,13.725144,-12.978583,-40.90959,-30.268873,43.519623,-14.057751,-50.26527,0.29616222,8.776935
216,-0.1907341033220291,0.43142932653427124,77.85643005371094,-0.033019525017865266,-1.9836051924037463,-88.15643665121972,3.4678476,6.324447,0.36557886,9.192176,-9.562501,-5.9548764,6.9181175,-4.8309536,-5.396824,7.060771,-12.902603,6.786326,-1.9992526,0.19164455,4.1074095,-61.276363,27.100916,-38.388985,0.2510002,4.2812586,13.8305855,-13.211349,-41.230404,-30.201944,43.751938,-13.41133,-50.316875,0.51713187,8.889488
217,-0.20027156174182892,0.432110071182251,77.85721588134766,-0.028031031540681643,-1.991240534342164,-88.12821882924315,3.466695,6.3188553,0.33990481,9.194222,-9.555235,-5.9526086,6.933167,-4.8344426,-5.4211135,7.060313,-12.904387,6.796263,-1.97466,0.18060815,4.111276,-61.45561,27.09107,-38.09139,-0.2325933,7.109315,13.949743,-13.43363,-41.568436,-30.121408,43.981934,-12.7024765,-50.30866,0.6551045,8.974844
218,-0.20652037858963013,0.4314068555831909,77.8554458618164,-0.024878924234960804,-1.9973554581773385,-88.09486366377523,3.4589474,6.313091,0.30788136,9.20366,-9.549358,-5.9445,6.946207,-4.838646,-5.4482527,7.0601206,-12.903107,6.8082733,-1.9478151,0.16674283,4.1157293,-61.65268,27.076288,-37.77724,-0.78503674,9.915046,14.071868,-13.639819,-41.905296,-30.040638,44.206974,-11.967543,-50.26167,0.764824,9.076329
219,-0.21291428804397583,0.4335542321205139,77.8572006225586,-0.021984680678427213,-2.000596189143038,-88.06117704816467,3.4479392,6.308286,0.27497992,9.213385,-9.543413,-5.93595,6.9557114,-4.841842,-5.4755993,7.0595207,-12.900263,6.817006,-1.908442,0.14068718,4.11868,-61.85123,27.06052,-37.46562,-1.3979418,12.513915,14.179083,-13.807994,-42.222183,-29.98974,44.4105,-11.22678,-50.243637,0.83707714,9.112685
220,-0.21702253818511963,0.43140724301338196,77.85768127441406,-0.01948276427555257,-1.9993850383541574,-88.03199314179881,3.4340143,6.305325,0.2465108,9.2215185,-9.538211,-5.932113,6.959689,-4.842835,-5.499957,7.0600796,-12.899725,6.817443,-1.8759054,0.14377753,4.119002,-62.038994,27.031746,-37.090714,-2.0364604,14.7216425,14.246877,-13.9422245,-42.572617,-29.91351,44.683205,-10.391614,-50.37252,0.88605434,8.985132
221,-0.22441092133522034,0.4344034790992737,77.8581314086914,-0.01735174339421488,-1.9924180526049848,-88.01031752510238,3.4198797,6.305156,0.2260958,9.220483,-9.530063,-5.936893,6.957498,-4.840344,-5.5181623,7.0600495,-12.901086,6.8044724,-1.8267899,0.13869901,4.1162024,-62.23636,26.993067,-36.715843,-2.6964011,16.442856,14.272616,-13.99821,-42.91108,-29.838957,44.96414,-9.4780035,-50.72568,0.8723892,8.599251
222,-0.22862893342971802,0.43050259351730347,77.85882568359375,-0.017368906358054367,-1.980748605998536,-87.99311895997708,3.4066336,6.306564,0.21055493,9.210151,-9.518388,-5.946498,6.9492955,-4.8358035,-5.532415,7.061141,-12.903878,6.7822547,-1.7689424,0.13591734,4.109887,-62.439228,26.941723,-36.3214,-3.3883598,17.795153,14.271755,-13.994851,-43.24984,-29.767677,45.26536,-8.495016,-51.23192,0.8147801,8.024377
223,-0.23459184169769287,0.4313719868659973,77.8588638305664,-0.016444232141240075,-1.9669758838649405,-87.97585527152796,3.3898041,6.3086343,0.1941127,9.201812,-9.508234,-5.9554,6.9390903,-4.830847,-5.548687,7.0615654,-12.9067545,6.7587495,-1.7046776,0.13306373,4.0988226,-62.633057,26.881395,-35.918602,-4.1199446,18.887718,14.265336,-13.961817,-43.57799,-29.703558,45.56268,-7.5128655,-51.736343,0.75581646,7.4442925
224,-0.2410731017589569,0.43011581897735596,77.85973358154297,-0.014915076344934218,-1.9533649063162695,-87.95419082067164,3.3687909,6.3096485,0.17156602,9.200638,-9.502045,-5.957897,6.9301844,-4.827508,-5.572798,7.0622945,-12.910798,6.7420044,-1.6395488,0.13309982,4.0849934,-62.81976,26.809975,-35.511616,-4.882076,19.82459,14.271408,-13.932802,-43.892666,-29.63762,45.843628,-6.5884395,-52.093124,0.73506737,7.041977
225,-0.249156191945076,0.4277178645133972,77.86174774169922,-0.014385502958538517,-1.9396314872839513,-87.92565840683828,3.3437724,6.308828,0.13979927,9.203724,-9.498294,-5.9492674,6.9231033,-4.8270335,-5.61001,7.0624995,-12.915864,6.7350883,-1.5804882,0.13110851,4.065753,-62.999577,26.730225,-35.097027,-5.683493,20.53125,14.304353,-13.906284,-44.19998,-29.577066,46.09708,-5.7508097,-52.235188,0.7601468,6.8989134
226,-0.2585333287715912,0.4238912761211395,77.86343383789062,-0.013232040987972817,-1.9247685777849002,-87.89303534313596,3.313703,6.307296,0.10200696,9.212709,-9.497961,-5.933581,6.916075,-4.8279414,-5.6562214,7.06199,-12.921531,6.733374,-1.5198457,0.12921657,4.044135,-63.174328,26.64106,-34.67291,-6.527228,20.985329,14.35109,-13.868354,-44.493248,-29.521763,46.332558,-4.9657865,-52.25986,0.8094938,6.9061847
227,-0.26360785961151123,0.41949400305747986,77.86524963378906,-0.012888162324970932,-1.9102618079070426,-87.8599101837817,3.2839499,6.305511,0.063468374,9.222242,-9.498327,-5.9184294,6.909408,-4.8292465,-5.702148,7.062405,-12.927953,6.733573,-1.4539256,0.1269891,4.0206165,-63.34597,26.545198,-34.261566,-7.3868484,21.365229,14.391696,-13.826941,-44.772083,-29.47135,46.55647,-4.2067246,-52.217003,0.86661947,6.9669094
228,-0.2710953950881958,0.4177645444869995,77.86333465576172,-0.011146187189111029,-1.8977968438143464,-87.82985549834162,3.2607286,6.3041553,0.029488917,9.225405,-9.495365,-5.9112897,6.904645,-4.8297405,-5.738953,7.062002,-12.933068,6.732255,-1.3835709,0.12452727,3.9968536,-63.528343,26.44635,-33.884865,-8.2239275,21.845074,14.406553,-13.789569,-45.04093,-29.426168,46.77897,-3.446978,-52.15333,0.91496944,6.9845214
229,-0.2773464620113373,0.4159426689147949,77.86204528808594,-0.01057580054350345,-1.8871575116201607,-87.8050273471859,3.2455313,6.302265,0.0018607039,9.220568,-9.48886,-5.9159517,6.900345,-4.829997,-5.7612147,7.0623565,-12.93694,6.7302785,-1.3033142,0.12166554,3.9756117,-63.731728,26.347101,-33.5437,-9.041184,22.464268,14.389099,-13.758514,-45.293194,-29.383036,46.999603,-2.6737077,-52.058823,0.94761914,6.935531
230,-0.282018780708313,0.4139077067375183,77.86087036132812,-0.008348675230404182,-1.8777233083037492,-87.7830420454271,3.2350821,6.3001413,-0.022405732,9.210975,-9.480061,-5.9278526,6.8967857,-4.830231,-5.7748938,7.0625033,-12.939533,6.728783,-1.2168623,0.11763526,3.9557345,-63.944595,26.251598,-33.22778,-9.859502,23.12992,14.351617,-13.728574,-45.530754,-29.34219,47.213795,-1.9038934,-51.915108,0.9734651,6.871198
231,-0.28405627608299255,0.4147467315196991,77.86079406738281,-0.007383499846630545,-1.8701571645057136,-87.76103043663066,3.2282627,6.2991767,-0.04505062,9.199408,-9.470429,-5.941863,6.8960133,-4.8291903,-5.7873263,7.06176,-12.942165,6.7252,-1.1333836,0.11599425,3.9343786,-64.15181,26.15331,-32.93788,-10.659223,23.822788,14.29796,-13.698999,-45.76707,-29.300642,47.430733,-1.1449704,-51.770206,1.0026015,6.8051124
232,-0.291911244392395,0.4086726903915405,77.8591537475586,-0.008019081729024978,-1.8650095491193777,-87.7358898157213,3.2202897,6.3009334,-0.06830744,9.195649,-9.464545,-5.952765,6.899009,-4.825032,-5.806017,7.06193,-12.947456,6.7168403,-1.053111,0.113146745,3.9150364,-64.34127,26.055004,-32.688206,-11.439689,24.517534,14.236936,-13.664728,-45.991074,-29.258831,47.639442,-0.42272604,-51.69004,1.0430996,6.7528
233,-0.3022317886352539,0.40858694911003113,77.85535430908203,-0.011721537820363552,-1.862761631801183,-87.70482836894757,3.2119036,6.3077602,-0.09296312,9.198211,-9.460926,-5.9583426,6.906933,-4.815377,-5.8356395,7.0631623,-12.9563675,6.6977644,-0.98294795,0.10927931,3.8984156,-64.516304,25.953423,-32.47661,-12.195816,25.24958,14.164899,-13.633387,-46.20922,-29.216738,47.84387,0.25508288,-51.70488,1.108064,6.7284007
234,-0.3093528151512146,0.4057673215866089,77.8538818359375,-0.018380273476411888,-1.8629024923411732,-87.67002163263201,3.2012563,6.3186026,-0.11831989,9.210321,-9.461554,-5.96175,6.9189854,-4.801382,-5.871546,7.064577,-12.96758,6.671167,-0.9155754,0.10441065,3.881841,-64.6692,25.84877,-32.300533,-12.943847,26.021648,14.079805,-13.604032,-46.41815,-29.174465,48.04217,0.9020615,-51.779682,1.1892111,6.7207065
235,-0.31760963797569275,0.40153107047080994,77.85843658447266,-0.02574324367952383,-1.8649772252856438,-87.63634230749341,3.1963015,6.3284802,-0.14195985,9.2166815,-9.459956,-5.965563,6.9339557,-4.7883563,-5.906339,7.0650215,-12.978767,6.6479416,-0.8470631,0.09992872,3.8641708,-64.80812,25.742243,-32.163887,-13.664949,26.750847,13.990868,-13.56008,-46.616943,-29.131912,48.234276,1.5285321,-51.86154,1.264135,6.705911
236,-0.3225242793560028,0.3917780816555023,77.86075592041016,-0.028005584347870885,-1.8680112710923225,-87.60875539438513,3.1948245,6.3329244,-0.16275194,9.22156,-9.459926,-5.9725437,6.948943,-4.781579,-5.932919,7.065529,-12.988988,6.639173,-0.7739282,0.09690071,3.8444517,-64.93502,25.639576,-32.070503,-14.342773,27.354544,13.908095,-13.485123,-46.80341,-29.090826,48.418587,2.1418915,-51.897156,1.309934,6.6602488
