chehuimin88/test_robot_retargeter/dataset/bones_g1_origin/grab_walk_ff_180_001__A550_M.csv
Frame,root_translateX,root_translateY,root_translateZ,root_rotateX,root_rotateY,root_rotateZ,left_hip_pitch_joint_dof,left_hip_roll_joint_dof,left_hip_yaw_joint_dof,left_knee_joint_dof,left_ankle_pitch_joint_dof,left_ankle_roll_joint_dof,right_hip_pitch_joint_dof,right_hip_roll_joint_dof,right_hip_yaw_joint_dof,right_knee_joint_dof,right_ankle_pitch_joint_dof,right_ankle_roll_joint_dof,waist_yaw_joint_dof,waist_roll_joint_dof,waist_pitch_joint_dof,left_shoulder_pitch_joint_dof,left_shoulder_roll_joint_dof,left_shoulder_yaw_joint_dof,left_elbow_joint_dof,left_wrist_roll_joint_dof,left_wrist_pitch_joint_dof,left_wrist_yaw_joint_dof,right_shoulder_pitch_joint_dof,right_shoulder_roll_joint_dof,right_shoulder_yaw_joint_dof,right_elbow_joint_dof,right_wrist_roll_joint_dof,right_wrist_pitch_joint_dof,right_wrist_yaw_joint_dof
0,0.33498048782348633,-1.538832426071167,77.81588745117188,-0.7669375569238238,-1.6215996683160885,89.71029035502372,6.760567,8.358947,26.105293,6.8025303,-11.487727,-8.694658,4.857767,-4.153219,-9.219249,7.065004,-12.442032,5.4381046,1.1523374,2.2581325,7.161809,1.3504627,11.731586,-19.873276,63.400177,6.384433,-4.382286,1.4210851,-1.0265878,-11.412205,21.915487,67.73835,-17.232042,-5.3432174,-2.9002428
1,0.3649361729621887,-1.5196731090545654,77.8178482055664,-0.7958811440317612,-1.577057005483831,89.64872365024863,6.744294,8.431726,26.162119,6.802803,-11.497086,-8.742024,4.8041673,-4.075514,-9.154819,7.0659103,-12.440959,5.3593864,1.1224264,2.2769983,7.166573,1.3665527,11.740111,-19.863577,63.342045,6.319517,-4.385062,1.4388633,-1.0393968,-11.412064,21.875502,67.690956,-17.27997,-5.350782,-2.8940356
2,0.3985009491443634,-1.5020722150802612,77.8193359375,-0.8268112567326986,-1.5335749061100208,89.5878788778636,6.7293777,8.50497,26.218166,6.8019238,-11.506449,-8.790585,4.7520823,-3.9967353,-9.090527,7.0659046,-12.439502,5.278959,1.0951487,2.2980998,7.1711826,1.3786397,11.744281,-19.855635,63.286472,6.2479343,-4.386858,1.4581476,-1.0493258,-11.413081,21.83433,67.64087,-17.335018,-5.357726,-2.8855128
3,0.42989885807037354,-1.484755039215088,77.82286071777344,-0.8554420157519476,-1.4885359213575249,89.52515321047521,6.713382,8.577322,26.276363,6.801625,-11.514853,-8.836835,4.6983547,-3.919383,-9.025495,7.0662117,-12.437828,5.2017365,1.081868,2.319431,7.1827188,1.380172,11.751738,-19.853647,63.2333,6.1976433,-4.3888216,1.4727892,-1.053827,-11.417281,21.760366,67.58242,-17.393908,-5.3680987,-2.877155
4,0.46011656522750854,-1.4677507877349854,77.82462310791016,-0.8802926539489494,-1.4390439228377312,89.45737765717757,6.6946135,8.64711,26.340471,6.8011646,-11.520327,-8.877378,4.639761,-3.845419,-8.958186,7.066617,-12.434874,5.1325603,1.0761386,2.3400328,7.18914,1.3807244,11.7633,-19.867554,63.188126,6.182347,-4.3892517,1.4847302,-1.0489258,-11.428289,21.681635,67.52162,-17.422354,-5.380914,-2.8813825
5,0.49323827028274536,-1.445237159729004,77.8260726928711,-0.9012904128740501,-1.3836621808988105,89.38244579588553,6.6722383,8.714078,26.413992,6.8021708,-11.522092,-8.905228,4.5746346,-3.7760234,-8.886728,7.066655,-12.42861,5.0774894,1.0557715,2.3611171,7.1849256,1.3946472,11.771204,-19.868238,63.149967,6.234975,-4.3887844,1.493832,-1.0544095,-11.438907,21.627928,67.48282,-17.39392,-5.3978624,-2.9120257
6,0.5281655788421631,-1.421826720237732,77.82746124267578,-0.9190819344632165,-1.324076686497924,89.30249656300343,6.6480927,8.778818,26.494198,6.8021636,-11.520072,-8.924188,4.504895,-3.7097073,-8.81235,7.066028,-12.419636,5.0324564,1.0313419,2.3821507,7.1745257,1.4131137,11.777919,-19.864567,63.118908,6.3361154,-4.3876686,1.5004699,-1.0631292,-11.449697,21.580692,67.45543,-17.330019,-5.417983,-2.960478
7,0.5651896595954895,-1.402224063873291,77.82801055908203,-0.9359076810650528,-1.2625236676434768,89.22076358337027,6.6227355,8.843824,26.574982,6.801292,-11.517209,-8.947223,4.4332366,-3.6429741,-8.738471,7.0651875,-12.411368,4.987141,0.99990284,2.4027255,7.162917,1.4310682,11.783102,-19.860573,63.096695,6.4436255,-4.385225,1.5069355,-1.0778322,-11.458418,21.542805,67.43603,-17.263311,-5.4356985,-3.0103407
8,0.6024099588394165,-1.3808045387268066,77.83030700683594,-0.9540747167892557,-1.2007666076398984,89.14104892028259,6.5957217,8.910928,26.649897,6.8003116,-11.51576,-8.987145,4.362361,-3.5735424,-8.669311,7.0645165,-12.407181,4.931812,0.970492,2.4245598,7.1634107,1.4406538,11.793503,-19.865122,63.074623,6.517754,-4.3818374,1.509566,-1.088818,-11.475577,21.49001,67.40034,-17.235462,-5.4492593,-3.0366325
9,0.6407639980316162,-1.3589043617248535,77.83192443847656,-0.9742219093592478,-1.138638637350133,89.06417124332198,6.56572,8.981376,26.715166,6.798559,-11.517395,-9.052713,4.29135,-3.4992824,-8.60604,7.0640025,-12.407757,4.8600664,0.9336356,2.4472413,7.1706824,1.4457936,11.807086,-19.878601,63.055325,6.540378,-4.3765235,1.5142577,-1.0990067,-11.49718,21.437458,67.35255,-17.261063,-5.4534025,-3.030469
10,0.6834942698478699,-1.3365960121154785,77.83255767822266,-0.9936296854145215,-1.0751484319966735,88.98826250289497,6.533294,9.052596,26.774921,6.795419,-11.519842,-9.135185,4.2188053,-3.4225392,-8.546934,7.0642576,-12.411708,4.7792306,0.88940513,2.469725,7.181963,1.4476885,11.823133,-19.897139,63.04092,6.53465,-4.369998,1.5192832,-1.1148837,-11.521219,21.38714,67.30463,-17.317976,-5.45261,-3.004432
11,0.7303125858306885,-1.3137681484222412,77.83296966552734,-1.0127600260961314,-1.0114837160707422,88.91252124850307,6.501082,9.124159,26.834862,6.7927303,-11.521654,-9.221559,4.1471577,-3.3452432,-8.488208,7.0642433,-12.417245,4.6967897,0.84368765,2.4898334,7.197617,1.445306,11.840875,-19.919212,63.033955,6.5195274,-4.3623652,1.5208998,-1.1313213,-11.545556,21.342524,67.255806,-17.373396,-5.448269,-2.98049
12,0.7797625064849854,-1.29636549949646,77.83319854736328,-1.0280919461965217,-0.948864672320232,88.83596391103092,6.4722652,9.194906,26.900991,6.7901464,-11.519832,-9.298876,4.0768285,-3.2701914,-8.425962,7.064221,-12.422218,4.6201406,0.80396676,2.5058854,7.2196274,1.4377111,11.86358,-19.948133,63.033516,6.5091147,-4.35421,1.5140578,-1.1393516,-11.572991,21.304873,67.19831,-17.394167,-5.4429035,-2.9787185
13,0.8319831490516663,-1.275427222251892,77.83463287353516,-1.0381318532436263,-0.8847935586234813,88.75819596250695,6.444657,9.262085,26.976767,6.788082,-11.512172,-9.361706,4.0049605,-3.2009206,-8.357863,7.06432,-12.425975,4.5504427,0.76734567,2.5138729,7.243142,1.4218408,11.885413,-19.976011,63.04981,6.509066,-4.343944,1.4928845,-1.1483855,-11.595324,21.283232,67.14588,-17.36342,-5.4335,-3.0155976
14,0.8910751938819885,-1.2485281229019165,77.83612060546875,-1.0430730532733112,-0.8195606787957643,88.67995449627499,6.4183044,9.327567,27.058298,6.7853684,-11.500587,-9.417552,3.9311216,-3.13464,-8.28668,7.066262,-12.43037,4.483982,0.728028,2.5169523,7.26583,1.395284,11.902201,-20.000042,63.089893,6.514014,-4.3328757,1.4631262,-1.1681181,-11.609533,21.276531,67.110794,-17.302925,-5.420315,-3.078612
15,0.9483504295349121,-1.218532919883728,77.83364868164062,-1.0444998779351458,-0.758130190370435,88.60099882587231,6.397844,9.391167,27.141632,6.782574,-11.488583,-9.472966,3.864114,-3.0702894,-8.213941,7.0660734,-12.435507,4.420395,0.70084906,2.5127857,7.303408,1.3743734,11.937797,-20.044304,63.11039,6.511238,-4.321077,1.4324448,-1.1616387,-11.635041,21.264832,67.04043,-17.231985,-5.408369,-3.1401267
16,1.0034070014953613,-1.1948643922805786,77.8311767578125,-1.046034624808425,-0.7054008804033222,88.52241033631203,6.388881,9.456994,27.221315,6.7796226,-11.480802,-9.534285,3.809166,-3.002849,-8.142683,7.067242,-12.4449005,4.3593307,0.66838706,2.5084589,7.3474126,1.3475938,11.969127,-20.09292,63.14775,6.5144467,-4.314895,1.4229747,-1.1636809,-11.653051,21.259216,66.9923,-17.176283,-5.4032044,-3.190259
17,1.0664699077606201,-1.167946696281433,77.82545471191406,-1.0454173826229098,-0.6651807442395883,88.4435876385402,6.394695,9.525053,27.297167,6.7767987,-11.476955,-9.602287,3.7669466,-2.933495,-8.0716505,7.0767517,-12.460972,4.3052707,0.63808763,2.5018656,7.4071836,1.3172021,12.005753,-20.165186,63.19185,6.5239153,-4.31535,1.442154,-1.1604593,-11.66956,21.249765,66.9451,-17.135658,-5.409483,-3.2249897
18,1.1385968923568726,-1.1399226188659668,77.81892395019531,-1.0365169446360072,-0.6333895211370169,88.36309601381144,6.4118276,9.586461,27.373512,6.7736235,-11.47566,-9.67352,3.716889,-2.8737893,-7.997141,7.127571,-12.500545,4.257647,0.60979414,2.4855344,7.4772134,1.278608,12.042306,-20.253872,63.251064,6.538517,-4.3207145,1.4814246,-1.1580627,-11.682525,21.242552,66.90602,-17.099043,-5.423162,-3.2541547
19,1.2127424478530884,-1.107514500617981,77.8128890991211,-1.0271760572071267,-0.6046646432231606,88.28314105057311,6.434182,9.649248,27.447443,6.770483,-11.477042,-9.749148,3.6472585,-2.815295,-7.923464,7.2343073,-12.575148,4.20632,0.58328545,2.4689553,7.549126,1.2404426,12.077947,-20.34097,63.311607,6.5489125,-4.3271694,1.52603,-1.1501167,-11.692084,21.23587,66.87213,-17.077003,-5.4363265,-3.273131
20,1.2830885648727417,-1.0704425573349,77.80680084228516,-1.018013726242048,-0.57227575498655,88.20413441489153,6.454971,9.7133875,27.518606,6.766343,-11.480211,-9.829997,3.4581509,-2.7706952,-7.847949,7.59719,-12.792651,4.1424375,0.56448394,2.4501638,7.6141443,1.2100539,12.121082,-20.4162,63.357487,6.54022,-4.3307385,1.5597063,-1.1308398,-11.700656,21.22454,66.84063,-17.078913,-5.4416637,-3.2764006
21,1.3607317209243774,-1.029567837715149,77.8001708984375,-1.0111068267107175,-0.5332230728271083,88.12552866383209,6.4700694,9.780208,27.58584,6.7634873,-11.488163,-9.920595,3.2743337,-2.7202618,-7.7796526,7.943909,-13.017133,4.058947,0.5472799,2.4285223,7.669726,1.1952602,12.17471,-20.465555,63.38254,6.5036693,-4.3295636,1.5799805,-1.1026611,-11.706477,21.214136,66.81314,-17.122528,-5.4331574,-3.2537787
22,1.4400336742401123,-0.9878166913986206,77.79226684570312,-1.0044665461383255,-0.49148757199789717,88.04713660409642,6.484132,9.849469,27.649786,6.7598753,-11.4989195,-10.019117,3.0923598,-2.6657863,-7.7162623,8.289857,-13.25139,3.9620948,0.52314967,2.413292,7.7135425,1.1764785,12.206788,-20.488277,63.42439,6.457457,-4.325824,1.601923,-1.0804718,-11.707441,21.215038,66.811935,-17.19759,-5.4147735,-3.2156427
23,1.5187475681304932,-0.9425215721130371,77.78347778320312,-0.9970030127220109,-0.4508750765983511,87.97042157444344,6.5016227,9.917923,27.712671,6.756818,-11.510541,-10.116615,2.9159458,-2.6109776,-7.653054,8.632479,-13.486835,3.8621075,0.5032166,2.3959203,7.756505,1.1631501,12.240479,-20.50099,63.455746,6.4124513,-4.3238993,1.6166668,-1.0505171,-11.706001,21.216736,66.81461,-17.269602,-5.397203,-3.1763344
24,1.6027711629867554,-0.8998708128929138,77.77432250976562,-0.9836200184687023,-0.4151218277450373,87.89669335214306,6.526881,9.98304,27.776108,6.7532315,-11.518781,-10.204371,2.746784,-2.5595188,-7.5853686,8.974388,-13.717493,3.769247,0.4870677,2.3644063,7.8087225,1.1721495,12.301972,-20.506899,63.44148,6.381968,-4.324497,1.6143103,-1.0130538,-11.696938,21.221064,66.81296,-17.304184,-5.3904395,-3.1529531
25,1.6921544075012207,-0.8516906499862671,77.76441955566406,-0.9616875962897508,-0.3848017053661948,87.82559969944336,6.5599732,10.0403385,27.841848,6.7517405,-11.523463,-10.269887,2.5811055,-2.5162954,-7.5079894,9.321705,-13.942334,3.6902037,0.47639558,2.3371015,7.8602896,1.1681387,12.333479,-20.502626,63.43761,6.390213,-4.332607,1.6004417,-0.97152126,-11.688753,21.229177,66.82529,-17.286037,-5.3994784,-3.1604412
26,1.782074213027954,-0.7988343238830566,77.75348663330078,-0.9342851558440397,-0.3579504813248677,87.75666417083119,6.5990405,10.092813,27.908417,6.7506175,-11.52541,-10.321372,2.4180014,-2.4782794,-7.4246697,9.674048,-14.165762,3.618126,0.46918097,2.3046284,7.914997,1.1723325,12.367259,-20.48865,63.412567,6.416073,-4.344453,1.5718633,-0.9249082,-11.677805,21.240717,66.843216,-17.235487,-5.4188643,-3.1846821
27,1.8762836456298828,-0.7426247000694275,77.74122619628906,-0.9064621597970779,-0.3350049817256513,87.69101656273608,6.645383,10.147429,27.973417,6.748522,-11.527879,-10.380245,2.2669888,-2.4369452,-7.3441367,10.017358,-14.386698,3.543278,0.45999235,2.2635605,7.9731493,1.1950073,12.419306,-20.461565,63.360928,6.4472322,-4.3561406,1.5404027,-0.8766909,-11.655355,21.258482,66.86631,-17.173573,-5.438251,-3.2107053
28,1.9692329168319702,-0.6859599947929382,77.7276840209961,-0.8858989362149692,-0.3166458502216374,87.62955887178421,6.698946,10.213012,28.033962,6.7461424,-11.534357,-10.468088,2.1399386,-2.383111,-7.2751193,10.332494,-14.601518,3.4560144,0.45263532,2.235602,8.027009,1.2126948,12.4547415,-20.43369,63.322754,6.4752736,-4.360686,1.5305994,-0.8193354,-11.635054,21.272419,66.89253,-17.125074,-5.4463615,-3.2237158
29,2.0696141719818115,-0.627469003200531,77.71493530273438,-0.8743112938731967,-0.30561834467440274,87.57111210295453,6.764937,10.292541,28.092073,6.7416286,-11.547596,-10.6007185,2.0392826,-2.313261,-7.2199655,10.621775,-14.813659,3.3501918,0.4409178,2.2143755,8.081239,1.2404873,12.49232,-20.397923,63.278324,6.4982514,-4.3534317,1.5483898,-0.7602212,-11.608212,21.289755,66.92657,-17.092632,-5.4370255,-3.2208583
30,2.1741878986358643,-0.5599890947341919,77.70368194580078,-0.8687823243877769,-0.3006161383508206,87.51578992605012,6.8408556,10.38187,28.14816,6.73646,-11.565279,-10.763358,1.9595093,-2.232265,-7.1740274,10.89098,-15.022429,3.232092,0.4259594,2.193484,8.135994,1.2802361,12.536862,-20.35229,63.22186,6.5214896,-4.3382354,1.5825112,-0.7013814,-11.568915,21.312008,66.97145,-17.064728,-5.4170713,-3.210577
31,2.2781620025634766,-0.4913923442363739,77.69180297851562,-0.8651680286125496,-0.2963313567799329,87.46633268348644,6.9189115,10.475615,28.197954,6.7311325,-11.582811,-10.931291,1.8964922,-2.1455724,-7.1353273,11.137015,-15.224031,3.1106713,0.41157594,2.1744246,8.185735,1.3224965,12.578494,-20.303339,63.16878,6.540407,-4.3244195,1.6198226,-0.63744485,-11.525606,21.331167,67.02233,-17.044514,-5.395613,-3.1945367
32,2.387709379196167,-0.4225815236568451,77.67900085449219,-0.8593601738045006,-0.287307250688707,87.42555491566682,6.9908366,10.569051,28.237026,6.727874,-11.596813,-11.079725,1.8437507,-2.0579407,-7.101958,11.36019,-15.415864,2.9948814,0.39802036,2.1553936,8.226646,1.3668507,12.616273,-20.251646,63.12289,6.551289,-4.3209453,1.6445289,-0.56475097,-11.480359,21.344126,67.07411,-17.033115,-5.3818808,-3.174167
33,2.501610279083252,-0.3503721058368683,77.66564178466797,-0.8507322450141297,-0.2725040721895828,87.39404805829055,7.0557303,10.661071,28.265215,6.7260404,-11.607255,-11.201457,1.7992493,-1.971833,-7.0737343,11.56404,-15.598909,2.8855426,0.3849858,2.1364884,8.257993,1.4140012,12.649694,-20.19858,63.077785,6.5508327,-4.3337975,1.6517653,-0.4826997,-11.435791,21.34755,67.12739,-17.034533,-5.381272,-3.1444929
34,2.6230309009552,-0.2723047733306885,77.6519546508789,-0.8402561967143677,-0.2547797617372493,87.37018491251142,7.1177354,10.753556,28.28473,6.7250447,-11.615924,-11.309938,1.7671402,-1.884397,-7.051522,11.745109,-15.772596,2.7783911,0.36850804,2.108382,8.2815275,1.4731611,12.693274,-20.138159,63.023716,6.5411105,-4.3562837,1.6478909,-0.40404296,-11.3733425,21.347532,67.1978,-17.049175,-5.3878784,-3.109707
35,2.741239547729492,-0.18807798624038696,77.63766479492188,-0.8309425823684259,-0.23432959742054846,87.35414334924258,7.1753917,10.848986,28.293764,6.7258263,-11.620824,-11.411332,1.749211,-1.7923425,-7.0350823,11.899273,-15.936343,2.6746972,0.35509214,2.082238,8.298307,1.5315666,12.733586,-20.07638,62.985405,6.52645,-4.3805346,1.6397545,-0.31552985,-11.309917,21.345638,67.264725,-17.065374,-5.3940153,-3.0759974
36,2.863176107406616,-0.1008572056889534,77.623291015625,-0.8234568895191128,-0.2114919516709332,87.34577746943908,7.228668,10.948585,28.291458,6.7264986,-11.618246,-11.511574,1.7472489,-1.6925136,-7.024242,12.021143,-16.088673,2.5757709,0.34337813,2.056563,8.308452,1.5867903,12.772716,-20.010979,62.978226,6.509618,-4.3979635,1.63204,-0.2210117,-11.242217,21.350643,67.32891,-17.074823,-5.391842,-3.0543947
37,2.9953811168670654,-0.016014747321605682,77.6070327758789,-0.8135849764361958,-0.1858663000333416,87.34656567888129,7.2761173,11.04751,28.275166,6.727954,-11.609281,-11.605341,1.7645339,-1.5898776,-7.0175915,12.102028,-16.2241,2.4915624,0.33247617,2.027202,8.309989,1.6396326,12.808618,-19.94473,63.002823,6.4935303,-4.4057026,1.6289979,-0.11568181,-11.1708975,21.367086,67.38484,-17.067457,-5.375733,-3.0546987
38,3.1346921920776367,0.07433124631643295,77.59058380126953,-0.8001583314561908,-0.1575216644857429,87.35575522936773,7.3194585,11.145308,28.24708,6.729491,-11.595053,-11.691006,1.800824,-1.4853885,-7.0153036,12.143529,-16.343016,2.4182494,0.32217672,1.9934098,8.303151,1.6918054,12.841876,-19.875965,63.052097,6.476543,-4.4085507,1.6271825,-0.0023931202,-11.095298,21.391079,67.437904,-17.05038,-5.3510222,-3.0696323
39,3.270500898361206,0.17288042604923248,77.5770492553711,-0.7905864013538296,-0.12731872754354795,87.3700245202098,7.359653,11.2516775,28.213003,6.7325907,-11.573727,-11.7804365,1.8523628,-1.3712474,-7.019299,12.156128,-16.453102,2.3366086,0.3166857,1.9651242,8.293199,1.7385938,12.871207,-19.800203,63.130997,6.4548445,-4.4094687,1.619773,0.1171348,-11.021395,21.41502,67.4867,-17.038671,-5.326306,-3.0802393
40,3.4080989360809326,0.27166375517845154,77.56527709960938,-0.7931669295384232,-0.09624091659564327,87.38604967929112,7.3999844,11.375383,28.179222,6.734831,-11.542115,-11.885601,1.9163595,-1.2388704,-7.0313654,12.14827,-16.560646,2.2272248,0.3167309,1.9459773,8.28359,1.7806693,12.902124,-19.707218,63.241245,6.426813,-4.4111733,1.5996734,0.23101135,-10.941789,21.433128,67.544655,-17.051125,-5.309823,-3.0711303
41,3.555743455886841,0.37027597427368164,77.55403900146484,-0.8085472814726831,-0.06671774978357026,87.40179956191463,7.444391,11.522026,28.149662,6.737346,-11.505662,-12.01439,1.9955239,-1.0849495,-7.0514045,12.122834,-16.66837,2.0730612,0.326092,1.9384164,8.277241,1.8175077,12.934817,-19.580927,63.381687,6.408918,-4.41017,1.5524968,0.3442292,-10.858379,21.434677,67.606316,-17.103827,-5.304522,-3.0253747
42,3.7103474140167236,0.469304621219635,77.54511260986328,-0.8324607606787662,-0.03757793169790702,87.41902377071644,7.4900975,11.684942,28.121523,6.739603,-11.462238,-12.158625,2.092736,-0.916107,-7.078552,12.069631,-16.769592,1.8889848,0.34326005,1.9379741,8.272363,1.8489532,12.967461,-19.43027,63.553425,6.396881,-4.4088216,1.4859719,0.46136916,-10.774094,21.425972,67.66541,-17.183033,-5.305849,-2.9549112
43,3.869466543197632,0.5673556923866272,77.536376953125,-0.8585274144885693,-0.004134086239618431,87.44019821676248,7.5310364,11.853079,28.090485,6.7410226,-11.403245,-12.303984,2.20379,-0.73851246,-7.110323,11.980987,-16.85873,1.7010925,0.36449242,1.9407461,8.265646,1.8762866,13.000361,-19.288763,63.75273,6.3549933,-4.4108443,1.425645,0.57388383,-10.690108,21.424389,67.73073,-17.260044,-5.312646,-2.886938
44,4.020029067993164,0.6733829379081726,77.51679229736328,-0.897779097779504,0.03601253222149351,87.47005776613022,7.5165195,12.058406,28.039707,6.846929,-11.373764,-12.437566,2.2932668,-0.54941225,-7.1482363,11.923294,-16.969643,1.5377934,0.38481,1.9587814,8.25671,1.900505,13.03376,-19.189491,63.97703,6.2489133,-4.421509,1.3968935,0.67826,-10.607463,21.447773,67.79996,-17.304708,-5.319252,-2.8464677
45,4.171189308166504,0.7782724499702454,77.49153137207031,-0.9398414968477478,0.08773888622873283,87.50892680402677,7.428409,12.301743,27.966661,7.0958457,-11.413828,-12.566759,2.3572412,-0.36209214,-7.189946,11.892843,-17.098925,1.409177,0.4033165,1.9806967,8.240213,1.9185264,13.0689335,-19.151913,64.23392,6.053552,-4.446452,1.4113406,0.7742032,-10.525968,21.502861,67.87759,-17.312922,-5.32628,-2.84539
46,4.32913064956665,0.8790877461433411,77.46075439453125,-0.9934727765117931,0.15216711043477132,87.55729717381884,7.334232,12.561776,27.885008,7.3214397,-11.434765,-12.693581,2.4228034,-0.15676528,-7.2404423,11.831717,-17.21699,1.2964478,0.420721,2.0180438,8.213975,1.93247,13.105286,-19.155941,64.52058,5.7924275,-4.4816327,1.4534498,0.8649155,-10.446055,21.579803,67.961174,-17.297995,-5.335401,-2.867808
47,4.492491722106934,0.9861963987350464,77.42523193359375,-1.0624570547658811,0.22081155692214713,87.6139742161344,6.6705575,13.129858,27.663456,8.846447,-12.086158,-12.798373,2.494494,0.06687431,-7.2997704,11.750912,-17.33241,1.1913614,0.44113624,2.0765953,8.190273,1.944229,13.136078,-19.176962,64.82358,5.503653,-4.517925,1.5088166,0.9567179,-10.379788,21.664085,68.03454,-17.261684,-5.3470626,-2.8969455
48,4.651370048522949,1.0925482511520386,77.3814926147461,-1.1508525815026085,0.28546100320430556,87.6780762186695,5.8839917,13.768305,27.392687,10.627557,-12.777174,-12.852278,2.577236,0.3145772,-7.368523,11.660561,-17.453886,1.0839603,0.46393785,2.1516626,8.17711,1.9637222,13.168063,-19.185452,65.12487,5.2244825,-4.545206,1.5625839,1.0360506,-10.310158,21.747377,68.11098,-17.207205,-5.3613667,-2.922818
49,4.813257217407227,1.193881869316101,77.33253479003906,-1.2718446162001729,0.34886211348208424,87.75098911186367,4.9965563,14.478064,27.06813,12.597786,-13.482477,-12.853176,2.675874,0.60264355,-7.4504366,11.543897,-17.57627,0.9699565,0.48986477,2.2624042,8.172753,1.9824936,13.193019,-19.185236,65.43601,4.940781,-4.562644,1.6123726,1.1169631,-10.255279,21.82114,68.16749,-17.116163,-5.3830166,-2.944327
50,4.968742847442627,1.2928303480148315,77.2752914428711,-1.422999921223175,0.4146514605027353,87.83292474093668,4.0192027,15.253897,26.690485,14.7228985,-14.201662,-12.808179,2.7905192,0.93047214,-7.544316,11.391117,-17.69162,0.85399824,0.51796514,2.4100378,8.173103,2.0002818,13.210493,-19.186327,65.76019,4.641931,-4.575005,1.6654695,1.2012132,-10.2143345,21.891947,68.20585,-16.993675,-5.41029,-2.966152
51,5.134222507476807,1.3951842784881592,77.21186065673828,-1.5911391851493972,0.4758250332776867,87.92047057256362,2.9742208,16.063728,26.271439,16.966644,-14.883968,-12.704915,2.9174411,1.2771306,-7.6432366,11.226211,-17.806349,0.73971236,0.5492603,2.5737526,8.18482,2.0280116,13.225758,-19.178553,66.07563,4.3664417,-4.581212,1.7232878,1.2677997,-10.175763,21.972092,68.25785,-16.873352,-5.4344845,-2.982377
52,5.28827428817749,1.503545880317688,77.14993286132812,-1.7594190429684136,0.5251738685456968,88.01018517911406,1.8876164,16.87466,25.825613,19.289106,-15.480025,-12.531165,3.0544844,1.6213175,-7.7406044,11.071453,-17.925945,0.63085604,0.59226614,2.742915,8.218855,2.0685604,13.235027,-19.1583,66.36284,4.153503,-4.580534,1.786742,1.3171964,-10.148306,22.06219,68.32563,-16.790024,-5.4471045,-2.9802911
53,5.442136764526367,1.6039198637008667,77.0807113647461,-1.9330632510630827,0.5588687587373676,88.10123225306958,0.7533635,17.695219,25.344755,21.71718,-15.995547,-12.290682,3.2044063,1.9651669,-7.837092,10.9296255,-18.055618,0.529873,0.64786667,2.9208057,8.278817,2.1219916,13.238529,-19.118055,66.61776,4.0306726,-4.5663705,1.8557138,1.349828,-10.131631,22.158302,68.408295,-16.762348,-5.4461193,-2.9519496
54,5.590840816497803,1.7120708227157593,77.01160430908203,-2.1135491487347617,0.5807286934500197,88.19490891281062,-0.43256214,18.53343,24.824226,24.244276,-16.447298,-11.980394,3.3667037,2.3155162,-7.934152,10.792377,-18.192318,0.43451095,0.70293325,3.1098742,8.359077,2.1957011,13.236582,-19.050253,66.84413,3.9749064,-4.540929,1.9297968,1.3574973,-10.122396,22.272781,68.51258,-16.76519,-5.4365206,-2.905771
55,5.738393783569336,1.8204536437988281,76.94002532958984,-2.2897350008386734,0.5946622678368894,88.29006187839535,-1.6553077,19.36329,24.282593,26.820242,-16.813604,-11.578872,3.5305774,2.6573837,-8.026197,10.671752,-18.33249,0.3412503,0.78277856,3.2968545,8.457868,2.270384,13.231028,-18.994965,67.05673,3.9364426,-4.517454,2.0091074,1.3545284,-10.122738,22.386276,68.62748,-16.781126,-5.418989,-2.8531594
56,5.881970405578613,1.9292274713516235,76.87184143066406,-2.4500603938389283,0.6047961395860292,88.3860439490822,-2.900422,20.161528,23.743176,29.401669,-17.078152,-11.069691,3.6911983,2.9769247,-8.109195,10.566464,-18.464727,0.24741988,0.8350574,3.4682295,8.570572,2.3811245,13.212393,-18.904732,67.242355,3.8856256,-4.5100822,2.0941994,1.3063979,-10.134762,22.584505,68.783264,-16.75851,-5.391299,-2.812095
57,6.016578674316406,2.048049211502075,76.80607604980469,-2.591990018778756,0.6107498768128694,88.48255580926251,-4.169529,20.929714,23.198298,31.998772,-17.218191,-10.50617,3.843404,3.2751596,-8.175797,10.482876,-18.583326,0.14948492,0.92100847,3.624391,8.701016,2.4853635,13.190514,-18.857607,67.421646,3.7923782,-4.5277653,2.197839,1.2413039,-10.1550255,22.782953,68.953835,-16.735495,-5.3435774,-2.7686234
58,6.148969650268555,2.1650428771972656,76.74177551269531,-2.7225093757103114,0.6105207795874708,88.57991945372474,-5.467866,21.67887,22.645237,34.632114,-17.253063,-9.876808,3.9876304,3.5566835,-8.230754,10.427015,-18.698957,0.05001203,1.011885,3.7721682,8.849866,2.6014898,13.159668,-18.813921,67.58441,3.6868718,-4.562078,2.3161247,1.1488314,-10.188072,23.016748,69.14531,-16.706257,-5.278425,-2.7212205
59,6.28126335144043,2.273318290710449,76.68019104003906,-2.836473521528387,0.6057042377010675,88.67831404890023,-6.7868786,22.398638,22.112831,37.276375,-17.221321,-9.066215,4.1382694,3.8152876,-8.286501,10.376882,-18.815832,-0.046150677,1.1213043,3.9050717,9.008462,2.728679,13.124171,-18.777037,67.73467,3.5804884,-4.598257,2.4232538,1.0430694,-10.228316,23.271338,69.36274,-16.648037,-5.2231655,-2.6931925
60,6.409295558929443,2.3885886669158936,76.62262725830078,-2.932601599033818,0.5982475935252333,88.77833151771613,-8.116444,23.080732,21.631914,39.9043,-17.162966,-7.95818,4.3110075,4.046117,-8.355319,10.304729,-18.934284,-0.13425437,1.2232206,4.029148,9.169383,2.8847263,13.065172,-18.706358,67.86683,3.4961362,-4.6183076,2.4961028,0.9297685,-10.293949,23.584858,69.607834,-16.519499,-5.2027774,-2.706291
61,6.528353691101074,2.512406587600708,76.57180786132812,-3.012099707856256,0.5845268355556812,88.88512726985292,-9.48611,23.752806,21.212025,42.605225,-17.05969,-6.3586345,4.5133343,4.2501717,-8.450249,10.207523,-19.0629,-0.21171467,1.3491188,4.137581,9.33411,3.055394,13.000724,-18.629831,67.98019,3.4237466,-4.6109767,2.524942,0.82076705,-10.362565,23.936771,69.902466,-16.302822,-5.248433,-2.8251595
62,6.647388458251953,2.6472949981689453,76.52745819091797,-3.077216190560837,0.5648149874008146,88.99641301292084,-10.881389,24.420053,20.853504,45.352814,-16.905636,-4.3743224,4.7390265,4.4312663,-8.560991,10.091074,-19.19447,-0.2816842,1.4781789,4.2361627,9.506378,3.2484136,12.921149,-18.528717,68.07328,3.3652596,-4.5878606,2.5244153,0.70197535,-10.443336,24.346498,70.24019,-16.013128,-5.3381705,-3.0181353
63,6.757648468017578,2.7931466102600098,76.48869323730469,-3.1207538113300126,0.5465402495951603,89.1012346254029,-12.23214,25.034035,20.566898,47.961727,-16.761602,-2.3490124,4.977524,4.585606,-8.665783,9.956986,-19.315561,-0.34785208,1.6235614,4.314068,9.674856,3.4580264,12.8351555,-18.43536,68.16317,3.315698,-4.565412,2.5029042,0.56781995,-10.530157,24.758747,70.591194,-15.710221,-5.422661,-3.167802
64,6.86945915222168,2.9557714462280273,76.45384979248047,-3.1378533098765047,0.5371944251962345,89.18948222323348,-13.474515,25.535961,20.349588,50.26203,-16.682505,-0.6417227,5.214886,4.7067246,-8.7438,9.813909,-19.415794,-0.41367793,1.7881248,4.362045,9.829357,3.6843276,12.746135,-18.36869,68.26326,3.2751744,-4.5602446,2.4687471,0.41203722,-10.623764,25.12884,70.922134,-15.451041,-5.4505706,-3.1563668
65,6.97799825668335,3.134352684020996,76.4244384765625,-3.1271015528402644,0.5287119666051187,89.26028412652475,-14.576183,25.9463,20.245104,52.272877,-16.700714,0.6646448,5.454927,4.794155,-8.789233,9.674202,-19.498047,-0.48725072,1.974344,4.378663,9.977313,3.9294384,12.656779,-18.344582,68.37858,3.2411573,-4.586027,2.4158576,0.23107767,-10.725204,25.432716,71.22906,-15.236987,-5.3956504,-2.9006405
66,7.075860977172852,3.3069820404052734,76.40287017822266,-3.090476453956668,0.5204647916342292,89.31919257080447,-15.579799,26.279753,20.233992,54.085155,-16.780636,1.7437407,5.6988864,4.848366,-8.814783,9.537734,-19.569777,-0.5640695,2.1816337,4.3673153,10.121639,4.1928315,12.567388,-18.351934,68.49957,3.2130885,-4.6305676,2.341838,0.03214791,-10.834285,25.69543,71.5238,-15.04366,-5.288015,-2.4804442
67,7.159434795379639,3.4842963218688965,76.39258575439453,-3.0242756987864428,0.5313374428439197,89.366526308959,-16.539753,26.45718,20.215498,55.640564,-16.863752,2.6075509,5.9285893,4.8640237,-8.828421,9.395082,-19.62962,-0.6287244,2.408732,4.3238935,10.24473,4.470244,12.47732,-18.370588,68.61845,3.1940143,-4.672285,2.2609549,-0.18009222,-10.950423,25.949148,71.80365,-14.885755,-5.1616945,-2.0235882
68,7.250349044799805,3.684739828109741,76.38984680175781,-2.9259905334221026,0.5804406010024842,89.40262345045056,-17.512077,26.395294,20.092916,56.877,-16.885874,3.263798,6.126127,4.836144,-8.838142,9.235175,-19.674498,-0.66594285,2.6534004,4.2438245,10.328693,4.7569532,12.385749,-18.380346,68.7283,3.1864915,-4.6895394,2.1876714,-0.4017959,-11.073545,26.225681,72.066925,-14.778216,-5.051427,-1.6577237
69,7.326237201690674,3.8812127113342285,76.39237213134766,-2.7897889448437976,0.6791162584864261,89.42195107552519,-18.535454,26.011333,19.778307,57.77432,-16.825447,3.6557732,6.2742352,4.7559614,-8.84012,9.0654335,-19.704601,-0.66889775,2.9186678,4.121497,10.3574295,5.061502,12.290327,-18.379993,68.82152,3.1938612,-4.6716185,2.1214302,-0.6345807,-11.203551,26.561733,72.327965,-14.731394,-4.971056,-1.4180526
70,7.4060492515563965,4.0942063331604,76.4030532836914,-2.6192991102773093,0.8151086836305426,89.42703281939178,-19.574173,25.362055,19.349737,58.368267,-16.708958,3.7833936,6.3848825,4.6281214,-8.832868,8.893226,-19.72384,-0.64705783,3.2007396,3.9608445,10.344663,5.3836465,12.190613,-18.376337,68.90494,3.2142751,-4.6318073,2.0564258,-0.8821582,-11.340496,26.934767,72.58533,-14.734243,-4.9011135,-1.236204
71,7.477715492248535,4.312227249145508,76.4206314086914,-2.4260663369075437,0.972141859795119,89.43030028672749,-20.574522,24.57818,18.957466,58.680206,-16.54647,3.744744,6.4881387,4.468723,-8.827533,8.69929,-19.73151,-0.60969996,3.4903076,3.772554,10.318045,5.7069917,12.088652,-18.361616,68.9903,3.2452972,-4.584693,1.9981805,-1.1387289,-11.4828,27.285156,72.80839,-14.768031,-4.82732,-1.0836583
72,7.548872470855713,4.541917324066162,76.4448013305664,-2.22037491541782,1.1341252794611483,89.44417545688337,-21.482347,23.794598,18.748413,58.724903,-16.349121,3.6454473,6.6100245,4.2935104,-8.835609,8.471095,-19.729868,-0.5659526,3.7791011,3.5657642,10.304375,6.0154977,11.9881525,-18.32866,69.08888,3.283987,-4.5445085,1.9520966,-1.4015235,-11.629913,27.553724,72.971115,-14.813472,-4.7351637,-0.9325928
73,7.611527919769287,4.773615837097168,76.47199249267578,-1.9954571521752136,1.299802459777462,89.47109208243806,-22.278982,23.016777,18.758753,58.47348,-16.10163,3.4687598,6.7641306,4.0918574,-8.864778,8.186683,-19.715765,-0.49887133,4.0693736,3.3290832,10.309332,6.302832,11.8926115,-18.283245,69.20799,3.3318646,-4.5132318,1.923715,-1.6712037,-11.779923,27.72777,73.07022,-14.859153,-4.6063943,-0.7787456
74,7.67144775390625,5.019421577453613,76.50082397460938,-1.7484327893199043,1.476471719830425,89.50455810473298,-22.996506,22.191998,18.904118,57.92248,-15.807528,3.1790748,6.9360747,3.8612475,-8.906993,7.856032,-19.687683,-0.41047022,4.366743,3.0613647,10.319848,6.5793643,11.80252,-18.228874,69.33818,3.3887148,-4.483632,1.9080389,-1.9482313,-11.932329,27.834919,73.11907,-14.9189205,-4.4538174,-0.63597643
75,7.734485626220703,5.267188549041748,76.52674865722656,-1.5011446599216145,1.6606741175376953,89.54346378985687,-23.656185,21.364426,19.148706,57.127438,-15.499457,2.8550813,7.0377164,3.617543,-8.9549,7.6718583,-19.73411,-0.33743387,4.6667757,2.7886357,10.334257,6.8533134,11.716867,-18.155544,69.46507,3.4472723,-4.456236,1.894974,-2.2285526,-12.090003,27.877325,73.11375,-15.01137,-4.309007,-0.50313056
76,7.793766021728516,5.514811038970947,76.55071258544922,-1.2755958078664194,1.8490770228632403,89.58652118211664,-24.279411,20.575356,19.458158,56.14967,-15.206336,2.573647,7.063145,3.389988,-8.995087,7.6491933,-19.849607,-0.3170374,4.9657617,2.5378568,10.351109,7.1322446,11.633353,-18.053225,69.57484,3.5010574,-4.431691,1.8744811,-2.5058672,-12.257427,27.857796,73.04655,-15.153006,-4.20386,-0.37825346
77,7.849562168121338,5.77044677734375,76.57120513916016,-1.0752119819893156,2.0444796790720123,89.63788057191205,-24.865656,19.83227,19.846231,54.977016,-14.940911,2.3628945,7.0842366,3.2023127,-9.015703,7.623848,-19.931383,-0.38598347,5.2614427,2.3166327,10.366073,7.4192414,11.549801,-17.908623,69.665405,3.5538318,-4.4130354,1.8349437,-2.7714112,-12.437582,27.760153,72.90249,-15.3952,-4.1485324,-0.25258738
78,7.903182506561279,6.039294242858887,76.57988739013672,-0.890965143562046,2.247050007708903,89.69664717649665,-25.401419,19.109407,20.323072,53.580288,-14.681294,2.1782417,7.1001244,3.0379329,-9.025099,7.6001263,-19.992441,-0.5158126,5.5559874,2.113007,10.381379,7.7087054,11.465813,-17.731152,69.74486,3.60658,-4.3990817,1.7849523,-3.029447,-12.631456,27.588848,72.68637,-15.712818,-4.1256247,-0.128957
79,7.949878215789795,6.3161211013793945,76.58381652832031,-0.7196484300306053,2.450022024729065,89.75405265553523,-25.88404,18.394577,20.853584,51.99127,-14.406704,1.9874953,7.121622,2.8864026,-9.033071,7.57656,-20.05896,-0.64693403,5.8521905,1.9235713,10.405134,7.99593,11.3813,-17.542622,69.81225,3.651544,-4.384295,1.7446098,-3.2917778,-12.840184,27.37594,72.41885,-16.009193,-4.1253395,-0.023608414
80,7.995237350463867,6.6011271476745605,76.5842514038086,-0.5566896055585945,2.6466523879579595,89.80096221914671,-26.310167,17.676817,21.402584,50.239113,-14.095609,1.7596322,7.1563125,2.736825,-9.049245,7.557132,-20.160782,-0.7195168,6.152017,1.7438856,10.445068,8.276782,11.296733,-17.364197,69.86727,3.6801317,-4.363051,1.7340903,-3.5712976,-13.06613,27.151142,72.12281,-16.191948,-4.1372766,0.04708779
81,8.038494110107422,6.885238170623779,76.57512664794922,-0.39935445027810146,2.836148155115053,89.837772187542,-26.671272,16.95591,21.98829,48.301697,-13.744243,1.4877437,7.2075663,2.5842955,-9.081547,7.5390234,-20.309746,-0.70836776,6.4589157,1.5709271,10.505025,8.548116,11.211671,-17.199781,69.90922,3.6925619,-4.3299365,1.7677441,-3.8618815,-13.311054,26.905281,71.77988,-16.217737,-4.161206,0.081225514
82,8.076787948608398,7.176767349243164,76.55721282958984,-0.2507279984631755,3.0214690872803973,89.86720668484047,-26.964895,16.227547,22.622244,46.157967,-13.355244,1.1848983,7.2690983,2.4350307,-9.122623,7.5226502,-20.488705,-0.64786,6.7719555,1.4077977,10.580356,8.812436,11.125853,-17.039425,69.93896,3.691794,-4.2892947,1.8318287,-4.15882,-13.57596,26.627388,71.384735,-16.14289,-4.201363,0.08716308
83,8.110811233520508,7.475785732269287,76.53449249267578,-0.1145175372253644,3.2019868751038274,89.88358608330904,-27.201094,15.480963,23.255585,43.844673,-12.920497,0.8527786,7.3407855,2.2968209,-9.158653,7.5092587,-20.683363,-0.5675235,7.0871196,1.2606937,10.667289,9.074738,11.040006,-16.882414,69.95619,3.6752093,-4.249989,1.903901,-4.4739056,-13.859353,26.349823,70.97399,-16.018316,-4.253768,0.06508552
84,8.137580871582031,7.780819416046143,76.50032043457031,0.003959718422711048,3.3765101541321454,89.88118749799234,-27.390059,14.710715,23.838068,41.399914,-12.433855,0.49583757,7.424024,2.1776068,-9.175357,7.496473,-20.876562,-0.49729937,7.398906,1.1355823,10.762,9.340954,10.954965,-16.726583,69.96001,3.6404727,-4.2210083,1.9612396,-4.8203597,-14.157258,26.10565,70.58646,-15.895906,-4.3146024,0.0146464575
85,8.16451644897461,8.108771324157715,76.46236419677734,0.10212250339974163,3.5462891503252947,89.85157222798958,-27.530363,13.914414,24.35273,38.79433,-11.8807535,0.10820509,7.5156546,2.082688,-9.162929,7.480607,-21.063126,-0.44367683,7.711224,1.0344172,10.8651285,9.613243,10.871775,-16.56331,69.9465,3.5745704,-4.207035,1.9989007,-5.214664,-14.468747,25.906122,70.23493,-15.760009,-4.3837404,-0.05516324
86,8.188924789428711,8.433476448059082,76.41705322265625,0.1799462945891937,3.7099509960036157,89.7970665878094,-27.606638,13.095956,24.826353,35.999214,-11.259212,-0.30808082,7.612221,2.0079432,-9.128527,7.47586,-21.260675,-0.3915429,8.025979,0.9550221,10.978798,9.890128,10.790016,-16.394594,69.91663,3.4830413,-4.2026896,2.0283577,-5.6479607,-14.793069,25.736053,69.90115,-15.592387,-4.4632907,-0.14739606
87,8.206835746765137,8.72162914276123,76.36471557617188,0.23698985539930437,3.861219736317263,89.72856769636738,-27.608257,12.2648535,25.272053,33.054516,-10.583624,-0.73523045,7.7346025,1.954813,-9.082933,7.46246,-21.455648,-0.33965528,8.335181,0.89900565,11.100496,10.171604,10.708815,-16.234385,69.8774,3.391968,-4.2011614,2.0522196,-6.0987787,-15.125805,25.590708,69.58226,-15.438986,-4.5522885,-0.28148246
88,8.232234954833984,9.094649314880371,76.3018569946289,0.2733485432595242,3.9941201986064927,89.65594249721953,-27.525843,11.430536,25.704508,30.00154,-9.868691,-1.155915,7.886499,1.9205035,-9.036426,7.45812,-21.660044,-0.28654224,8.631373,0.8673894,11.22772,10.456117,10.627276,-16.098166,69.83761,3.3255775,-4.195711,2.07337,-6.545852,-15.459131,25.4642,69.27619,-15.346869,-4.6497426,-0.47746727
89,8.244124412536621,9.473254203796387,76.23174285888672,0.28539366371431196,4.097963204160147,89.58499270018105,-27.330751,10.587618,26.139511,26.795624,-9.106201,-1.570688,8.088311,1.9097475,-8.994753,7.448151,-21.868065,-0.22696474,8.910251,0.8653518,11.367724,10.744853,10.546477,-16.000814,69.80118,3.2847435,-4.185854,2.0981083,-6.997112,-15.790435,25.384787,69.00404,-15.341969,-4.767127,-0.7790606
90,8.251602172851562,9.850349426269531,76.15038299560547,0.26392427726346496,4.1730156773226,89.49890294433575,-27.01757,9.744365,26.565018,23.40305,-8.277872,-1.9874148,8.3344145,1.9345347,-8.941178,7.4369283,-22.081305,-0.1660362,9.1858015,0.9011456,11.521551,11.039717,10.466854,-15.9303465,69.76315,3.2580724,-4.1746583,2.123506,-7.462048,-16.119356,25.345785,68.76467,-15.397002,-4.900736,-1.1636955
91,8.258681297302246,10.233969688415527,76.05940246582031,0.19508620981191496,4.22793666938619,89.37249372079144,-26.61473,8.936096,26.954119,19.889462,-7.3858194,-2.4013112,8.610611,2.0099847,-8.85003,7.4249516,-22.29445,-0.11875064,9.479872,0.9823168,11.676444,11.341417,10.386801,-15.860402,69.718376,3.2539132,-4.1605015,2.1390455,-7.927431,-16.442436,25.29497,68.52867,-15.472042,-5.025044,-1.552748
92,8.264944076538086,10.626380920410156,75.95491027832031,0.06836274368425563,4.271685356920305,89.18118336980648,-26.15325,8.199704,27.282812,16.330427,-6.4408436,-2.8076613,8.902415,2.1488912,-8.695719,7.412879,-22.50202,-0.10001212,9.814211,1.1140205,11.819042,11.649913,10.304425,-15.766106,69.66294,3.2795126,-4.141695,2.1345482,-8.384827,-16.756117,25.178844,68.27853,-15.527355,-5.119652,-1.8691369
93,8.25968074798584,11.042366027832031,75.83690643310547,-0.1315152583680177,4.300847310683518,88.90984498286802,-25.60792,7.5449815,27.577475,12.66524,-5.424814,-3.2134023,9.211559,2.3684359,-8.460515,7.400233,-22.706186,-0.11908662,10.202925,1.3098391,11.945562,11.972396,10.218066,-15.633636,69.58863,3.3517215,-4.1153464,2.1004784,-8.833126,-17.059942,24.965893,68.00743,-15.548475,-5.1699753,-2.0832257
94,8.254417419433594,11.472397804260254,75.71031951904297,-0.4041843792319033,4.306719026137661,88.56496560734689,-24.897026,6.9309835,27.85548,8.713824,-4.2514777,-3.6179783,9.550272,2.666024,-8.150134,7.3859725,-22.907957,-0.1684914,10.641262,1.5719432,12.063329,12.307762,10.128459,-15.480129,69.50012,3.4611354,-4.0832367,2.0449698,-9.27874,-17.355362,24.691051,67.73153,-15.556595,-5.1910343,-2.2394774
95,8.24876880645752,11.913617134094238,75.57535552978516,-0.7155926146066272,4.300394801815309,88.17242688409897,-25.175692,6.9448776,27.928259,7.2368264,-4.3259506,-4.0225444,9.905955,2.9998965,-7.792943,7.3747454,-23.100649,-0.23273684,11.105178,1.8665079,12.170671,12.642747,10.037208,-15.324051,69.413055,3.5779736,-4.050604,1.98376,-9.718663,-17.639505,24.394474,67.45365,-15.571307,-5.2009706,-2.370308
96,8.23543643951416,12.369382858276367,75.43743896484375,-1.0207032617628626,4.299107948631634,87.76850781448124,-25.962988,7.2623367,27.814346,7.0839105,-5.000576,-4.3958497,10.264603,3.3169105,-7.4288063,7.3652854,-23.276667,-0.2938976,11.560561,2.147759,12.26439,12.961355,9.94715,-15.183802,69.34457,3.6723287,-4.022512,1.932903,-10.151212,-17.90525,24.11879,67.17759,-15.608402,-5.218088,-2.5093212
97,8.220067977905273,12.842830657958984,75.30061340332031,-1.305514120657279,4.324211258027659,87.36424903333793,-26.748363,7.5574517,27.565731,6.9543176,-5.5898633,-4.727992,10.6023445,3.5978608,-7.067636,7.357797,-23.438343,-0.34594283,11.992599,2.3950062,12.326736,13.264287,9.858765,-15.067637,69.30119,3.7304604,-4.002788,1.9031414,-10.585142,-18.146742,23.876892,66.914116,-15.670639,-5.2457285,-2.6703596
98,8.199618339538574,13.32196044921875,75.16159057617188,-1.5663047003820665,4.374380628890465,86.96347566236355,-27.532948,7.819358,27.205616,6.8441105,-6.1106443,-5.023764,10.921471,3.8427,-6.713337,7.3525333,-23.590034,-0.39297768,12.385834,2.5747178,12.3478565,13.582433,9.803134,-14.947773,69.258835,3.7652795,-3.98631,1.8815689,-11.081562,-18.283619,23.663578,66.74818,-15.758109,-5.2746987,-2.8537207
99,8.184386253356934,13.813667297363281,75.02906036376953,-1.7894032261781578,4.429967035187012,86.58778831459031,-28.256805,8.010541,26.745132,6.726839,-6.548885,-5.2680173,11.246558,4.034434,-6.393925,7.3504663,-23.72559,-0.4329824,12.739126,2.7102628,12.3717985,13.872957,9.74776,-14.824617,69.22992,3.801483,-3.9691145,1.8534104,-11.561649,-18.409693,23.444134,66.565636,-15.863274,-5.3040957,-3.0252366
100,8.1694917678833,14.3250732421875,74.90293884277344,-1.9788821699188865,4.476838084227276,86.24929175053643,-28.889605,8.138086,26.186605,6.6286364,-6.9127855,-5.4483547,11.596405,4.182497,-6.127069,7.3487997,-23.835773,-0.46934748,13.045816,2.8059506,12.4110775,14.134228,9.700208,-14.685675,69.206276,3.8528092,-3.9452963,1.8022996,-12.024615,-18.512875,23.213634,66.37283,-15.986241,-5.332237,-3.1764393
101,8.143343925476074,14.846160888671875,74.7779312133789,-2.133647402304018,4.4915684445685615,85.95443325252965,-29.421844,8.203048,25.495125,6.577872,-7.22274,-5.5635757,11.998241,4.289485,-5.9270062,7.350779,-23.935059,-0.5066343,13.313522,2.8839054,12.508245,14.333632,9.635997,-14.50902,69.19953,3.944876,-3.915321,1.713578,-12.419118,-18.651638,22.923607,66.088066,-16.138527,-5.3613443,-3.2801032
102,8.125813484191895,15.37779712677002,74.66060638427734,-2.2644864791413286,4.5027898672097315,85.69079300618579,-29.880625,8.213268,24.678843,6.542045,-7.461505,-5.621077,12.419554,4.3646307,-5.7771506,7.3527794,-24.019281,-0.54442,13.533051,2.9225013,12.608045,14.529335,9.5918045,-14.313383,69.178246,4.038739,-3.8791587,1.594996,-12.826365,-18.743801,22.632872,65.83486,-16.30501,-5.393195,-3.3696718
103,8.11418342590332,15.909478187561035,74.55192565917969,-2.3698109802412897,4.507166869620227,85.455847204332,-30.2443,8.182659,23.80252,6.5305057,-7.6219144,-5.623669,12.859224,4.406451,-5.6613703,7.3576345,-24.067587,-0.57286197,13.709385,2.9282036,12.718313,14.699718,9.561083,-14.124566,69.16726,4.137202,-3.837986,1.4776106,-13.224059,-18.805786,22.351562,65.58047,-16.48517,-5.421532,-3.4512947
104,8.096101760864258,16.4706974029541,74.45318603515625,-2.454213730429508,4.508516682186191,85.24528029634705,-30.496899,8.126752,22.930979,6.540781,-7.6925855,-5.5753374,13.310556,4.4163966,-5.561777,7.3626347,-24.05539,-0.582808,13.848215,2.9086213,12.832901,14.827957,9.540546,-13.978505,69.19189,4.23274,-3.7931466,1.3926405,-13.589353,-18.84639,22.10211,65.29782,-16.66887,-5.438332,-3.5351486
105,8.07565689086914,17.041305541992188,74.36162567138672,-2.5230637672606586,4.492525788985185,85.05511988198307,-30.626156,8.049249,21.983538,6.5845423,-7.689144,-5.492766,13.788025,4.4040074,-5.4717093,7.3720593,-23.99596,-0.5815693,13.962256,2.869998,12.975428,14.887532,9.529038,-13.886993,69.27315,4.3324747,-3.7455146,1.3549471,-13.90384,-18.872894,21.862848,64.9478,-16.867218,-5.43478,-3.6151059
106,8.051880836486816,17.613792419433594,74.27877807617188,-2.5678027773918726,4.464042742546487,84.89077404669942,-30.63009,7.9316397,20.962093,6.6250124,-7.589298,-5.375063,14.288933,4.3618217,-5.404445,7.3836613,-23.894499,-0.57019883,14.026767,2.8090022,13.128853,14.927036,9.530265,-13.839197,69.37007,4.4183974,-3.6917956,1.3432031,-14.213544,-18.875393,21.675419,64.595695,-17.054462,-5.4198084,-3.6942997
107,8.025674819946289,18.2067928314209,74.206298828125,-2.5827334364996464,4.445907653636953,84.75904206084589,-30.535755,7.781896,20.048914,6.675468,-7.3784056,-5.20095,14.78664,4.274627,-5.36891,7.3982077,-23.72444,-0.53197855,14.058741,2.7139182,13.276614,14.921358,9.541502,-13.81913,69.49763,4.5078335,-3.634276,1.3448654,-14.476145,-18.859352,21.48859,64.21561,-17.259193,-5.403733,-3.7744246
108,7.983112335205078,18.83286476135254,74.14505767822266,-2.5566242637129717,4.4648956314366215,84.6673598346689,-30.36493,7.6004486,19.42771,6.725817,-7.026256,-4.9437213,15.251229,4.123311,-5.3755274,7.4161396,-23.458857,-0.44895953,14.044305,2.5745883,13.3794365,14.888131,9.559328,-13.821514,69.64901,4.588941,-3.5740166,1.344528,-14.680793,-18.826807,21.334534,63.823578,-17.46567,-5.3932924,-3.8694313
109,7.9372382164001465,19.47393035888672,74.10676574707031,-2.4722071681811966,4.520128124612411,84.62673423816089,-30.07331,7.3797364,19.193018,6.778033,-6.507429,-4.593138,15.687723,3.8891778,-5.446955,7.438523,-23.105038,-0.3078747,13.981241,2.371776,13.441978,14.82366,9.587829,-13.852901,69.83073,4.663943,-3.5069373,1.3463379,-14.833679,-18.765013,21.201658,63.442844,-17.68008,-5.395868,-3.992702
110,7.875542163848877,20.125782012939453,74.08968353271484,-2.327991130947364,4.60100262049931,84.63217638946425,-29.666948,7.1120687,19.236828,6.8325877,-5.84479,-4.154992,16.106647,3.5744174,-5.575917,7.4689555,-22.6781,-0.11808132,13.85695,2.0918732,13.473681,14.743233,9.638171,-13.905297,70.03214,4.728275,-3.4338229,1.3539647,-14.969803,-18.642208,21.1115,63.09868,-17.897945,-5.4019637,-4.1442957
111,7.803940773010254,20.79106330871582,74.09362030029297,-2.1430388434752548,4.70747616061326,84.65987795340001,-29.233269,6.8133655,19.437983,6.889069,-5.0924864,-3.6270971,16.499737,3.2032273,-5.718989,7.5077605,-22.151567,0.102235466,13.685176,1.7764859,13.4770565,14.641483,9.678354,-13.954391,70.24365,4.794976,-3.3617966,1.3581306,-15.053263,-18.522823,21.069725,62.71946,-18.11537,-5.407335,-4.2893806
112,7.718064785003662,21.492231369018555,74.1058578491211,-1.945106229355236,4.8392450599924075,84.68105167483532,-28.859509,6.5060573,19.678505,6.9451046,-4.299874,-3.0149848,16.857021,2.80437,-5.826241,7.556718,-21.501005,0.33273888,13.505541,1.4375045,13.438099,14.516727,9.720632,-13.999557,70.459755,4.857933,-3.296321,1.351805,-15.090911,-18.38017,21.045813,62.321888,-18.362755,-5.4096375,-4.4139385
113,7.6241912841796875,22.20317840576172,74.14582824707031,-1.7173697783025872,5.011021870218638,84.68103891341002,-28.574818,6.1859865,20.016113,6.9866242,-3.412954,-2.2575529,17.163845,2.3516774,-5.88017,7.6173816,-20.740093,0.5728842,13.327004,1.0532993,13.348189,14.370239,9.764964,-14.035599,70.68022,4.9225054,-3.2403657,1.3323311,-15.08602,-18.217257,21.060005,61.892365,-18.630764,-5.404244,-4.513502
114,7.516923427581787,22.92396354675293,74.20428466796875,-1.4525550020373488,5.218675357971514,84.66654969273755,-28.330921,5.8492117,20.50142,7.021778,-2.4344647,-1.3693451,16.93517,1.7823758,-5.913191,8.739833,-20.43004,0.83547825,13.147004,0.6281249,13.216495,14.196279,9.804249,-14.073725,70.91122,4.9880333,-3.1906867,1.3042895,-15.022548,-18.055712,21.10916,61.416363,-18.91043,-5.3952837,-4.5927134
115,7.418222904205322,23.673311233520508,74.26348876953125,-1.1761222873799275,5.4383076303508275,84.64752737258762,-28.161777,5.5265007,20.998926,7.220202,-1.5638968,-0.47626406,16.446058,1.1660056,-5.9144306,10.376516,-20.24532,1.1169995,12.963526,0.1946488,13.054472,14.000282,9.841334,-14.11382,71.14264,5.0463758,-3.1432912,1.2684811,-14.89265,-17.890387,21.156847,60.91,-19.221502,-5.3858705,-4.651693
116,7.304614067077637,24.439924240112305,74.33214569091797,-0.9179186123628659,5.644925247951235,84.63474576109628,-28.614676,5.459483,21.312504,8.915483,-1.6092515,0.28289488,15.909774,0.5690725,-5.884908,12.111532,-19.930355,1.4139984,12.774125,-0.21254535,12.873658,13.788711,9.881285,-14.155633,71.36279,5.089159,-3.0941029,1.2247484,-14.6906,-17.715532,21.17022,60.39136,-19.578983,-5.379184,-4.6905756
117,7.189760208129883,25.226139068603516,74.399658203125,-0.6837811152822424,5.85109410926146,84.62867957706925,-28.990162,5.3613772,21.454666,10.49753,-1.7070642,0.8954747,15.321707,0.004786351,-5.805623,13.93554,-19.486435,1.737316,12.583502,-0.5915703,12.65077,13.569237,9.927801,-14.200196,71.57183,5.1167097,-3.041109,1.1673911,-14.393258,-17.523743,21.129837,59.84532,-20.033007,-5.37526,-4.712043
118,7.077688217163086,26.02546501159668,74.47222900390625,-0.46086091255946354,6.06445222814162,84.62422091656657,-29.315079,5.231124,21.501339,11.989222,-1.8231661,1.4207368,14.686811,-0.5461804,-5.67597,15.822473,-18.918533,2.0853724,12.392139,-0.96089154,12.3860035,13.338146,9.982719,-14.24908,71.773254,5.130503,-2.9865446,1.0975497,-14.014917,-17.313509,21.057594,59.274693,-20.560411,-5.3729677,-4.71635
119,6.958710193634033,26.832881927490234,74.55355834960938,-0.24562927549792637,6.2522140697591,84.62555813566246,-29.534494,5.06703,21.515984,13.345153,-1.995185,1.8529081,14.005344,-1.0910817,-5.5359244,17.821478,-18.220644,2.436842,12.189958,-1.3127657,12.127548,13.084641,10.046901,-14.30024,71.95907,5.1278367,-2.9331374,1.024854,-13.596666,-17.088211,20.97323,58.714188,-21.072783,-5.373932,-4.698747
120,6.824967861175537,27.64521598815918,74.6375503540039,-0.029999456837757243,6.383090510050621,84.63785588298997,-29.587336,4.865651,21.563122,14.510268,-2.2592242,2.1909778,13.283445,-1.6432588,-5.4270144,19.967447,-17.382305,2.7706547,11.966194,-1.6444627,11.9233885,12.797916,10.12049,-14.351341,72.12184,5.1067634,-2.8835137,0.95930856,-13.181022,-16.85631,20.897793,58.198967,-21.48037,-5.3795815,-4.6547275
121,6.697317123413086,28.45892906188965,74.72743225097656,0.18937408370327474,6.459942998607524,84.6658226299642,-29.471176,4.6318283,21.653528,15.492055,-2.6604378,2.4008174,12.529741,-2.201921,-5.3510957,22.250143,-16.386742,3.1143625,11.716404,-1.9579278,11.770265,12.484239,10.199084,-14.38822,72.256676,5.061948,-2.834656,0.90137255,-12.749727,-16.62061,20.816006,57.70701,-21.76869,-5.38528,-4.577315
122,6.567513942718506,29.2752685546875,74.82219696044922,0.41027813508182637,6.497530939852452,84.71324791417388,-29.230032,4.3696632,21.74202,16.346504,-3.1862485,2.4959357,11.737951,-2.761198,-5.293925,24.656332,-15.241474,3.4684079,11.43983,-2.2525384,11.64631,12.143495,10.281287,-14.417839,72.37141,4.99649,-2.7862887,0.84697247,-12.288,-16.38096,20.724112,57.226315,-21.98071,-5.391977,-4.47049
123,6.422924995422363,30.090835571289062,74.9197998046875,0.6288293076893341,6.4824634250650375,84.78218460878888,-28.863636,4.0713425,21.811487,17.073769,-3.778913,2.5475657,10.905126,-3.3303602,-5.273012,27.189438,-13.966859,3.7713375,11.134827,-2.5235796,11.573264,11.754431,10.372973,-14.472682,72.47601,4.919082,-2.7456555,0.79781663,-11.836219,-16.1424,20.654108,56.800674,-22.11587,-5.409759,-4.3449187
124,6.285399913787842,30.90129280090332,75.01893615722656,0.8426342626167846,6.400625343972536,84.87238078251536,-28.368105,3.7254899,21.84803,17.664797,-4.3761945,2.626491,10.030083,-3.921666,-5.305731,29.850798,-12.580795,3.9618826,10.803372,-2.7681308,11.574375,11.297033,10.482779,-14.587671,72.57773,4.836624,-2.7196887,0.75432855,-11.432194,-15.912951,20.637026,56.47085,-22.172874,-5.44883,-4.210445
125,6.135587215423584,31.712425231933594,75.12401580810547,1.048330962507089,6.22825674655176,85.00277040233418,-27.71534,3.3102677,21.824547,18.106909,-4.9822183,2.7412124,9.117152,-4.5433154,-5.4322743,32.704117,-11.062219,3.9366407,10.432906,-2.978936,11.674296,10.762051,10.614249,-14.793313,72.687836,4.732979,-2.7097208,0.71970797,-11.070988,-15.696894,20.680956,56.24306,-22.1067,-5.523088,-4.0599036
126,5.991812229156494,32.49217224121094,75.23381042480469,1.2494888630850414,5.979731345158504,85.16742101517947,-26.915188,2.836941,21.751657,18.405651,-5.6221056,2.8550105,8.172393,-5.193603,-5.638931,35.712906,-9.399252,3.7580254,10.030091,-3.162859,11.855148,10.162736,10.765328,-15.068728,72.79633,4.6102424,-2.7120376,0.6902501,-10.7312565,-15.495743,20.76491,56.090603,-21.932463,-5.62312,-3.8896842
127,5.8544816970825195,33.281097412109375,75.35124206542969,1.4473959493059736,5.6979126089054155,85.3277565283791,-26.020939,2.3418713,21.674091,18.578465,-6.2640853,2.9725401,7.1883683,-5.868796,-5.855596,38.75047,-7.628737,3.6064434,9.627043,-3.3328366,12.079078,9.5095625,10.935267,-15.376181,72.880356,4.498725,-2.7262952,0.65576166,-10.420566,-15.30936,20.876024,55.99686,-21.735403,-5.724613,-3.7142937
128,5.709797382354736,34.059078216552734,75.46236419677734,1.6456975606415845,5.425125324783669,85.44631553505711,-25.087885,1.8594698,21.637192,18.644482,-6.8775434,3.099278,6.1455317,-6.5601287,-6.0017576,41.717514,-5.8042545,3.655605,9.253653,-3.499663,12.307991,8.814736,11.1244335,-15.672768,72.91537,4.431524,-2.7521305,0.606142,-10.150339,-15.137508,21.003292,55.94892,-21.60184,-5.803603,-3.5490854
129,5.5684709548950195,34.83604049682617,75.57247924804688,1.8419149005824593,5.160327193163093,85.51809100014975,-24.120304,1.3879042,21.649702,18.611433,-7.475114,3.2679927,5.015304,-7.306926,-6.093572,44.683033,-3.7503345,4.0122595,8.911958,-3.6588125,12.542717,8.076853,11.333051,-15.942849,72.90171,4.430405,-2.7992175,0.51379454,-9.932759,-14.982009,21.162586,55.965824,-21.545513,-5.8585825,-3.3915405
130,5.429947376251221,35.58318328857422,75.66844940185547,2.0357692698643213,4.884364679046318,85.5623806227,-23.092775,0.9076319,21.686869,18.465816,-8.064575,3.4664276,3.796748,-8.102533,-6.1426516,47.710056,-1.5199369,4.5417747,8.58525,-3.8053782,12.800557,7.2915134,11.560325,-16.209572,72.85008,4.47363,-2.864598,0.39238158,-9.761077,-14.843039,21.356,56.049526,-21.5229,-5.9009743,-3.2360353
131,5.292143821716309,36.30683517456055,75.7634506225586,2.2274737664937834,4.613615718091362,85.57816903856734,-22.01853,0.42514238,21.746319,18.197681,-8.608046,3.6345334,2.5090022,-8.859984,-6.070093,50.695698,0.48287702,5.0704975,8.276079,-3.9469872,13.067716,6.465894,11.806223,-16.486895,72.74995,4.530711,-2.9288502,0.2936142,-9.616134,-14.7161455,21.549606,56.158997,-21.536224,-5.926185,-3.0938299
132,5.157111644744873,37.0199089050293,75.85376739501953,2.415697833804652,4.365035628250368,85.56480754312307,-20.91242,-0.0486606,21.825264,17.799322,-9.068841,3.712484,1.1819636,-9.481236,-5.818668,53.515137,1.8606124,5.444846,7.9872336,-4.088669,13.32904,5.606628,12.071744,-16.79057,72.590515,4.569287,-2.9720235,0.26927418,-9.481798,-14.59499,21.709894,56.25677,-21.586931,-5.9297857,-2.9766316
133,5.030785083770752,37.7177734375,75.93940734863281,2.613002188746815,4.141267408129891,85.51306680234242,-19.765553,-0.5233811,21.946627,17.24715,-9.434625,3.6832361,-0.18549186,-9.946302,-5.3633876,56.19224,2.4565592,5.6534486,7.726633,-4.2465687,13.588621,4.7036357,12.3591175,-17.14859,72.36778,4.5627856,-2.9791005,0.3522813,-9.3677635,-14.476677,21.834465,56.338768,-21.704144,-5.90164,-2.8770719
134,4.91096305847168,38.406497955322266,76.0314712524414,2.812295239010918,3.9347917724994796,85.42707993465136,-18.580406,-1.001201,22.104578,16.556519,-9.72805,3.583763,-1.6079099,-10.28723,-4.757131,58.78378,2.4944093,5.7844515,7.492024,-4.4095445,13.850938,3.756253,12.668316,-17.548052,72.08653,4.5328975,-2.9636784,0.5080815,-9.278323,-14.360822,21.936045,56.424526,-21.878263,-5.847431,-2.7926219
135,4.7927374839782715,39.09954071044922,76.13401794433594,2.9814644104999686,3.747416888146989,85.32605183948074,-17.389061,-1.4543902,22.254921,15.782046,-9.966441,3.433198,-3.071496,-10.485284,-4.0686584,61.207085,2.1464114,5.841465,7.26822,-4.544585,14.10014,2.7866557,12.996542,-17.938969,71.75054,4.5220666,-2.9490914,0.68788564,-9.193038,-14.245899,22.00589,56.51664,-22.056393,-5.785972,-2.742984
136,4.685234546661377,39.78556823730469,76.24298858642578,3.0927613233039115,3.5806527652013704,85.22711872234213,-16.215572,-1.85519,22.356155,14.971943,-10.165374,3.2465913,-4.5593834,-10.526099,-3.3636386,63.37,1.5939671,5.823977,7.041183,-4.6188784,14.320215,1.8176533,13.340724,-18.268637,71.36485,4.574823,-2.9583232,0.84362864,-9.0946245,-14.130726,22.037687,56.621647,-22.1843,-5.735953,-2.7485662
137,4.583058834075928,40.470523834228516,76.35354614257812,3.143408359945375,3.4429943039652127,85.11693526239601,-15.065911,-2.1928725,22.412996,14.127257,-10.32204,2.9969714,-6.0989804,-10.34818,-2.5717747,65.27437,0.7372436,5.7291594,6.8195224,-4.631221,14.504536,0.84289265,13.703335,-18.5287,70.9337,4.723584,-2.9981358,0.96509415,-8.990534,-14.01325,22.037779,56.748596,-22.251371,-5.695188,-2.8392577
138,4.48802375793457,41.14512252807617,76.46559143066406,3.148503292420984,3.3306333442903684,84.99262420910448,-13.922874,-2.4799576,22.445677,13.223312,-10.429759,2.6842225,-7.683608,-9.970073,-1.6976466,66.96224,-0.46650642,5.559688,6.6042056,-4.5966167,14.662595,-0.14428967,14.086128,-18.742773,70.45301,4.9383097,-3.055786,1.0774814,-8.889497,-13.892763,22.009436,56.89594,-22.28509,-5.655847,-2.9967387
139,4.401169300079346,41.7989616394043,76.58018493652344,3.1023030495972974,3.2268541468817866,84.88829606150576,-12.780878,-2.7199268,22.436201,12.282599,-10.501059,2.3622086,-9.252491,-9.517902,-0.910703,68.40307,-1.7528899,5.319554,6.3689113,-4.5089617,14.803382,-1.1230278,14.483504,-18.907677,69.91752,5.170095,-3.124912,1.1863282,-8.771803,-13.769612,21.942211,57.048775,-22.28815,-5.6277127,-3.168978
140,4.3067097663879395,42.44609069824219,76.69403839111328,3.0028749378575323,3.115328996880487,84.83725310398971,-11.626407,-2.9214134,22.365885,11.308438,-10.541808,2.0855763,-10.749571,-9.129183,-0.37257072,69.55921,-2.856507,5.0115695,6.0872498,-4.36072,14.9348755,-2.073649,14.886422,-19.018002,69.3255,5.3721466,-3.1996627,1.2981094,-8.619023,-13.645638,21.827463,57.19428,-22.261625,-5.6205664,-3.3040304
141,4.241274833679199,43.146297454833984,76.83118438720703,2.8349738043941133,2.9913124804961684,84.85857150280901,-10.471289,-3.068137,22.215431,10.335504,-10.564809,1.8862687,-12.1629,-8.836062,-0.14283773,70.39807,-3.685467,4.6342645,5.742899,-4.132477,15.057288,-2.9973128,15.291554,-19.073238,68.67362,5.5438995,-3.2817667,1.4144462,-8.417047,-13.520198,21.646711,57.331142,-22.192202,-5.648249,-3.405348
142,4.160432815551758,43.828311920166016,76.95805358886719,2.6086920910906564,2.8641030316730984,84.93132016336536,-9.313742,-3.161609,22.001898,9.345078,-10.559464,1.7275692,-13.521991,-8.581978,-0.12433785,70.9408,-4.387437,4.186622,5.3542857,-3.8353794,15.167819,-3.9058645,15.700444,-19.077389,67.97055,5.7069936,-3.3733394,1.5336013,-8.177585,-13.393631,21.409203,57.46608,-22.084208,-5.7019773,-3.4949563
143,4.070469379425049,44.46615982055664,77.06910705566406,2.355045628969579,2.738617136039916,85.02911682049927,-8.133805,-3.2346387,21.761305,8.286044,-10.506548,1.5641968,-14.837107,-8.371933,-0.24109773,71.230995,-5.0598097,3.6729777,4.9453545,-3.5074074,15.26984,-4.797255,16.109983,-19.034874,67.23324,5.8443866,-3.469493,1.6569096,-7.920919,-13.270852,21.149426,57.59681,-21.96457,-5.7568717,-3.548736
144,3.980720043182373,45.1056022644043,77.18143463134766,2.1017284605632396,2.620018794322766,85.12550075012878,-7.052911,-3.25877,21.535244,7.432026,-10.559557,1.3507992,-16.118711,-8.203768,-0.41803995,71.311485,-5.7988524,3.0992243,4.539272,-3.1821868,15.365128,-5.6681786,16.513243,-18.946,66.476616,5.9437985,-3.56402,1.7854828,-7.6643076,-13.158377,20.90167,57.717228,-21.859299,-5.7881618,-3.5420337
145,3.89551043510437,45.755104064941406,77.28919982910156,1.850811036946163,2.5084000209827995,85.20934305902954,-6.321394,-3.1362567,21.343842,7.359285,-11.031911,1.0770415,-17.373653,-8.09294,-0.6686382,71.18536,-6.6658034,2.4291787,4.140546,-2.8610115,15.454067,-6.5241485,16.904343,-18.804827,65.71061,5.991447,-3.654194,1.9366025,-7.4127493,-13.061999,20.666576,57.828953,-21.777771,-5.778915,-3.4478855
146,3.8194515705108643,46.40428161621094,77.39339447021484,1.5912974341627215,2.4023580340147617,85.29700859006664,-5.594626,-3.0012188,21.149796,7.2808933,-11.505482,0.7766968,-18.589613,-8.026029,-1.021313,70.82649,-7.6008577,1.684391,3.7371259,-2.5244105,15.535087,-7.367098,17.282238,-18.610905,64.92714,6.0021715,-3.742187,2.1043038,-7.1513877,-12.982019,20.42776,57.927364,-21.703508,-5.745492,-3.2852938
147,3.7383739948272705,47.0549430847168,77.4899673461914,1.3260290663322978,2.3048393213068437,85.40368776522968,-4.8824506,-2.8538325,20.949945,7.203936,-11.966757,0.45701066,-19.752148,-7.959628,-1.422829,70.237854,-8.518633,0.95546603,3.3246603,-2.179638,15.604778,-8.204317,17.650421,-18.389143,64.14058,5.988026,-3.8384879,2.2574067,-6.8775597,-12.920449,20.19591,58.009525,-21.625708,-5.7125573,-3.0998914
148,3.66135573387146,47.7057991027832,77.57471466064453,1.0604134242485426,2.218207532820437,85.54370329468037,-4.190974,-2.695633,20.741508,7.129923,-12.399526,0.12402837,-20.84817,-7.8556905,-1.8222512,69.42498,-9.330862,0.32644752,2.9000292,-1.8346529,15.661452,-9.03618,18.013298,-18.157001,63.35636,5.967876,-3.9532113,2.3636053,-6.586751,-12.879047,19.983051,58.06887,-21.53177,-5.704862,-2.936773
149,3.624823570251465,48.38761901855469,77.66118621826172,0.7851436332920247,2.1393709555246634,85.71863136071568,-3.5163255,-2.5156064,20.525187,7.057682,-12.793769,-0.22430463,-21.868189,-7.709852,-2.2407897,68.37217,-10.035266,-0.19022639,2.4635243,-1.4813197,15.70673,-9.8609705,18.373304,-17.903807,62.57175,5.9374166,-4.094084,2.403106,-6.2763124,-12.860869,19.80126,58.10199,-21.408062,-5.738161,-2.7897258
150,3.554910898208618,49.03768539428711,77.72139739990234,0.5035747522562863,2.067977822862397,85.92078744203936,-2.8512769,-2.3200676,20.30109,6.9821925,-13.16252,-0.58785725,-22.816051,-7.5369587,-2.6984465,67.07731,-10.669748,-0.6315791,2.0171268,-1.1205245,15.743096,-10.675835,18.730036,-17.622253,61.779564,5.8915286,-4.2536445,2.3954856,-5.946688,-12.865976,19.642443,58.108692,-21.262495,-5.7962236,-2.639602
151,3.48390793800354,49.669837951660156,77.76023864746094,0.23064707715991256,2.0098852282246122,86.14964428005925,-2.2015646,-2.130732,20.068026,6.9071155,-13.522356,-0.9540632,-23.703075,-7.3306665,-3.1443453,65.57321,-11.2067995,-0.99598664,1.5605922,-0.7680754,15.769944,-11.487926,19.085167,-17.346935,60.989056,5.8352785,-4.4215918,2.369304,-5.597748,-12.8897505,19.483833,58.08898,-21.121067,-5.85654,-2.5130112
152,3.421370029449463,50.31900405883789,77.78306579589844,-0.0067703322466334676,1.9691661845113326,86.40271290563652,-1.5888392,-1.9736931,19.82965,6.8727684,-13.911408,-1.313982,-24.547655,-7.097888,-3.5156524,63.900932,-11.62124,-1.2853327,1.09813,-0.45132026,15.787587,-12.304171,19.441784,-17.11659,60.205463,5.7717156,-4.584013,2.353021,-5.230525,-12.92479,19.300867,58.045753,-21.010412,-5.8967323,-2.4373438
153,3.3725290298461914,50.98788070678711,77.79794311523438,-0.1858339648849181,1.946531991409635,86.67915720577662,-1.0211778,-1.8681803,19.594501,6.881732,-14.324979,-1.6926298,-25.351112,-6.8537707,-3.7879806,62.031548,-11.878819,-1.5091923,0.6315742,-0.1938886,15.7958,-13.124149,19.800825,-16.927525,59.42289,5.6922355,-4.740974,2.3420541,-4.8490396,-12.966131,19.101048,57.97778,-20.95126,-5.912173,-2.415033
154,3.328277587890625,51.637535095214844,77.79432678222656,-0.33564651536822127,1.9409760740238207,86.98215856863703,-0.47794098,-1.789766,19.354101,6.8895793,-14.7325735,-2.0901766,-26.099174,-6.586072,-4.0067635,59.941513,-11.993196,-1.6727284,0.15667327,0.0313861,15.790015,-13.946052,20.162209,-16.767824,58.642403,5.5945196,-4.8977847,2.3254826,-4.455069,-13.013683,18.892817,57.89147,-20.92682,-5.914587,-2.4340684
155,3.288151741027832,52.2944450378418,77.78213500976562,-0.4565305057462184,1.9518512889450566,87.31271363062723,0.047145225,-1.7405963,19.098814,6.8970604,-15.147043,-2.4605706,-26.780554,-6.304157,-4.179232,57.654793,-11.994149,-1.7711021,-0.32696974,0.22822134,15.767998,-14.765487,20.524826,-16.652353,57.8716,5.50425,-5.0515256,2.3211648,-4.040666,-13.064252,18.65033,57.7928,-20.907244,-5.906449,-2.4992046
156,3.243469476699829,52.953739166259766,77.76054382324219,-0.5511635852412626,1.9785207893567953,87.67102780627161,0.55911976,-1.720965,18.818975,6.9075565,-15.580297,-2.758031,-27.38486,-6.0180974,-4.3114996,55.196,-11.912354,-1.8005364,-0.8173729,0.40167785,15.727628,-15.582721,20.88689,-16.601606,57.12248,5.443847,-5.1997657,2.347904,-3.5958595,-13.112186,18.344057,57.687145,-20.865122,-5.8906093,-2.6152658
157,3.194563150405884,53.60972213745117,77.72407531738281,-0.6211947111946731,2.0240393773544985,88.06732106606157,1.054233,-1.7289274,18.506844,6.921085,-16.03886,-2.9832742,-27.915377,-5.719379,-4.3765397,52.54869,-11.734173,-1.778094,-1.3200989,0.55523825,15.665057,-16.410572,21.249855,-16.638733,56.40658,5.414602,-5.3416343,2.4203858,-3.1170917,-13.153117,17.95762,57.57328,-20.791876,-5.8626676,-2.8030405
158,3.1589794158935547,54.282100677490234,77.67528533935547,-0.6671587706460131,2.0869006254793128,88.49850269627753,1.5313058,-1.7632527,18.168623,6.935958,-16.51213,-3.158957,-28.373358,-5.416007,-4.3751545,49.7048,-11.44768,-1.709362,-1.8325778,0.6864357,15.581868,-17.244257,21.612099,-16.748152,55.71377,5.4077086,-5.4787326,2.5259795,-2.6090822,-13.184883,17.5075,57.45087,-20.70412,-5.8234773,-3.0537586
159,3.1356687545776367,54.97288513183594,77.617431640625,-0.6862118385546924,2.158877683746758,88.94564258153848,2.0006144,-1.8264825,17.815994,6.9540176,-16.988125,-3.2728355,-28.741049,-5.1410275,-4.3560324,46.68579,-11.088231,-1.5707526,-2.3425875,0.7908531,15.483583,-18.064045,21.967907,-16.897627,55.03189,5.422686,-5.612003,2.6439185,-2.0790484,-13.2075205,17.016285,57.332413,-20.611126,-5.782589,-3.3291037
160,3.107870578765869,55.66288375854492,77.54174041748047,-0.6773056671969664,2.2313532159064535,89.39019454722107,2.475662,-1.9213837,17.460146,6.9707365,-17.451624,-3.3129601,-28.999407,-4.9211435,-4.3721595,43.50744,-10.685945,-1.3346158,-2.8382792,0.86655414,15.375993,-18.845324,22.308453,-17.046833,54.346,5.467042,-5.7426424,2.7535715,-1.5334411,-13.2219515,16.507778,57.22921,-20.520971,-5.7495656,-3.5906012
161,3.0901973247528076,56.34859085083008,77.4427719116211,-0.6321782473740948,2.3111034471844807,89.8414085142233,2.9406178,-2.0609708,17.08901,6.991894,-17.893427,-3.2259364,-29.140974,-4.7749414,-4.425844,40.10812,-10.215084,-0.96388465,-3.3306046,0.90912515,15.2512245,-19.589558,22.630718,-17.192087,53.65472,5.549667,-5.8751554,2.8548744,-0.96634877,-13.230525,15.966546,57.129208,-20.45105,-5.7238936,-3.836157
162,3.060157060623169,57.056785583496094,77.33745574951172,-0.5519108302043421,2.3965650975051287,90.3073168019264,3.3997831,-2.242695,16.697605,7.013879,-18.319958,-3.0370188,-29.162706,-4.6874447,-4.493483,36.471188,-9.654645,-0.48380974,-3.8243084,0.9217241,15.110295,-20.308107,22.935518,-17.350166,52.96803,5.6659985,-6.007617,2.958154,-0.37459666,-13.234009,15.388834,57.030216,-20.390919,-5.7013397,-4.0833282
163,3.028935670852661,57.776554107666016,77.22473907470703,-0.44742806514932354,2.46563828549897,90.76861394399205,3.8882515,-2.443782,16.307339,7.0345335,-18.74783,-2.8522463,-29.050251,-4.6336,-4.5914307,32.675247,-9.039881,0.04455364,-4.300374,0.9099467,14.971608,-20.991451,23.22006,-17.509953,52.289783,5.804267,-6.131794,3.058713,0.22716111,-13.232682,14.815938,56.963623,-20.30832,-5.6851654,-4.3244267
164,2.9996485710144043,58.51475143432617,77.09628295898438,-0.3305102697547237,2.4965162070060067,91.2076804705169,4.4409103,-2.6416962,15.939422,7.0516114,-19.194584,-2.7770927,-28.790916,-4.5890994,-4.73798,28.800041,-8.40655,0.5608267,-4.744265,0.8790672,14.8538265,-21.628225,23.48073,-17.655954,51.62358,5.955147,-6.2393956,3.1515574,0.8222459,-13.226583,14.291803,56.962337,-20.170477,-5.6787915,-4.5522647
165,2.9813480377197266,59.256954193115234,76.95264434814453,-0.19517974955087275,2.4702935182339183,91.62532461322199,5.08531,-2.837501,15.5958,7.064395,-19.681257,-2.86687,-28.339535,-4.5629025,-4.939823,24.768253,-7.737669,1.079645,-5.158136,0.8205905,14.766494,-22.216558,23.717379,-17.781944,50.97251,6.140581,-6.327203,3.2396443,1.4147798,-13.218646,13.824462,57.028236,-19.956303,-5.6848035,-4.7794056
166,2.9592771530151367,60.00657653808594,76.78934478759766,-0.02134038775919247,2.392046288849226,92.04749981818689,5.8092318,-3.0611076,15.250073,7.073033,-20.194637,-3.053877,-27.680834,-4.586965,-5.193615,20.5129,-6.9937873,1.6282328,-5.5674715,0.71514434,14.704535,-22.7601,23.931656,-17.892317,50.334103,6.360059,-6.399768,3.3230228,2.014166,-13.208706,13.393613,57.143467,-19.686644,-5.7011,-5.0042567
167,2.963601589202881,60.781150817871094,76.6166000366211,0.2051736120296498,2.276001902673402,92.49602879543549,6.5837474,-3.3332162,14.880201,7.0776563,-20.697506,-3.258421,-26.85508,-4.6753345,-5.50398,16.149591,-6.1925783,2.1648161,-5.9922996,0.5478639,14.663245,-23.265625,24.124897,-17.997742,49.713634,6.562926,-6.461067,3.3927455,2.6059024,-13.193841,13.001026,57.317974,-19.390602,-5.72306,-5.200193
168,2.957934617996216,61.553565979003906,76.43093872070312,0.4925481199710761,2.1410342164788427,92.98411028330156,7.3744335,-3.6638951,14.469144,7.079021,-21.152922,-3.4017026,-25.91237,-4.8298006,-5.8759174,11.801692,-5.3495398,2.6440392,-6.4460387,0.31714624,14.632098,-23.73807,24.286894,-18.10013,49.120045,6.7083297,-6.5155115,3.4420588,3.1732588,-13.1711645,12.650192,57.5656,-19.098074,-5.7449284,-5.342123
169,2.9580154418945312,62.3307991027832,76.2388916015625,0.827881482530581,2.001234508346296,93.50590250387408,8.164067,-4.039588,14.013314,7.079219,-21.573296,-3.4891992,-24.714285,-5.016772,-6.320752,7.1016994,-4.3059998,3.0153377,-6.9205046,0.030755933,14.601608,-24.185282,24.424564,-18.207233,48.544594,6.769398,-6.5584273,3.4623694,3.7104907,-13.141247,12.335426,57.88568,-18.824148,-5.7677746,-5.406433
170,2.95868182182312,63.11333084106445,76.04480743408203,1.1928466965233424,1.854336232657811,94.04125906514825,8.960157,-4.431537,13.53277,7.081464,-21.971743,-3.5590696,-25.560501,-5.4767704,-6.630239,6.9162483,-5.6411552,3.3115125,-7.3969393,-0.29442528,14.572304,-24.597351,24.545053,-18.312906,47.977955,6.773082,-6.589386,3.4598937,4.2242785,-13.103187,12.054417,58.2721,-18.553001,-5.7934365,-5.411844
171,2.9726295471191406,63.8984260559082,75.85603332519531,1.5550515307462491,1.7079798725144988,94.56104188299686,9.756116,-4.803714,13.066246,7.083052,-22.311203,-3.584728,-26.332808,-5.940096,-6.996633,6.807545,-6.9165945,3.6003692,-7.8496714,-0.62373513,14.544268,-24.957329,24.64933,-18.408785,47.424053,6.7459106,-6.6185746,3.449883,4.709894,-13.053096,11.815486,58.732227,-18.265287,-5.8182154,-5.396714
172,2.993807792663574,64.6832504272461,75.680908203125,1.8894240559518376,1.5661683080432773,95.03878147869987,10.546372,-5.1256733,12.651588,7.0908966,-22.561926,-3.5388527,-26.968084,-6.357254,-7.4420924,6.720276,-8.010812,3.9508035,-8.268003,-0.91258186,14.516033,-25.24405,24.709307,-18.462357,46.90089,6.7335563,-6.6580267,3.450307,5.1613803,-13.006198,11.64402,59.27596,-17.931696,-5.8369827,-5.4004955
173,3.022348165512085,65.48199462890625,75.51553344726562,2.240708711358377,1.4307973427656135,95.49897326501376,11.329401,-5.454379,12.279428,7.089878,-22.712645,-3.3833456,-27.497988,-6.7887635,-8.0216675,6.6904626,-8.932579,4.4578037,-8.648877,-1.2200794,14.491752,-25.484863,24.751608,-18.509745,46.401516,6.703344,-6.7083077,3.4574375,5.593624,-12.945588,11.506573,59.887978,-17.552588,-5.8549705,-5.4408665
174,3.0436978340148926,66.28251647949219,75.35991668701172,2.5619352767731707,1.3160044514153577,95.912290835865,12.092282,-5.7304244,11.972773,7.091771,-22.789711,-3.156396,-27.921164,-7.167047,-8.7143755,6.657735,-9.698614,5.0437083,-8.956346,-1.5118723,14.466265,-25.693975,24.784838,-18.568117,45.93025,6.644687,-6.7630916,3.46966,5.9871497,-12.839929,11.392657,60.589695,-17.153513,-5.8717613,-5.5037403
175,3.07503604888916,67.09910583496094,75.22886657714844,2.828315741922558,1.219040678517611,96.2372887760764,12.8462,-5.934176,11.747813,7.0950537,-22.784683,-2.9073722,-28.228188,-7.4451456,-9.379714,6.6766047,-10.32513,5.5574265,-9.198899,-1.7328901,14.433202,-25.796347,24.785816,-18.571663,45.466587,6.6095705,-6.8237734,3.4899755,6.3387885,-12.750181,11.353634,61.370735,-16.722977,-5.8799696,-5.5454903
176,3.1043035984039307,67.91851043701172,75.12125396728516,3.033519826193999,1.1184023010472595,96.45540422446773,13.620502,-6.0710015,11.595347,7.0943227,-22.685177,-2.677782,-28.334469,-7.5918846,-9.892461,6.6887527,-10.767771,5.855573,-9.348223,-1.8772928,14.41169,-25.775948,24.766249,-18.543625,45.00437,6.609279,-6.888774,3.5173295,6.68406,-12.677846,11.364306,62.18924,-16.282194,-5.8757358,-5.5147514
177,3.136549949645996,68.74342346191406,75.03440856933594,3.1857417073434435,0.9945480096984102,96.54275200429244,14.438181,-6.153608,11.530223,7.0908585,-22.49684,-2.4451761,-28.185263,-7.5901933,-10.2512455,6.699345,-11.034139,5.9066715,-9.399406,-1.978455,14.388326,-25.635895,24.707596,-18.465446,44.596416,6.717885,-6.956084,3.5679088,6.9551353,-12.560082,11.433045,63.169132,-15.862666,-5.846048,-5.4540625
178,3.1692702770233154,69.58405303955078,74.96957397460938,3.299625810810387,0.8530799799985488,96.52702821839449,15.287999,-6.1968575,11.541682,7.083454,-22.219952,-2.1936264,-27.811897,-7.461399,-10.515518,6.7071743,-11.128226,5.7923713,-9.365156,-2.0392768,14.375849,-25.409817,24.606077,-18.352541,44.243168,6.8880506,-7.030497,3.6332686,7.174584,-12.421343,11.552099,64.26433,-15.43586,-5.8010683,-5.3566484
179,3.1886894702911377,70.43907928466797,74.9176254272461,3.357999709842042,0.7330235208997571,96.43923821444294,16.127934,-6.176808,11.613446,7.0731406,-21.847157,-1.9841242,-27.31712,-7.195433,-10.63797,6.710018,-11.029509,5.5313215,-9.258169,-2.0367167,14.334478,-25.099789,24.457056,-18.225834,43.950832,7.073904,-7.109694,3.702378,7.370391,-12.270965,11.754815,65.424736,-14.990475,-5.742037,-5.218937
180,3.202874183654785,71.32886505126953,74.87625122070312,3.3445510069841875,0.6736643239473372,96.31122185867024,16.914381,-6.0704093,11.7286005,7.056678,-21.36604,-1.8760707,-26.804586,-6.7912774,-10.571203,6.708574,-10.719475,5.142745,-9.103391,-1.9489694,14.225915,-24.70114,24.276896,-18.101961,43.717506,7.210474,-7.196148,3.757289,7.5494733,-12.129756,12.082447,66.62073,-14.508426,-5.6812673,-5.026829
181,3.2143898010253906,72.2457504272461,74.85511016845703,3.207508548851729,0.6983096927543764,96.0742049575993,17.638504,-5.8187437,11.964648,7.0386386,-20.808975,-1.8946707,-26.263426,-6.1516643,-10.22581,6.7441297,-10.197528,4.595499,-8.837074,-1.720206,14.05952,-24.165928,24.102112,-17.966457,43.470375,7.257534,-7.2932143,3.7837992,7.7091255,-12.022936,12.5531,67.84298,-13.945289,-5.610409,-4.7585573
182,3.252699851989746,73.1578140258789,74.88009643554688,2.9988194348502613,0.7698458899619474,95.74963076607065,18.332087,-5.486101,12.289496,7.018025,-20.16696,-1.9927484,-25.636145,-5.3602457,-9.636402,6.798122,-9.467758,3.9047084,-8.532997,-1.4060911,13.768783,-23.591991,23.743908,-17.751253,43.465797,7.3783345,-7.407279,3.8199978,7.7415347,-11.858384,13.264677,69.30838,-13.289193,-5.5103583,-4.506627
183,3.301112651824951,74.08634185791016,74.92781829833984,2.7595370560422716,0.8806998307397123,95.42553072109449,18.985905,-5.1046357,12.616548,6.9893036,-19.387053,-2.161138,-25.041111,-4.5322556,-8.9470215,6.8883843,-8.574373,3.12383,-8.17678,-1.0403278,13.448192,-22.950607,23.388723,-17.604631,43.47541,7.439031,-7.520803,3.8498735,7.827824,-11.733399,13.980626,70.69295,-12.679072,-5.421827,-4.1738963
184,3.373572587966919,75.03319549560547,75.01008605957031,2.4866733743755893,1.008924879288662,95.13997337792817,19.56334,-4.6529403,12.918392,7.052187,-18.478773,-2.3994832,-24.533972,-3.6956124,-8.30063,6.929336,-7.5168834,2.2884507,-7.84046,-0.63835317,13.10533,-22.24909,23.035118,-17.504374,43.53827,7.4854474,-7.627885,3.8898847,7.9276524,-11.612731,14.722697,72.0024,-12.191431,-5.3565927,-3.794026
185,3.4536473751068115,75.97843170166016,75.1225357055664,2.1316519147391317,1.1985256702277376,94.92990258491697,20.042133,-4.0759926,13.1628065,7.158285,-17.434195,-2.734469,-24.23166,-2.8041627,-7.6990323,6.935772,-6.183448,1.2481157,-7.5535374,-0.15483248,12.699934,-21.489464,22.686213,-17.475718,43.662006,7.5163693,-7.738083,3.9522214,8.024344,-11.476684,15.533823,73.268745,-11.835873,-5.3245783,-3.3451374
186,3.53084659576416,76.94133758544922,75.24778747558594,1.6893416157529617,1.4498579247489767,94.77173783508125,20.43341,-3.3703077,13.373431,7.289297,-16.254768,-3.158491,-24.058525,-1.839721,-7.126806,6.917397,-4.6031213,0.026392376,-7.29823,0.41409892,12.227336,-20.667759,22.33977,-17.506485,43.85016,7.52378,-7.851022,4.025983,8.1019125,-11.3201475,16.423769,74.53054,-11.570797,-5.3169293,-2.8364375
187,3.614924430847168,77.94021606445312,75.36808776855469,1.2331405287789696,1.6962624031682048,94.67904258364817,20.696686,-2.601369,13.535404,7.6554346,-14.988001,-3.615566,-23.863205,-0.93526,-6.7217226,6.8962827,-3.0483642,-1.081478,-7.0874023,0.9832854,11.738946,-19.804045,21.992607,-17.573517,44.11521,7.5252748,-7.9423904,4.0904474,8.183059,-11.14354,17.289106,75.730156,-11.410819,-5.3185205,-2.3217313
188,3.690047264099121,78.94989013671875,75.47605895996094,0.826993546058866,1.8690132421393568,94.66983358354172,19.69693,-1.54244,13.654321,10.857448,-14.941926,-4.0598345,-23.945272,-0.26899725,-6.593551,7.8488984,-2.2942894,-1.7831117,-6.934792,1.4819311,11.29135,-18.920868,21.639397,-17.655169,44.47066,7.5371704,-7.9879475,4.1260543,8.295595,-10.9508705,18.02197,76.81255,-11.372326,-5.319168,-1.8557884
189,3.7734172344207764,79.96672058105469,75.57829284667969,0.48596484050779737,1.9561520073826206,94.78768722974856,18.754988,-0.5341218,13.601692,14.059959,-14.615055,-4.4842505,-23.883923,0.119631,-6.8641047,8.993375,-1.9947271,-1.8934233,-6.8782077,1.8985544,10.875893,-18.008165,21.273708,-17.761353,44.928772,7.549352,-7.979743,4.1361485,8.478253,-10.740292,18.590017,77.76506,-11.511966,-5.3237534,-1.4398936
190,3.86126708984375,80.96892547607422,75.6769027709961,0.15826301288651812,2.003453303018701,95.01193861515341,17.793602,0.48632666,13.405249,17.329098,-14.069819,-4.913433,-23.57392,0.34197426,-7.4321146,9.901332,-1.7770296,-1.6230237,-6.8948817,2.2924466,10.462711,-17.067152,20.8919,-17.904476,45.488274,7.5590487,-7.931078,4.1305165,8.711706,-10.511254,19.044775,78.61716,-11.806603,-5.338937,-1.0499076
191,3.9503135681152344,81.97187042236328,75.77365112304688,-0.17623612007809258,2.0198000498358692,95.26047736042706,16.780409,1.5334594,13.167256,20.66879,-13.30833,-5.314264,-23.145159,0.51964825,-8.069113,10.711491,-1.6615065,-1.261676,-6.908734,2.683358,10.082323,-16.131945,20.495558,-18.060667,46.135735,7.5931277,-7.849421,4.098643,8.939581,-10.274943,19.409052,79.3711,-12.149291,-5.353545,-0.70206505
192,4.032524108886719,82.96495819091797,75.86824035644531,-0.5323693807767721,2.010582220204597,95.4580695187098,15.684425,2.6237588,12.982074,24.09546,-12.335797,-5.65457,-22.705225,0.7843348,-8.559339,11.513114,-1.6568705,-1.0844654,-6.8540125,3.0888016,9.768469,-15.231333,20.088352,-18.200966,46.849987,7.6760054,-7.7426286,4.028583,9.108948,-10.047302,19.706745,80.02036,-12.432529,-5.3546634,-0.40984094
193,4.1124162673950195,83.93290710449219,75.96463775634766,-0.9015866621496161,1.9665999718499494,95.58694449245957,14.495169,3.7513182,12.87425,27.656574,-11.085324,-5.923516,-22.262138,1.1772822,-8.838944,12.304784,-1.7764813,-1.1193752,-6.722577,3.5030231,9.537726,-14.356754,19.668882,-18.303465,47.632053,7.827014,-7.6116753,3.9064312,9.220321,-9.83523,19.924913,80.54524,-12.667802,-5.3331714,-0.18659009
194,4.201089382171631,84.89099884033203,76.05538177490234,-1.2616318442021326,1.8817323471767682,95.67854474775704,13.253364,4.8829775,12.798123,31.298391,-9.563462,-6.142236,-21.772509,1.6319118,-9.01101,13.057226,-2.0177956,-1.2160327,-6.54273,3.9041731,9.374861,-13.489405,19.236025,-18.379587,48.479813,8.030365,-7.453482,3.7408147,9.300222,-9.638658,20.061543,80.94483,-12.895086,-5.295996,-0.01954703
195,4.2786946296691895,85.81800842285156,76.14447784423828,-1.60974186113473,1.76480944877694,95.73683389553887,11.989307,6.0055428,12.738828,34.924095,-7.894217,-6.320586,-21.245943,2.1243227,-9.117921,13.774647,-2.3540816,-1.3787057,-6.311529,4.2857304,9.267286,-12.64347,18.798449,-18.450588,49.367035,8.252005,-7.270174,3.5533156,9.336151,-9.462415,20.150707,81.238815,-13.0580845,-5.2543826,0.11760535
196,4.371991157531738,86.73511505126953,76.2311019897461,-1.9452773525492335,1.6249579798394689,95.766111650448,10.728026,7.1144624,12.68271,38.44759,-6.210954,-6.4584107,-20.688997,2.6233222,-9.20125,14.460744,-2.7640147,-1.6154939,-6.028899,4.64164,9.204679,-11.827443,18.371244,-18.533735,50.26053,8.455985,-7.0631723,3.3645592,9.311239,-9.31429,20.228495,81.455345,-13.100622,-5.226438,0.25062576
197,4.459018707275391,87.63717651367188,76.31253051757812,-2.2711304803683476,1.4462402261460803,95.74434727490694,9.44668,8.221371,12.606237,41.946587,-4.374533,-6.5500994,-20.10845,3.1420865,-9.238511,15.160423,-3.2804842,-1.9617653,-5.6824193,4.969738,9.208819,-11.02463,17.962988,-18.606318,51.14304,8.641443,-6.8180985,3.1739264,9.229571,-9.197292,20.287157,81.55701,-12.97154,-5.1941514,0.41143352
198,4.5472869873046875,88.50907135009766,76.37556457519531,-2.5818460077171466,1.227847744403058,95.67546230455024,8.130629,9.33082,12.528092,45.462254,-2.3834176,-6.5849247,-19.499115,3.691801,-9.212813,15.857374,-3.9009235,-2.401769,-5.2799673,5.2681623,9.28097,-10.224994,17.57523,-18.660378,52.020107,8.822355,-6.5390916,2.9703534,9.095333,-9.111308,20.31867,81.5386,-12.711616,-5.153573,0.5795986
199,4.632141590118408,89.36485290527344,76.4299545288086,-2.871076355777093,1.0026230242042542,95.60226504519126,6.8041916,10.451975,12.50104,48.889816,-0.5987195,-6.538213,-18.856325,4.2344313,-9.17525,16.481647,-4.5526366,-2.8702683,-4.853186,5.537727,9.380124,-9.443496,17.213257,-18.732546,52.89166,8.984758,-6.2552447,2.7586687,8.9041195,-9.055844,20.366182,81.45217,-12.399796,-5.1317153,0.7076012
200,4.728001594543457,90.22341918945312,76.47842407226562,-3.1360508709085155,0.8040183043459399,95.56680219945328,5.488962,11.609332,12.579957,52.140682,0.604814,-6.3756747,-18.176262,4.7328296,-9.180198,16.964373,-5.16411,-3.3023078,-4.4338756,5.7791495,9.463518,-8.692779,16.8848,-18.859581,53.758064,9.114328,-5.9951396,2.5434897,8.662045,-9.030813,20.476357,81.3211,-12.114094,-5.1360455,0.75210226
201,4.818973064422607,91.04874420166016,76.51470947265625,-3.3879507160163014,0.6398782069009845,95.58798028094924,4.1877117,12.874881,12.808333,55.273186,1.0509927,-6.1032386,-17.45951,5.1872144,-9.265417,17.293432,-5.7360044,-3.7124906,-4.029909,6.0000243,9.528259,-7.988391,16.59806,-19.06006,54.62707,9.207757,-5.757374,2.3109322,8.368495,-9.035226,20.678806,81.14547,-11.828487,-5.1847973,0.70293075
202,4.906829833984375,91.87279510498047,76.56317138671875,-3.625129960404062,0.49261058609627856,95.63841846094043,2.8862462,14.247855,13.145489,58.3435,0.9373149,-5.7103333,-16.709307,5.614881,-9.391812,17.508747,-6.303188,-4.125846,-3.6240883,6.194635,9.595902,-7.313091,16.355152,-19.308435,55.489388,9.271228,-5.529299,2.062494,8.022248,-9.066816,20.947199,80.909744,-11.516758,-5.266273,0.58475935
203,4.988799095153809,92.67788696289062,76.6135482788086,-3.826600505003518,0.3583125080480854,95.68852814099239,1.5832067,15.631797,13.526586,61.250683,0.44529,-5.150324,-15.917833,6.005135,-9.500815,17.60178,-6.837767,-4.4931135,-3.2074397,6.344145,9.659863,-6.6373754,16.153372,-19.580772,56.32633,9.300659,-5.322353,1.8265483,7.626359,-9.123721,21.244072,80.62365,-11.255193,-5.350728,0.4048131
204,5.072216510772705,93.4794692993164,76.66853332519531,-3.970496698969393,0.23351791900529537,95.70958598378661,0.2723236,16.908058,13.890135,63.886444,-0.2286164,-4.395033,-15.086355,6.345316,-9.535923,17.583483,-7.32252,-4.7659698,-2.7704914,6.429915,9.712315,-5.9357843,15.987103,-19.856754,57.123493,9.29131,-5.1479874,1.6321641,7.1826744,-9.206143,21.529375,80.29927,-11.1205635,-5.407795,0.1689115
205,5.142670631408691,94.28954315185547,76.74436950683594,-4.047766968463531,0.117840940829144,95.70162309555654,-1.056275,18.043068,14.243418,66.24977,-1.1810071,-3.391793,-14.20464,6.624001,-9.492403,17.438812,-7.753072,-4.915612,-2.3079212,6.4452724,9.750379,-5.218689,15.856138,-20.164625,57.88812,9.233248,-5.018898,1.4870992,6.6852922,-9.31673,21.81374,79.93681,-11.141639,-5.4248548,-0.13629486
206,5.211146354675293,95.08143615722656,76.82191467285156,-4.068512740822565,0.014769487527420319,95.67810287972871,-2.4015715,19.065067,14.60417,68.39008,-2.4722414,-2.2079024,-13.283201,6.845981,-9.402066,17.18203,-8.146434,-4.9767656,-1.8245522,6.3981476,9.776921,-4.500469,15.760474,-20.508476,58.630486,9.131596,-4.925381,1.3764554,6.1358867,-9.4563055,22.11111,79.530754,-11.2730055,-5.4185886,-0.5094559
207,5.280054092407227,95.85712432861328,76.90745544433594,-4.040352720058835,-0.07346633998228684,95.63156561028016,-3.7526004,19.947592,14.946004,70.262665,-3.8377295,-0.98916066,-12.3490095,7.0223613,-9.264862,16.857412,-8.512646,-4.9948754,-1.3273236,6.2961993,9.793399,-3.760623,15.6911,-20.831345,59.340538,9.004655,-4.8451395,1.2953326,5.5512595,-9.620023,22.382954,79.08069,-11.485496,-5.402141,-0.9219675
208,5.334535598754883,96.64240264892578,77.00629425048828,-3.972803886118529,-0.14538693793276758,95.5535732017694,-5.0970316,20.679829,15.257945,71.82334,-5.007205,0.13459833,-11.428023,7.1639333,-9.078999,16.509161,-8.860121,-5.0121713,-0.8215513,6.148856,9.800358,-2.9780254,15.634183,-21.07399,60.01198,8.875756,-4.756312,1.2401984,4.9446096,-9.802137,22.594122,78.59377,-11.745905,-5.3892,-1.3471437
209,5.391664981842041,97.4163589477539,77.11128234863281,-3.8593680055384487,-0.19737562388208757,95.43969801305481,-6.43864,21.262133,15.577578,73.05878,-5.8879337,1.1622318,-10.530429,7.25917,-8.835072,16.149813,-9.192365,-5.022314,-0.3047971,5.94967,9.792639,-2.1477122,15.581887,-21.23363,60.647194,8.746598,-4.6563067,1.2282443,4.306718,-10.002503,22.75263,78.0867,-12.068861,-5.3829894,-1.8143923
210,5.446155548095703,98.19083404541016,77.22110748291016,-3.6988236346854064,-0.2308576864362707,95.29545300551156,-7.780519,21.693201,15.918349,73.99174,-6.621403,2.1471193,-9.644513,7.3014097,-8.539269,15.764492,-9.508149,-5.005348,0.22416218,5.699249,9.770771,-1.2849073,15.533333,-21.337978,61.25859,8.609986,-4.5562572,1.2573843,3.6323636,-10.223318,22.874304,77.55831,-12.462329,-5.3743706,-2.3275588
211,5.483728885650635,98.98603820800781,77.33549499511719,-3.5100539579897467,-0.2520665185316168,95.12705204165196,-9.108704,21.970121,16.239712,74.63263,-7.284316,3.0503678,-8.7521105,7.310601,-8.210255,15.329555,-9.800231,-4.980894,0.7586418,5.4184647,9.7428465,-0.3989266,15.485457,-21.376253,61.856285,8.471548,-4.4544477,1.2961227,2.941001,-10.463377,22.92967,76.9891,-12.8904085,-5.3589034,-2.8213627
212,5.533530235290527,99.72830200195312,77.43575286865234,-3.311169963277398,-0.2674943683367913,94.94049092146611,-10.414523,22.090069,16.49407,74.994484,-7.952773,3.829869,-7.849229,7.3072886,-7.868391,14.8512535,-10.067194,-4.968614,1.2928629,5.130172,9.715807,0.5000197,15.43371,-21.336609,62.45119,8.338079,-4.349081,1.3132119,2.2500176,-10.719694,22.893742,76.36242,-13.311989,-5.333977,-3.2310066
213,5.581940174102783,100.48607635498047,77.5401382446289,-3.103159990350222,-0.2729569309734103,94.73727973216009,-11.707401,22.032675,16.678127,75.06185,-8.643632,4.4821405,-6.9369645,7.290248,-7.5171657,14.322407,-10.306207,-4.979848,1.8265641,4.8302135,9.683874,1.4166757,15.373532,-21.207247,63.046043,8.2129545,-4.2395945,1.297845,1.5551493,-10.99251,22.761385,75.677734,-13.736752,-5.2934055,-3.5409656
214,5.620199203491211,101.2522201538086,77.64603424072266,-2.876903755406353,-0.26693517751472207,94.5148857102882,-12.987743,21.802837,16.819973,74.83179,-9.307981,5.0208435,-6.0200276,7.250235,-7.148553,13.74781,-10.520178,-4.997397,2.3613942,4.5123124,9.645782,2.3531535,15.303076,-20.99648,63.638496,8.092366,-4.1278167,1.2684177,0.8459481,-11.283347,22.547419,74.95179,-14.179931,-5.2442904,-3.785855
215,5.646873950958252,102.00940704345703,77.74208068847656,-2.6440286106339044,-0.2592644516175566,94.27465018229842,-14.228975,21.431255,16.918133,74.3255,-9.917794,5.4326067,-5.083836,7.194739,-6.763281,13.122844,-10.709031,-5.001343,2.8935616,4.1912675,9.612361,3.2986813,15.222863,-20.721458,64.229,7.974048,-4.0132155,1.2378031,0.1340069,-11.592077,22.257315,74.181244,-14.608741,-5.194489,-3.974822
216,5.662705421447754,102.76580810546875,77.8302993774414,-2.414436663764109,-0.2598484751668606,94.01743780346948,-15.403782,20.952051,16.969995,73.564285,-10.44685,5.706354,-4.113562,7.1320615,-6.3617263,12.445557,-10.874134,-4.975886,3.4205976,3.8818665,9.594598,4.2412705,15.134986,-20.401472,64.817825,7.8544407,-3.8954756,1.2184671,-0.5701027,-11.917111,21.893482,73.3657,-14.991891,-5.1546774,-4.117727
217,5.6875433921813965,103.55253601074219,77.9192123413086,-2.188837500356801,-0.2758469052169629,93.73977624700697,-16.508781,20.343687,16.951324,72.540695,-10.899618,5.827198,-3.089397,7.0646176,-5.9332485,11.697669,-11.011211,-4.937542,3.9445624,3.58321,9.599078,5.1860466,15.039839,-20.032381,65.41091,7.7353144,-3.7759106,1.2170298,-1.2626796,-12.256026,21.424717,72.49718,-15.313209,-5.122714,-4.2006674
218,5.695682525634766,104.28377532958984,77.99040985107422,-1.9637540185033175,-0.30134462840763593,93.44194347490634,-17.551237,19.609253,16.870659,71.24474,-11.2852335,5.810794,-2.0283375,6.9906125,-5.482871,10.899383,-11.125789,-4.8925223,4.4674,3.291504,9.61866,6.138666,14.935817,-19.607473,66.00342,7.617515,-3.6540687,1.2252513,-1.9527789,-12.6088705,20.858797,71.58154,-15.593476,-5.0955,-4.223954
219,5.722211837768555,105.0389404296875,78.052001953125,-1.7482716740237916,-0.32591922158095016,93.13057365218667,-18.522383,18.816957,16.77423,69.696915,-11.586221,5.692105,-0.950788,6.9120736,-5.0305047,10.062471,-11.223191,-4.813289,4.9854193,3.014884,9.643958,7.0848923,14.823723,-19.144411,66.583275,7.4924283,-3.527594,1.2336956,-2.6500294,-12.978292,20.263256,70.6387,-15.850615,-5.0821686,-4.2192135
220,5.732872486114502,105.79922485351562,78.10365295410156,-1.5475347012739689,-0.33875248307273964,92.8119512930008,-19.415703,18.028904,16.709785,67.91695,-11.785683,5.503606,0.12081471,6.828815,-4.5957527,9.20244,-11.310045,-4.6712947,5.4945,2.7594733,9.665756,8.013244,14.7052765,-18.658028,67.13527,7.3544645,-3.3943553,1.2321343,-3.3592706,-13.36631,19.706953,69.68354,-16.101137,-5.091709,-4.2172446
221,5.736698627471924,106.54182434082031,78.1378402709961,-1.3457886215756656,-0.3348967337546398,92.48951507437086,-20.234837,17.227024,16.68224,65.88327,-11.870257,5.2277904,1.2023386,6.718678,-4.1861897,8.272703,-11.375038,-4.399735,5.9899306,2.5087578,9.683407,8.920833,14.581772,-18.13774,67.65884,7.196846,-3.2460744,1.2134521,-4.081334,-13.775364,19.198349,68.703964,-16.34681,-5.131027,-4.207225
222,5.737305641174316,107.291748046875,78.15801239013672,-1.1421953260290185,-0.3202540731370887,92.15767164870873,-20.975613,16.389784,16.669353,63.586174,-11.851959,4.858994,2.3013568,6.5861683,-3.7891557,7.276164,-11.419821,-4.0383177,6.4750257,2.2621226,9.700704,9.818899,14.452237,-17.576727,68.15417,7.0268855,-3.0844193,1.1836187,-4.812215,-14.2056,18.707026,67.69372,-16.57877,-5.1932974,-4.1783514
223,5.736258029937744,108.04354858398438,78.15983581542969,-0.9675190510987747,-0.3002479805583711,91.81024867812157,-21.62444,15.571121,16.676586,61.062782,-11.74925,4.445144,3.0288744,6.4482946,-3.4326894,7.049545,-11.859473,-3.7117631,6.956484,2.0497901,9.715577,10.705949,14.315968,-17.00398,68.62553,6.850966,-2.9297261,1.1539048,-5.551775,-14.653977,18.243025,66.681755,-16.79769,-5.2698693,-4.163245
224,5.741505146026611,108.79768371582031,78.1347427368164,-0.8261859767591535,-0.28205226437553416,91.43946229860595,-22.175028,14.808784,16.721266,58.372414,-11.593138,4.035522,3.654639,6.349844,-3.0635605,7.0411253,-12.374025,-3.5466619,7.4427238,1.8783482,9.729182,11.581912,14.171977,-16.445572,69.07509,6.679179,-2.8010552,1.1354496,-6.2977424,-15.114655,17.814901,65.69169,-17.005575,-5.347927,-4.1938825
225,5.749791145324707,109.54661560058594,78.09114837646484,-0.7524829538507055,-0.27311006687658507,91.04096618329442,-22.618166,14.152302,16.788887,55.492878,-11.375079,3.671042,4.268544,6.3386073,-2.6635273,7.070466,-12.84461,-3.6088839,7.936471,1.7827069,9.742865,12.44851,14.020104,-15.901465,69.50415,6.5089407,-2.7094405,1.1353573,-7.056929,-15.587205,17.432558,64.72877,-17.199383,-5.4301577,-4.2929416
226,5.748056411743164,110.30786895751953,78.03095245361328,-0.7382261523502172,-0.26829629989862397,90.62142687409602,-22.96025,13.573035,16.867512,52.400322,-11.081242,3.3170161,4.8829036,6.397877,-2.2445579,7.100804,-13.269922,-3.818371,8.431196,1.753905,9.752767,13.30401,13.860811,-15.3604765,69.91314,6.336989,-2.642805,1.1466476,-7.83025,-16.071808,17.089317,63.784668,-17.380186,-5.5225096,-4.439823
227,5.741860389709473,111.0669937133789,77.95570373535156,-0.7667626707991073,-0.25604053230847057,90.19471671837768,-23.206678,13.020801,16.954315,49.10097,-10.715296,2.9096334,5.490363,6.5000205,-1.8279995,7.131863,-13.681134,-4.0804353,8.916371,1.7708858,9.7460165,14.142302,13.695214,-14.833775,70.30488,6.169219,-2.5853689,1.1596859,-8.607271,-16.562204,16.769728,62.860794,-17.555607,-5.6131935,-4.601877
228,5.735832214355469,111.82733917236328,77.86570739746094,-0.8167308694753601,-0.22465902167630605,89.77306922929215,-23.361107,12.451116,17.046492,45.593792,-10.279423,2.3892584,6.085777,6.616877,-1.4334153,7.1601095,-14.109513,-4.3017335,9.383403,1.809503,9.710299,14.957666,13.525656,-14.331908,70.6819,6.012213,-2.5211847,1.1651113,-9.379306,-17.04948,16.456598,61.961956,-17.734812,-5.690286,-4.747337
229,5.7306227684021,112.59886169433594,77.758544921875,-0.8914923088769008,-0.166345919675289,89.35241833222024,-23.416,11.883952,17.14713,41.819576,-9.774674,1.7547196,6.6523533,6.751195,-1.0619532,7.1984344,-14.569142,-4.4755483,9.836567,1.8640243,9.63613,15.753406,13.356527,-13.858129,71.037224,5.86395,-2.4442916,1.165992,-10.15618,-17.530602,16.146097,61.093445,-17.921955,-5.7502384,-4.865807
230,5.7161102294921875,113.38333892822266,77.64071655273438,-0.9960457690843796,-0.09053009515263254,88.92560152799587,-23.360056,11.341101,17.253832,37.76954,-9.190652,1.042634,7.1836185,6.9141645,-0.70256317,7.276975,-15.058451,-4.645923,10.282213,1.9425031,9.5329685,16.532192,13.189365,-13.405978,71.36986,5.722307,-2.3637443,1.1648561,-10.938425,-18.004799,15.843726,60.252045,-18.113737,-5.799499,-4.975888
231,5.719203472137451,114.15740203857422,77.50975036621094,-1.1247195888535573,-0.01236150949261854,88.49844144502934,-23.186909,10.792395,17.351353,33.502747,-8.506584,0.25657398,7.741583,7.0948887,-0.34930742,7.3078537,-15.526559,-4.796858,10.7143545,2.0429773,9.4172735,17.286526,13.022399,-12.973155,71.693184,5.589873,-2.2858129,1.1531982,-11.714747,-18.469078,15.552646,59.443367,-18.304958,-5.8430777,-5.091402
232,5.722824573516846,114.93973541259766,77.36092376708984,-1.2747365772199475,0.05208879438579103,88.07519474276764,-22.886213,10.217141,17.421665,29.072384,-7.7026787,-0.59601593,8.35273,7.283653,0.0010146267,7.281602,-15.96425,-4.912347,11.128897,2.1682498,9.306093,18.008415,12.851917,-12.556974,72.02213,5.470403,-2.216967,1.1226947,-12.471885,-18.917728,15.273854,58.671856,-18.491793,-5.885898,-5.2260876
233,5.715395927429199,115.74603271484375,77.19817352294922,-1.4634297712593913,0.09561279707823295,87.64106570719505,-22.415552,9.644687,17.426384,24.341707,-6.69353,-1.5662224,8.99834,7.504108,0.35685903,7.2581763,-16.41315,-4.9779744,11.536556,2.3365648,9.199115,18.704124,12.67834,-12.160195,72.36086,5.3695874,-2.1639667,1.0737327,-13.218523,-19.349981,15.030287,57.944622,-18.679089,-5.9265823,-5.39491
234,5.703604698181152,116.55609893798828,77.01626586914062,-1.7142520255747784,0.11427371062810726,87.17776340091501,-21.72931,9.133366,17.380688,19.227045,-5.4812603,-2.6215415,9.670704,7.7843995,0.7340518,7.2550173,-16.879831,-5.010166,11.954134,2.5704117,9.092893,19.381365,12.501508,-11.780041,72.69755,5.28534,-2.1216228,1.010369,-13.961038,-19.767157,14.815272,57.261074,-18.86781,-5.963178,-5.5863714
235,5.692040920257568,117.37171173095703,76.81875610351562,-2.0374994559100745,0.09382003033902864,86.67781995785707,-20.83605,8.722986,17.352547,13.91238,-4.189233,-3.6373231,10.390406,8.135107,1.1514155,7.254026,-17.331474,-5.0409513,12.392963,2.8925915,8.998971,20.03425,12.315291,-11.410064,73.02563,5.206125,-2.0787294,0.93130404,-14.686241,-20.167337,14.586803,56.61969,-19.046658,-5.999624,-5.775082
236,5.681647300720215,118.19508361816406,76.60469055175781,-2.4363434053668467,0.02651076123870512,86.14194120573805,-19.736221,8.410034,17.42782,8.531144,-2.9034898,-4.499111,11.170654,8.553269,1.6212213,7.23874,-17.73567,-5.10054,12.856371,3.3144016,8.924734,20.654432,12.111516,-11.043605,73.340866,5.1213055,-2.0241327,0.83588296,-15.380619,-20.546432,14.300234,56.019634,-19.206398,-6.0398517,-5.936475
237,5.6607346534729,119.02330780029297,76.38138580322266,-2.8904090603940324,-0.07941399801863508,85.57737000739293,-20.171349,8.658241,17.284554,6.7895494,-3.6574607,-5.1454115,12.001284,9.012102,2.1380668,7.2180214,-18.112467,-5.1887183,13.331822,3.818187,8.8631315,21.249311,11.885463,-10.67248,73.64072,5.030758,-1.9596845,0.72191465,-16.055105,-20.903988,13.954479,55.472546,-19.346405,-6.0912967,-6.0625052
238,5.6277079582214355,119.86637115478516,76.1568603515625,-3.3450584328162187,-0.19733458703182807,85.0184957711277,-21.22684,9.116985,17.056194,6.564838,-5.2912703,-5.6136146,12.851552,9.447975,2.662931,7.1995177,-18.473711,-5.2789197,13.7855835,4.338678,8.805239,21.80768,11.63992,-10.298818,73.93782,4.941581,-1.8899555,0.591927,-16.713627,-21.238842,13.565797,54.97527,-19.474009,-6.149702,-6.1703916
239,5.568486213684082,120.73262023925781,75.9526596069336,-3.679652346264582,-0.27664817279430504,84.56021048936468,-22.278635,9.473755,17.022379,6.5836396,-6.966729,-5.990039,13.671983,9.713184,3.0938213,7.193436,-18.80957,-5.33566,14.141152,4.737078,8.758706,22.261822,11.384774,-9.934393,74.26909,4.8486986,-1.8070118,0.45331654,-17.329315,-21.537262,13.111651,54.49834,-19.58575,-6.2016416,-6.2804594
240,5.5088934898376465,121.58849334716797,75.77391815185547,-3.9283862602278146,-0.34529317632167417,84.17395919795298,-23.106943,9.797157,17.416033,6.617619,-8.3723955,-6.460636,14.471265,9.867589,3.461531,7.1890316,-19.052036,-5.3788867,14.433578,5.0515456,8.740993,22.616348,11.12801,-9.593356,74.625046,4.7461405,-1.70267,0.31198668,-17.891424,-21.794746,12.5862,54.041344,-19.678387,-6.233369,-6.399698
241,5.453871250152588,122.44184875488281,75.61344909667969,-4.141573253000818,-0.407310877550442,83.82208687796103,-23.68005,10.140166,18.504898,6.641268,-9.470037,-7.295594,15.253108,9.963456,3.7990134,7.181467,-19.201609,-5.4196362,14.693752,5.280684,8.737151,22.928654,10.9507885,-9.259122,74.95269,4.5977073,-1.5715615,0.14258826,-18.440483,-21.932316,11.979291,53.65661,-19.765629,-6.232359,-6.53489
